/* XPM */
static const char * firstislamiccoin256_xpm[] = {
"256 256 246 2",
"## c None",
"#$ c #EDC75A",
"#% c #EDC554",
"#& c #EAC454",
"#' c #E6C152",
"#( c #E2C35A",
"#) c #E2C259",
"#* c #E2C258",
"#+ c #E5C152",
"#, c #E1C259",
"#- c #E1C157",
"#. c #E0C159",
"#/ c #E1C156",
"#0 c #E5BF4D",
"#1 c #E1C055",
"#2 c #E0C055",
"#3 c #E0C054",
"#4 c #E0BF54",
"#5 c #E0BF53",
"#6 c #E0BE51",
"#7 c #DFC056",
"#8 c #DFBE52",
"#9 c #DFBE51",
"#: c #DFBE50",
"#; c #DCBE53",
"#< c #DFBD50",
"#= c #DEBD50",
"#> c #DEBD4F",
"#? c #DDBD52",
"#@ c #DCBD52",
"#A c #DBBD53",
"#B c #E3BB46",
"#C c #DEBC4F",
"#D c #DEBC4E",
"#E c #DEBC4C",
"#F c #DEBB4D",
"#G c #DDBC4E",
"#H c #DDBC4D",
"#I c #DDBC4C",
"#J c #DDBB4D",
"#K c #DDBB4C",
"#L c #DDBB4B",
"#M c #DDBA4A",
"#N c #DCBB4C",
"#O c #DCBA4B",
"#P c #DCBA4A",
"#Q c #DCBA49",
"#R c #E4B83F",
"#S c #E4B536",
"#T c #E2B63A",
"#U c #E1B335",
"#V c #DDB947",
"#W c #DFB53B",
"#X c #DFB336",
"#Y c #DBBB4E",
"#Z c #DBB949",
"#[ c #DBB948",
"#] c #D8BC53",
"#^ c #D4BB52",
"#_ c #D7B94E",
"#` c #DAB747",
"#a c #D9B542",
"#b c #D8B541",
"#c c #D6B646",
"#d c #D8B441",
"#e c #D8B440",
"#f c #D7B43F",
"#g c #D5B442",
"#h c #D7B33F",
"#i c #D7B33E",
"#j c #D7B33D",
"#k c #D5B340",
"#l c #DFB236",
"#m c #DDB236",
"#n c #DEB134",
"#o c #DCB236",
"#p c #DAB136",
"#q c #DBB035",
"#r c #D7B037",
"#s c #D7AF35",
"#t c #D6B23D",
"#u c #D6B23C",
"#v c #D6B23B",
"#w c #D6B13B",
"#x c #D6B037",
"#y c #D5B23E",
"#z c #D5B13B",
"#{ c #D5B13A",
"#| c #D5B03A",
"#} c #D5B039",
"#~ c #D5B038",
"$# c #D5AF37",
"$$ c #D4B03A",
"$% c #D4AF38",
"$& c #D4AF37",
"$' c #D5A932",
"$( c #D3B342",
"$) c #CFB447",
"$* c #D3AF39",
"$+ c #D3AF37",
"$, c #D2AF38",
"$- c #D3AE37",
"$. c #D2AE38",
"$/ c #D2AE37",
"$0 c #D2AE36",
"$1 c #D1AE37",
"$2 c #D0AE37",
"$3 c #D1AC36",
"$4 c #CFAC36",
"$5 c #CAAC38",
"$6 c #D1A934",
"$7 c #CFAA35",
"$8 c #CEAA35",
"$9 c #CEA935",
"$: c #CDAA36",
"$; c #CDA935",
"$< c #CDA835",
"$= c #CCAA35",
"$> c #CCA835",
"$? c #CCA834",
"$@ c #C5A938",
"$A c #D0A732",
"$B c #CEA632",
"$C c #CCA734",
"$D c #CBA734",
"$E c #CBA634",
"$F c #CAA735",
"$G c #CAA634",
"$H c #C9A634",
"$I c #C5A635",
"$J c #CEA431",
"$K c #CBA331",
"$L c #C9A534",
"$M c #C9A533",
"$N c #C8A533",
"$O c #C7A534",
"$P c #C8A433",
"$Q c #C7A433",
"$R c #C7A333",
"$S c #C8A130",
"$T c #C6A433",
"$U c #C6A333",
"$V c #C5A333",
"$W c #C3A334",
"$X c #C6A232",
"$Y c #C5A233",
"$Z c #C5A232",
"$[ c #C3A233",
"$] c #C5A132",
"$^ c #C4A132",
"$_ c #C4A032",
"$` c #C3A032",
"$a c #C2A032",
"$b c #C29F31",
"$c c #B3B057",
"$d c #B1AE53",
"$e c #B8AA43",
"$f c #B0A541",
"$g c #ABA543",
"$h c #AAA544",
"$i c #C0A334",
"$j c #BFA234",
"$k c #C09F32",
"$l c #ADA23D",
"$m c #A9A23F",
"$n c #A8A13C",
"$o c #A79F3B",
"$p c #A09E3D",
"$q c #9E9839",
"$r c #9D9638",
"$s c #9B9538",
"$t c #8C9840",
"$u c #6F8E43",
"$v c #588746",
"$w c #428048",
"$x c #357D4E",
"$y c #347B4A",
"$z c #327D4F",
"${ c #327C4E",
"$| c #327C4D",
"$} c #327B4A",
"$~ c #317C50",
"%# c #317C4E",
"%$ c #307C4F",
"%% c #307B4D",
"%& c #30794A",
"%' c #2F794B",
"%( c #2F794A",
"%) c #2F784A",
"%* c #2E794B",
"%+ c #2E784A",
"%, c #2D784A",
"%- c #2D774A",
"%. c #23764C",
"%/ c #18724E",
"%0 c #12704E",
"%1 c #10704F",
"%2 c #106F4E",
"%3 c #0F704F",
"%4 c #0F6F4F",
"%5 c #0F6F4E",
"%6 c #0C7655",
"%7 c #0C7554",
"%8 c #0C7453",
"%9 c #0C7352",
"%: c #0E6F4F",
"%; c #0D6F4F",
"%< c #0C6F4F",
"%= c #0D6E4F",
"%> c #0C6E4F",
"%? c #0B7252",
"%@ c #0B7050",
"%A c #0B6F50",
"%B c #0B6E4F",
"%C c #0B6E4E",
"%D c #0A6E4F",
"%E c #0B6D4F",
"%F c #0B6D4D",
"%G c #0B6C4E",
"%H c #0B6C4D",
"%I c #0B6B4E",
"%J c #096D4F",
"%K c #076D50",
"%L c #076D4F",
"%M c #076C50",
"%N c #066D50",
"%O c #066C50",
"%P c #066C4F",
"%Q c #056C50",
"%R c #036C50",
"%S c #036B50",
"%T c #036B4F",
"%U c #026B50",
"%V c #026B4F",
"%W c #016B50",
"%X c #006B51",
"%Y c #006B50",
"%Z c #006A51",
"%[ c #006A50",
"%] c #006A4F",
"%^ c #006951",
"%_ c #00694F",
"%` c #086449",
"%a c #08553D",
"%b c #074632",
"%c c #052F22",
"##################################################################################################%b%a%a%`%`%I%I%B%B%B%B%B%B%B%B%B%B%B%B%B%B%B%B%B%B%B%B%B%B%B%B%B%B%B%B%B%B%B%B%B%B%B%B%B%B%B%B%B%B%B%B%B%B%B%B%B%B%B%B%B%B%B%B%B%B%B%B%B%B%B%B%B%B%B%B%B%B%B%B%B%B%B%B%B%B%B%B%B%B%B%B%B%B%B%B%B%B%B%B%B%B%B%B%B%B%B%B%B%B%B%B%B%B%B%B%B%B%B%B%B%B%B%B%B%B%B%B%B%B%B%B%B%B%B%B%B%B%B%B%B%B%B%B%B%B%B%B%B%B%B%B%H%I%`%`%a%b%b##################################################################################################",
"######################################################################################%c%a%`%H%?%8%8%?%?%@%A%A%B%B%B%B%B%B%B%B%B%B%B%B%B%B%B%B%B%B%B%B%B%B%B%B%B%B%B%B%B%B%B%B%B%B%B%B%B%B%B%B%B%B%B%B%B%B%B%B%B%B%B%B%B%B%B%B%B%B%B%B%B%B%B%B%B%B%B%B%B%B%B%B%B%B%B%B%B%B%B%B%B%B%B%B%B%B%B%B%B%B%B%B%B%B%B%B%B%B%B%B%B%B%B%B%B%B%B%B%B%B%B%B%B%B%B%B%B%B%B%B%B%B%B%B%B%B%B%B%B%B%B%B%B%B%B%B%B%B%B%B%B%B%B%B%B%B%A%A%?%?%9%8%?%F%`%a##########################################################################################",
"################################################################################%a%`%8%6%8%?%A%H%F%F%H%H%B%B%B%B%B%B%B%B%B%B%B%B%B%B%B%B%B%B%B%B%B%B%B%B%B%B%B%B%B%B%B%B%B%B%B%B%B%B%B%B%B%B%B%B%B%B%B%B%B%B%B%B%B%B%B%B%B%B%B%B%B%B%B%B%B%B%B%B%B%B%B%B%B%B%B%B%B%B%B%B%B%B%B%B%B%B%B%B%B%B%B%B%B%B%B%B%B%B%B%B%B%B%B%B%B%B%B%B%B%B%B%B%B%B%B%B%B%B%B%B%B%B%B%B%B%B%B%B%B%B%B%B%B%B%B%B%B%B%B%B%B%B%B%B%B%B%B%B%B%B%B%E%H%F%F%H%B%?%8%6%9%`%b##################################################################################",
"##########################################################################%a%I%7%8%@%H%I%F%G%B%B%B%B%B%B%B%B%B%B%B%B%B%B%B%B%B%B%B%B%B%B%B%B%B%B%B%B%B%B%B%B%B%B%B%B%B%B%B%B%B%B%B%B%B%B%B%B%B%B%B%B%B%B%B%B%B%B%B%B%B%B%B%B%B%B%B%B%B%B%B%B%B%B%B%B%B%B%B%B%B%B%B%B%B%B%B%B%B%B%B%B%B%B%B%B%B%B%B%B%B%B%B%B%B%B%B%B%B%B%B%B%B%B%B%B%B%B%B%B%B%B%B%B%B%B%B%B%B%B%B%B%B%B%B%B%B%B%B%B%B%B%B%B%B%B%B%B%B%B%B%B%B%B%B%B%B%B%B%B%B%B%B%E%F%I%E%?%7%9%`%b############################################################################",
"####################################################################%b%`%7%9%A%I%F%B%B%B%B%B%B%B%B%B%B%B%B%B%B%B%B%B%B%B%B%B%B%B%B%B%B%B%B%B%B%B%B%B%B%B%B%B%B%B%B%B%B%B%B%B%B%B%B%B%B%B%B%B%B%B%B%B%B%B%B%B%B%B%B%B%B%B%B%B%B%B%B%B%B%B%B%B%B%B%B%B%B%B%B%B%B%B%B%B%B%B%B%B%B%B%B%B%B%B%B%B%B%B%B%B%B%B%B%B%B%B%B%B%B%B%B%B%B%B%B%B%B%B%B%B%B%B%B%B%B%B%B%B%B%B%B%B%B%B%B%B%B%B%B%B%B%B%B%B%B%B%B%B%B%B%B%B%B%B%B%B%B%B%B%B%B%B%B%B%B%B%B%H%I%H%?%6%E%a########################################################################",
"################################################################%a%A%6%@%H%F%B%B%B%B%B%B%B%B%B%B%B%B%B%B%B%B%B%B%B%B%B%B%B%B%B%B%B%B%B%B%B%B%B%B%B%B%B%B%B%B%B%B%B%B%B%B%B%B%B%B%B%B%B%B%B%B%B%B%B%B%B%B%B%B%B%B%B%B%B%B%B%B%B%B%B%B%B%B%B%B%B%B%B%B%B%B%B%B%B%B%B%B%B%B%B%B%B%B%B%B%B%B%B%B%B%B%B%B%B%B%B%B%B%B%B%B%B%B%B%B%B%B%B%B%B%B%B%B%B%B%B%B%B%B%B%B%B%B%B%B%B%B%B%B%B%B%B%B%B%B%B%B%B%B%B%B%B%B%B%B%B%B%B%B%B%B%B%B%B%B%B%B%B%B%B%B%B%B%H%I%B%8%?%a####################################################################",
"############################################################%a%9%8%B%I%E%B%B%B%B%B%B%B%B%B%B%B%B%B%B%B%B%B%B%B%B%B%B%B%B%B%B%B%B%B%B%B%B%B%B%B%B%B%B%B%B%B%B%B%B%B%B%B%B%B%B%B%B%B%B%B%B%B%B%B%B%B%B%B%B%B%B%B%B%B%B%B%B%B%B%B%B%B%B%B%B%B%B%B%B%B%B%B%B%B%B%B%B%B%B%B%B%B%B%B%B%B%B%B%B%B%B%B%B%B%B%B%B%B%B%B%B%B%B%B%B%B%B%B%B%B%B%B%B%B%B%B%B%B%B%B%B%B%B%B%B%B%B%B%B%B%B%B%B%B%B%B%B%B%B%B%B%B%B%B%B%B%B%B%B%B%B%B%B%B%B%B%B%B%B%B%B%B%B%B%B%B%B%B%F%H%9%9%a################################################################",
"########################################################%b%?%8%E%F%B%B%B%B%B%B%B%B%B%B%B%B%B%B%B%B%B%B%B%B%B%B%B%B%B%B%B%B%B%B%B%B%B%B%B%B%B%B%B%B%B%B%B%B%B%B%B%B%B%B%B%B%B%B%B%B%B%B%B%B%B%B%B%B%B%B%B%B%B%B%B%B%B%B%B%B%B%B%B%B%B%B%B%B%B%B%B%B%B%B%B%B%B%B%B%B%B%B%B%B%B%B%B%B%B%B%B%B%B%B%B%B%B%B%B%B%B%B%B%B%B%B%B%B%B%B%B%B%B%B%B%B%B%B%B%B%B%B%B%B%B%B%B%B%B%B%B%B%B%B%B%B%B%B%B%B%B%B%B%B%B%B%B%B%B%B%B%B%B%B%B%B%B%B%B%B%B%B%B%B%B%B%B%B%B%B%B%B%H%H%8%?%b############################################################",
"######################################################%I%7%B%F%B%B%B%B%B%B%B%B%B%B%B%B%B%B%B%B%B%B%B%B%B%B%B%B%B%B%B%B%B%B%B%B%B%B%B%B%B%B%B%B%B%B%B%B%B%B%B%B%B%B%B%B%B%B%B%B%B%B%B%B%B%B%B%B%B%B%B%B%B%B%B%B%B%B%B%B%B%B%B%B%B%B%B%B%B%B%B%B%B%B%B%B%B%B%B%B%B%B%B%B%B%B%B%B%B%B%B%B%B%B%B%B%B%B%B%B%B%B%B%B%B%B%B%B%B%B%B%B%B%B%B%B%B%B%B%B%B%B%B%B%B%B%B%B%B%B%B%B%B%B%B%B%B%B%B%B%B%B%B%B%B%B%B%B%B%B%B%B%B%B%B%B%B%B%B%B%B%B%B%B%B%B%B%B%B%B%B%B%B%B%B%B%F%B%7%`##########################################################",
"##################################################%a%6%A%H%B%B%B%B%B%B%B%B%B%B%B%B%B%B%B%B%B%B%B%B%B%B%B%B%B%B%B%B%B%B%B%B%B%B%B%B%B%B%B%B%B%B%B%B%B%B%B%B%B%B%B%B%B%B%B%B%B%B%B%B%B%B%B%B%B%B%B%B%B%B%B%B%B%B%B%B%B%B%B%B%B%B%B%B%B%B%B%B%B%B%B%B%B%B%B%B%B%B%B%B%B%B%B%B%B%B%B%B%B%B%B%B%B%B%B%B%B%B%B%B%B%B%B%B%B%B%B%B%B%B%B%B%B%B%B%B%B%B%B%B%B%B%B%B%B%B%B%B%B%B%B%B%B%B%B%B%B%B%B%B%B%B%B%B%B%B%B%B%B%B%B%B%B%B%B%B%B%B%B%B%B%B%B%B%B%B%B%B%B%B%B%B%B%B%B%B%I%@%7%a######################################################",
"################################################%H%8%I%B%B%B%B%B%B%B%B%B%B%B%B%B%B%B%B%B%B%B%B%B%B%B%B%B%B%B%B%B%B%B%B%B%B%B%B%B%B%B%B%B%B%B%B%B%B%B%B%B%B%B%B%B%B%B%B%B%B%B%B%B%B%B%B%B%B%B%B%B%B%B%B%B%B%B%B%B%B%B%B%B%B%B%B%B%B%B%B%B%B%B%B%B%B%B%B%B%B%B%B%B%B%B%B%B%B%B%B%B%B%B%B%B%B%B%B%B%B%B%B%B%B%B%B%B%B%B%B%B%B%B%B%B%B%B%B%B%B%B%B%B%B%B%B%B%B%B%B%B%B%B%B%B%B%B%B%B%B%B%B%B%B%B%B%B%B%B%B%B%B%B%B%B%B%B%B%B%B%B%B%B%B%B%B%B%B%B%B%B%B%B%B%B%B%B%B%B%B%B%E%H%7%`####################################################",
"############################################%b%6%B%H%B%B%B%B%B%B%B%B%B%B%B%B%B%B%B%B%B%B%B%B%B%B%B%B%B%B%B%B%B%B%B%B%B%B%B%B%B%B%B%B%B%B%B%B%B%B%B%B%B%B%B%B%B%B%B%B%B%B%B%B%B%B%B%B%B%B%B%B%B%B%B%B%B%B%B%B%B%B%B%B%B%B%B%B%B%B%B%B%B%B%B%B%B%B%B%B%B%B%B%B%B%B%B%B%B%B%B%B%B%B%B%B%B%B%B%B%B%B%B%B%B%B%B%B%B%B%B%B%B%B%B%B%B%B%B%B%B%B%B%B%B%B%B%B%B%B%B%B%B%B%B%B%B%B%B%B%B%B%B%B%B%B%B%B%B%B%B%B%B%B%B%B%B%B%B%B%B%B%B%B%B%B%B%B%B%B%B%B%B%B%B%B%B%B%B%B%B%B%B%B%B%B%H%@%8%b################################################",
"##########################################%`%7%I%B%B%B%B%B%B%B%B%B%B%B%B%B%B%B%B%B%B%B%B%B%B%B%B%B%B%B%B%B%B%B%B%B%B%B%B%B%B%B%B%B%B%B%B%B%B%B%B%B%B%B%B%B%B%B%B%B%B%B%B%B%B%B%B%B%B%B%B%B%B%B%B%B%B%B%B%B%B%B%B%B%B%B%B%B%B%B%B%B%B%B%B%B%B%B%B%B%B%B%B%B%B%B%B%B%B%B%B%B%B%B%B%B%B%B%B%B%B%B%B%B%B%B%B%B%B%B%B%B%B%B%B%B%B%B%B%B%B%B%B%B%B%B%B%B%B%B%B%B%B%B%B%B%B%B%B%B%B%B%B%B%B%B%B%B%B%B%B%B%B%B%B%B%B%B%B%B%B%B%B%B%B%B%B%B%B%B%B%B%B%B%B%B%B%B%B%B%B%B%B%B%B%B%B%B%E%F%6%a##############################################",
"########################################%H%9%I%B%B%B%B%B%B%B%B%B%B%B%B%B%B%B%B%B%B%B%B%B%B%B%B%B%B%B%B%B%B%B%B%B%B%B%B%B%B%B%B%B%B%B%B%B%B%B%B%B%B%B%B%B%B%B%B%B%B%B%B%B%B%B%B%B%B%B%B%B%B%B%B%B%B%B%B%B%B%B%B%B%B%B%B%B%B%B%B%B%B%B%B%B%B%B%B%B%B%B%B%B%B%B%B%B%B%B%B%B%B%B%B%B%B%B%B%B%B%B%B%B%B%B%B%B%B%B%B%B%B%B%B%B%B%B%B%B%B%B%B%B%B%B%B%B%B%B%B%B%B%B%B%B%B%B%B%B%B%B%B%B%B%B%B%B%B%B%B%B%B%B%B%B%B%B%B%B%B%B%B%B%B%B%B%B%B%B%B%B%B%B%B%B%B%B%B%B%B%B%B%B%B%B%B%B%B%B%B%I%7%`############################################",
"######################################%?%@%H%B%B%B%B%B%B%B%B%B%B%B%B%B%B%B%B%B%B%B%B%B%B%B%B%B%B%B%B%B%B%B%B%B%B%B%B%B%B%B%B%B%B%B%B%B%B%B%B%B%B%B%B%B%B%B%B%B%B%B%B%B%B%B%B%B%B%B%B%B%B%B%B%B%B%B%B%B%B%B%B%B%B%B%B%B%B%B%B%B%B%B%B%B%B%B%B%B%B%B%B%B%B%B%B%B%B%B%B%B%B%B%B%B%B%B%B%B%B%B%B%B%B%B%B%B%B%B%B%B%B%B%B%B%B%B%B%B%B%B%B%B%B%B%B%B%B%B%B%B%B%B%B%B%B%B%B%B%B%B%B%B%B%B%B%B%B%B%B%B%B%B%B%B%B%B%B%B%B%B%B%B%B%B%B%B%B%B%B%B%B%B%B%B%B%B%B%B%B%B%B%B%B%B%B%B%B%B%B%B%B%I%9%H##########################################",
"####################################%7%E%H%B%B%B%B%B%B%B%B%B%B%B%B%B%B%B%B%B%B%B%B%B%B%B%B%B%B%B%B%B%B%B%B%B%B%B%B%B%B%B%B%B%B%B%B%B%B%B%B%B%B%B%B%B%B%B%B%B%B%B%B%B%B%B%B%B%B%B%B%B%B%B%B%B%B%B%B%B%B%B%B%B%B%B%B%B%B%B%B%B%B%B%B%B%B%B%B%B%B%B%B%B%B%B%B%B%B%B%B%B%B%B%B%B%B%B%B%B%B%B%B%B%B%B%B%B%B%B%B%B%B%B%B%B%B%B%B%B%B%B%B%B%B%B%B%B%B%B%B%B%B%B%B%B%B%B%B%B%B%B%B%B%B%B%B%B%B%B%B%B%B%B%B%B%B%B%B%B%B%B%B%B%B%B%B%B%B%B%B%B%B%B%B%B%B%B%B%B%B%B%B%B%B%B%B%B%B%B%B%B%B%B%B%H%@%A########################################",
"##################################%7%F%E%B%B%B%B%B%B%B%B%B%B%B%B%B%B%B%B%B%B%B%B%B%B%B%B%B%B%B%B%B%B%B%B%B%B%B%B%B%B%B%B%B%B%B%B%B%B%B%B%B%B%B%B%B%B%B%B%B%B%B%B%B%B%B%B%B%B%B%B%B%B%B%B%B%B%B%B%B%B%B%B%B%B%B%B%B%B%B%B%B%B%B%B%B%B%B%B%B%B%B%B%B%B%B%B%B%B%B%B%B%B%B%B%B%B%B%B%B%B%B%B%B%B%B%B%B%B%B%B%B%B%B%B%B%B%B%B%B%B%B%B%B%B%B%B%B%B%B%B%B%B%B%B%B%B%B%B%B%B%B%B%B%B%B%B%B%B%B%B%B%B%B%B%B%B%B%B%B%B%B%B%B%B%B%B%B%B%B%B%B%B%B%B%B%B%B%B%B%B%B%B%B%B%B%B%B%B%B%B%B%B%B%B%B%B%H%A%?######################################",
"################################%7%G%B%B%B%B%B%B%B%B%B%B%B%B%B%B%B%B%B%B%B%B%B%B%B%B%B%B%B%B%B%B%B%B%B%B%B%B%B%B%B%B%B%B%B%B%B%B%B%B%B%B%B%B%B%B%B%B%B%B%B%B%B%B%B%B%B%B%B%B%B%B%B%B%B%B%B%B%B%B%B%B%B%B%B%B%B%B%B%B%B%B%B%B%B%B%B%B%B%B%B%B%B%B%B%B%B%B%B%B%B%;%;%B%B%B%B%B%B%B%B%B%B%B%B%B%B%B%B%B%B%B%B%B%B%B%B%B%B%B%B%B%B%B%B%B%B%B%B%B%B%B%B%B%B%B%B%B%B%B%B%B%B%B%B%B%B%B%B%B%B%B%B%B%B%B%B%B%B%B%B%B%B%B%B%B%B%B%B%B%B%B%B%B%B%B%B%B%B%B%B%B%B%B%B%B%B%B%B%B%B%B%B%B%B%B%B%B%B%E%E%?####################################",
"##############################%7%G%B%B%B%B%B%B%B%B%B%B%B%B%B%B%B%B%B%B%B%B%B%B%B%B%B%B%B%B%B%B%B%B%B%B%B%B%B%B%B%B%B%B%B%B%B%B%B%B%B%B%B%B%B%B%B%B%B%B%B%B%B%B%B%B%B%B%B%B%B%B%B%B%B%B%B%B%B%B%B%B%B%B%B%B%B%B%B%B%B%B%B%B%B%B%B%B%B%B%B%B%B%B%B%B%B%B%B%B%B%:%T%T%:%B%B%B%B%B%B%B%B%B%B%B%B%B%B%B%B%B%B%B%B%B%B%B%B%B%B%B%B%B%B%B%B%B%B%B%B%B%B%B%B%B%B%B%B%B%B%B%B%B%B%B%B%B%B%B%B%B%B%B%B%B%B%B%B%B%B%B%B%B%B%B%B%B%B%B%B%B%B%B%B%B%B%B%B%B%B%B%B%B%B%B%B%B%B%B%B%B%B%B%B%B%B%B%B%B%B%E%E%?##################################",
"############################%?%C%E%B%B%B%B%B%B%B%B%B%B%B%B%B%B%B%B%B%B%B%B%B%B%B%B%B%B%B%B%B%B%B%B%B%B%B%B%B%B%B%B%B%B%B%B%B%B%B%B%B%B%B%B%B%B%B%B%B%B%B%B%B%B%B%B%B%B%B%B%B%B%B%B%B%B%B%B%B%B%B%B%B%B%B%B%B%B%B%B%B%B%B%B%B%B%B%B%B%B%B%B%B%B%B%B%B%B%B%B%3%_$x$x%_%3%B%B%B%B%B%B%B%B%B%B%B%B%B%B%B%B%B%B%B%B%B%B%B%B%B%B%B%B%B%B%B%B%B%B%B%B%B%B%B%B%B%B%B%B%B%B%B%B%B%B%B%B%B%B%B%B%B%B%B%B%B%B%B%B%B%B%B%B%B%B%B%B%B%B%B%B%B%B%B%B%B%B%B%B%B%B%B%B%B%B%B%B%B%B%B%B%B%B%B%B%B%B%B%B%B%B%H%B%@################################",
"##########################%I%B%H%B%B%B%B%B%B%B%B%B%B%B%B%B%B%B%B%B%B%B%B%B%B%B%B%B%B%B%B%B%B%B%B%B%B%B%B%B%B%B%B%B%B%B%B%B%B%B%B%B%B%B%B%B%B%B%B%B%B%B%B%B%B%B%B%B%B%B%B%B%B%B%B%B%B%B%B%B%B%B%B%B%B%B%B%B%B%B%B%B%B%B%B%B%B%B%B%B%B%B%B%B%B%B%B%B%B%B%B%3%_%$#]#]$~%_%3%B%B%B%B%B%B%B%B%B%B%B%B%B%B%B%B%B%B%B%B%B%B%B%B%B%B%B%B%B%B%B%B%B%B%B%B%B%B%B%B%B%B%B%B%B%B%B%B%B%B%B%B%B%B%B%B%B%B%B%B%B%B%B%B%B%B%B%B%B%B%B%B%B%B%B%B%B%B%B%B%B%B%B%B%B%B%B%B%B%B%B%B%B%B%B%B%B%B%B%B%B%B%B%B%B%B%H%@%I##############################",
"########################%`%?%H%B%B%B%B%B%B%B%B%B%B%B%B%B%B%B%B%B%B%B%B%B%B%B%B%B%B%B%B%B%B%B%B%B%B%B%B%B%B%B%B%B%B%B%B%B%B%B%B%B%B%B%B%B%B%B%B%B%B%B%B%B%B%B%B%B%B%B%B%B%B%B%B%B%B%B%B%B%B%B%B%B%B%B%B%B%B%B%B%B%B%B%B%B%B%B%B%B%B%B%B%B%B%B%B%B%B%B%B%3%_$~#^#+#+#^$~%_%3%B%B%B%B%B%B%B%B%B%B%B%B%B%B%B%B%B%B%B%B%B%B%B%B%B%B%B%B%B%B%B%B%B%B%B%B%B%B%B%B%B%B%B%B%B%B%B%B%B%B%B%B%B%B%B%B%B%B%B%B%B%B%B%B%B%B%B%B%B%B%B%B%B%B%B%B%B%B%B%B%B%B%B%B%B%B%B%B%B%B%B%B%B%B%B%B%B%B%B%B%B%B%B%B%B%B%H%?%`############################",
"######################%b%7%I%B%B%B%B%B%B%B%B%B%B%B%B%B%B%B%B%B%B%B%B%B%B%B%B%B%B%B%B%B%B%B%B%B%B%B%B%B%B%B%B%B%B%B%B%B%B%B%B%B%B%B%B%B%B%B%B%B%B%B%B%B%B%B%B%B%B%B%B%B%B%B%B%B%B%B%B%B%B%B%B%B%B%B%B%B%B%B%B%B%B%B%B%B%B%B%B%B%B%B%B%B%B%B%B%B%B%B%B%3%_$~#^#'#@#@#'#^${%_%3%B%B%B%B%B%B%B%B%B%B%B%B%B%B%B%B%B%B%B%B%B%B%B%B%B%B%B%B%B%B%B%B%B%B%B%B%B%B%B%B%B%B%B%B%B%B%B%B%B%B%B%B%B%B%B%B%B%B%B%B%B%B%B%B%B%B%B%B%B%B%B%B%B%B%B%B%B%B%B%B%B%B%B%B%B%B%B%B%B%B%B%B%B%B%B%B%B%B%B%B%B%B%B%B%B%B%H%7%a##########################",
"######################%6%I%B%B%B%B%B%B%B%B%B%B%B%B%B%B%B%B%B%B%B%B%B%B%B%B%B%B%B%B%B%B%B%B%B%B%B%B%B%B%B%B%B%B%B%B%B%B%B%B%B%B%B%B%B%B%B%B%B%B%B%B%B%B%B%B%B%B%B%B%B%B%B%B%B%B%B%B%B%B%B%B%B%B%B%B%B%B%B%B%B%B%B%B%B%B%B%B%B%B%B%B%B%B%B%B%B%B%B%B%3%_$~#^#'#@#8#8#@#'#^${%_%4%B%B%B%B%B%B%B%B%B%B%B%B%B%B%B%B%B%B%B%B%B%B%B%B%B%B%B%B%B%B%B%B%B%B%B%B%B%B%B%B%B%B%B%B%B%B%B%B%B%B%B%B%B%B%B%B%B%B%B%B%B%B%B%B%B%B%B%B%B%B%B%B%B%B%B%B%B%B%B%B%B%B%B%B%B%B%B%B%B%B%B%B%B%B%B%B%B%B%B%B%B%B%B%B%B%B%I%6%b########################",
"####################%B%C%B%B%B%B%B%B%B%B%B%B%B%B%B%B%B%B%B%B%B%B%B%B%B%B%B%B%B%B%B%B%B%B%B%B%B%B%B%B%B%B%B%B%B%B%B%B%B%B%B%B%B%B%B%B%B%B%B%B%B%B%B%B%B%B%B%B%B%B%B%B%B%B%B%B%B%B%B%B%B%B%B%B%B%B%B%B%B%B%B%B%B%B%B%B%B%B%B%B%B%B%B%B%B%B%B%B%B%B%3%_$~#^#'#@#8#8#8#9#@#'#^${%_%4%B%B%B%B%B%B%B%B%B%B%B%B%B%B%B%B%B%B%B%B%B%B%B%B%B%B%B%B%B%B%B%B%B%B%B%B%B%B%B%B%B%B%B%B%B%B%B%B%B%B%B%B%B%B%B%B%B%B%B%B%B%B%B%B%B%B%B%B%B%B%B%B%B%B%B%B%B%B%B%B%B%B%B%B%B%B%B%B%B%B%B%B%B%B%B%B%B%B%B%B%B%B%B%B%B%B%I%8########################",
"##################%a%8%H%B%B%B%B%B%B%B%B%B%B%B%B%B%B%B%B%B%B%B%B%B%B%B%B%B%B%B%B%B%B%B%B%B%B%B%B%B%B%B%B%B%B%B%B%B%B%B%B%B%B%B%B%B%B%B%B%B%B%B%B%B%B%B%B%B%B%B%B%B%B%B%B%B%B%B%B%B%B%B%B%B%B%B%B%B%B%B%B%B%B%B%B%B%B%B%B%B%B%B%B%B%B%B%B%B%B%B%3%_$~#^#'#@#8#8#8#9#9#9#@#+#^${%_%4%B%B%B%B%B%B%B%B%B%B%B%B%B%B%B%B%B%B%B%B%B%B%B%B%B%B%B%B%B%B%B%B%B%B%B%B%B%B%B%B%B%B%B%B%B%B%B%B%B%B%B%B%B%B%B%B%B%B%B%B%B%B%B%B%B%B%B%B%B%B%B%B%B%B%B%B%B%B%B%B%B%B%B%B%B%B%B%B%B%B%B%B%B%B%B%B%B%B%B%B%B%B%B%B%B%G%A%I######################",
"##################%6%H%B%B%B%B%B%B%B%B%B%B%B%B%B%B%B%B%B%B%B%B%B%B%B%B%B%B%B%B%B%B%B%B%B%B%B%B%B%B%B%B%B%B%B%B%B%B%B%B%B%B%B%B%B%B%B%B%B%B%B%B%B%B%B%B%B%B%B%B%B%B%B%B%B%B%B%B%B%B%B%B%B%B%B%B%B%B%B%B%B%B%B%B%B%B%B%B%B%B%B%B%B%B%B%B%B%B%B%3%_$~#^#'#@#8#8#8#9#9#9#9#<#Y#+#^${%_%4%B%B%B%B%B%B%B%B%B%B%B%B%B%B%B%B%B%B%B%B%B%B%B%B%B%B%B%B%B%B%B%B%B%B%B%B%B%B%B%B%B%B%B%B%B%B%B%B%B%B%B%B%B%B%B%B%B%B%B%B%B%B%B%B%B%B%B%B%B%B%B%B%B%B%B%B%B%B%B%B%B%B%B%B%B%B%B%B%B%B%B%B%B%B%B%B%B%B%B%B%B%B%B%B%B%H%7%a####################",
"################%I%B%B%B%B%B%B%B%B%B%B%B%B%B%B%B%B%B%B%B%B%B%B%B%B%B%B%B%B%B%B%B%B%B%B%B%B%B%B%B%B%B%B%B%B%B%B%B%B%B%B%B%B%B%B%B%B%B%B%B%B%B%B%B%B%B%B%B%B%B%B%B%B%B%B%B%B%B%B%B%B%B%B%B%B%B%B%B%B%B%B%B%B%B%B%B%B%B%B%B%B%B%B%B%B%B%B%B%B%3%_$~#^#'#@#8#8#8#9#9#9#9#=#=#=#Y#+#_${%_%4%B%B%B%B%B%B%B%B%B%B%B%B%B%B%B%B%B%B%B%B%B%B%B%B%B%B%B%B%B%B%B%B%B%B%B%B%B%B%B%B%B%B%B%B%B%B%B%B%B%B%B%B%B%B%B%B%B%B%B%B%B%B%B%B%B%B%B%B%B%B%B%B%B%B%B%B%B%B%B%B%B%B%B%B%B%B%B%B%B%B%B%B%B%B%B%B%B%B%B%B%B%B%B%B%B%I%6####################",
"##############%b%7%H%B%B%B%B%B%B%B%B%B%B%B%B%B%B%B%B%B%B%B%B%B%B%B%B%B%B%B%B%B%B%B%B%B%B%B%B%B%B%B%B%B%B%B%B%B%B%B%B%B%B%B%B%B%B%B%B%B%B%B%B%B%B%B%B%B%B%B%B%B%B%B%B%B%B%B%B%B%B%B%B%B%B%B%B%B%B%B%B%B%B%B%B%B%B%B%B%B%B%B%B%B%B%B%B%B%B%3%_$~#^#'#@#8#8#8#9#9#9#9#=#=#=#=#=#Y#0#_${%_%4%B%B%B%B%B%B%B%B%B%B%B%B%B%B%B%B%B%B%B%B%B%B%B%B%B%B%B%B%B%B%B%B%B%B%B%B%B%B%B%B%B%B%B%B%B%B%B%B%B%B%B%B%B%B%B%B%B%B%B%B%B%B%B%B%B%B%B%B%B%B%B%B%B%B%B%B%B%B%B%B%B%B%B%B%B%B%B%B%B%B%B%B%B%B%B%B%B%B%B%B%B%B%B%B%E%B%I##################",
"##############%?%F%B%B%B%B%B%B%B%B%B%B%B%B%B%B%B%B%B%B%B%B%B%B%B%B%B%B%B%B%B%B%B%B%B%B%B%B%B%B%B%B%B%B%B%B%B%B%B%B%B%B%B%B%B%B%B%B%B%B%B%B%B%B%B%B%B%B%B%B%B%B%B%B%B%B%B%B%B%B%B%B%B%B%B%B%B%B%B%B%B%B%B%B%B%B%B%B%B%B%B%B%B%B%B%B%B%B%3%_$~#^#'#@#8#8#8#9#9#9#9#=#=#=#=#=#>#>#Y#0#_${%_%4%B%B%B%B%B%B%B%B%B%B%B%B%B%B%B%B%B%B%B%B%B%B%B%B%B%B%B%B%B%B%B%B%B%B%B%B%B%B%B%B%B%B%B%B%B%B%B%B%B%B%B%B%B%B%B%B%B%B%B%B%B%B%B%B%B%B%B%B%B%B%B%B%B%B%B%B%B%B%B%B%B%B%B%B%B%B%B%B%B%B%B%B%B%B%B%B%B%B%B%B%B%B%B%B%H%7%b################",
"############%a%8%H%B%B%B%B%B%B%B%B%B%B%B%B%B%B%B%B%B%B%B%B%B%B%B%B%B%B%B%B%B%B%B%B%B%B%B%B%B%B%B%B%B%B%B%B%B%B%B%B%B%B%B%B%B%B%B%B%B%B%B%B%B%B%B%B%B%B%B%B%B%B%B%B%B%B%B%B%B%B%B%B%B%B%B%B%B%B%B%B%B%B%B%B%B%B%B%B%B%B%B%B%B%B%B%B%B%3%_$~#^#'#@#8#8#8#9#9#9#9#=#=#=#=#=#>#>#>#>#Y#0#_${%_%4%B%B%B%B%B%B%B%B%B%B%B%B%B%B%B%B%B%B%B%B%B%B%B%B%B%B%B%B%B%B%B%B%B%B%B%B%B%B%B%B%B%B%B%B%B%B%B%B%B%B%B%B%B%B%B%B%B%B%B%B%B%B%B%B%B%B%B%B%B%B%B%B%B%B%B%B%B%B%B%B%B%B%B%B%B%B%B%B%B%B%B%B%B%B%B%B%B%B%B%B%B%B%B%B%F%8################",
"############%9%H%B%B%B%B%B%B%B%B%B%B%B%B%B%B%B%B%B%B%B%B%B%B%B%B%B%B%B%B%B%B%B%B%B%B%B%B%B%B%B%B%B%B%B%B%B%B%B%B%B%B%B%B%B%B%B%B%B%B%B%B%B%B%B%B%B%B%B%B%B%B%B%B%B%B%B%B%B%B%B%B%B%B%B%B%B%B%B%B%B%B%B%B%B%B%B%B%B%B%B%B%B%B%B%B%B%3%_$~#^#'#@#8#8#8#9#9#9#9#=#=#=#=#=#>#>#>#>#C#D#Y#0#_${%]%4%B%B%B%B%B%B%B%B%B%B%B%B%B%B%B%B%B%B%B%B%B%B%B%B%B%B%B%B%B%B%B%B%B%B%B%B%B%B%B%B%B%B%B%B%B%B%B%B%B%B%B%B%B%B%B%B%B%B%B%B%B%B%B%B%B%B%B%B%B%B%B%B%B%B%B%B%B%B%B%B%B%B%B%B%B%B%B%B%B%B%B%B%B%B%B%B%B%B%B%B%B%B%B%F%9%a##############",
"##########%a%7%I%B%B%B%B%B%B%B%B%B%B%B%B%B%B%B%B%B%B%B%B%B%B%B%B%B%B%B%B%B%B%B%B%B%B%B%B%B%B%B%B%B%B%B%B%B%B%B%B%B%B%B%B%B%B%B%B%B%B%B%B%B%B%B%B%B%B%B%B%B%B%B%B%B%B%B%B%B%B%B%B%B%B%B%B%B%B%B%B%B%B%B%B%B%B%B%B%B%B%B%B%B%B%B%B%3%_$~#^#'#@#8#8#8#9#9#9#9#=#=#=#=#=#>#>#>#>#C#D#D#G#Y#0#_${%]%4%B%B%B%B%B%B%B%B%B%B%B%B%B%B%B%B%B%B%B%B%B%B%B%B%B%B%B%B%B%B%B%B%B%B%B%B%B%B%B%B%B%B%B%B%B%B%B%B%B%B%B%B%B%B%B%B%B%B%B%B%B%B%B%B%B%B%B%B%B%B%B%B%B%B%B%B%B%B%B%B%B%B%B%B%B%B%B%B%B%B%B%B%B%B%B%B%B%B%B%B%B%B%B%H%6##############",
"##########%A%E%B%B%B%B%B%B%B%B%B%B%B%B%B%B%B%B%B%B%B%B%B%B%B%B%B%B%B%B%B%B%B%B%B%B%B%B%B%B%B%B%B%B%B%B%B%B%B%B%B%B%B%B%B%B%B%B%B%B%B%B%B%B%B%B%B%B%B%B%B%B%B%B%B%B%B%B%B%B%B%B%B%B%B%B%B%B%B%B%B%B%B%B%B%B%B%B%B%B%B%B%B%B%B%B%3%_$~#^#'#@#8#8#8#9#9#9#9#=#=#=#=#=#>#>#>#>#C#D#D#G#G#G#Y#0#_${%]%4%B%B%B%B%B%B%B%B%B%B%B%B%B%B%B%B%B%B%B%B%B%B%B%B%B%B%B%B%B%B%B%B%B%B%B%B%B%B%B%B%B%B%B%B%B%B%B%B%B%B%B%B%B%B%B%B%B%B%B%B%B%B%B%B%B%B%B%B%B%B%B%B%B%B%B%B%B%B%B%B%B%B%B%B%B%B%B%B%B%B%B%B%B%B%B%B%B%B%B%B%B%B%H%?%`############",
"########%b%6%I%B%B%B%B%B%B%B%B%B%B%B%B%B%B%B%B%B%B%B%B%B%B%B%B%B%B%B%B%B%B%B%B%B%B%B%B%B%B%B%B%B%B%B%B%B%B%B%B%B%B%B%B%B%B%B%B%B%B%B%B%B%B%B%B%B%B%B%B%B%B%B%B%B%B%B%B%B%B%B%B%B%B%B%B%B%B%B%B%B%B%B%B%B%B%B%B%B%B%B%B%B%B%B%3%_$~#^#'#@#8#8#8#9#9#9#9#=#=#=#=#=#>#>#>#>#C#D#D#G#G#G#H#H#Y#0#_${%]%4%B%B%B%B%B%B%B%B%B%B%B%B%B%B%B%B%B%B%B%B%B%B%B%B%B%B%B%B%B%B%B%B%B%B%B%B%B%B%B%B%B%B%B%B%B%B%B%B%B%B%B%B%B%B%B%B%B%B%B%B%B%B%B%B%B%B%B%B%B%B%B%B%B%B%B%B%B%B%B%B%B%B%B%B%B%B%B%B%B%B%B%B%B%B%B%B%B%B%B%B%B%B%H%6############",
"########%`%@%B%B%B%B%B%B%B%B%B%B%B%B%B%B%B%B%B%B%B%B%B%B%B%B%B%B%B%B%B%B%B%B%B%B%B%B%B%B%B%B%B%B%B%B%B%B%B%B%B%B%B%B%B%B%B%B%B%B%B%B%B%B%B%B%B%B%B%B%B%B%B%B%B%B%B%B%B%B%B%B%B%B%B%B%B%B%B%B%B%B%B%B%B%B%B%B%B%B%B%B%B%B%B%3%_$~#^#'#@#8#8#8#9#9#9#9#=#=#=#=#=#>#>#>#>#C#D#D#G#G#G#H#H#J#J#N#0#_${%]%4%B%B%B%B%B%B%B%B%B%B%B%B%B%B%B%B%B%B%B%B%B%B%B%B%B%B%B%B%B%B%B%B%B%B%B%B%B%B%B%B%B%B%B%B%B%B%B%B%B%B%B%B%B%B%B%B%B%B%B%B%B%B%B%B%B%B%B%B%B%B%B%B%B%B%B%B%B%B%B%B%B%B%B%B%B%B%B%B%B%B%B%B%B%B%B%B%B%B%B%B%B%G%?%`##########",
"########%7%H%B%B%B%B%B%B%B%B%B%B%B%B%B%B%B%B%B%B%B%B%B%B%B%B%B%B%B%B%B%B%B%B%B%B%B%B%B%B%B%B%B%B%B%B%B%B%B%B%B%B%B%B%B%B%B%B%B%B%B%B%B%B%B%B%B%B%B%B%B%B%B%B%B%B%B%B%B%B%B%B%B%B%B%B%B%B%B%B%B%B%B%B%B%B%B%B%B%B%B%B%B%B%3%_$~#^#'#@#8#8#8#9#9#9#9#=#=#=#=#=#>#>#>#>#C#D#D#G#G#G#H#H#J#J#K#K#N#0#_%#%]%4%B%B%B%B%B%B%B%B%B%B%B%B%B%B%B%B%B%B%B%B%B%B%B%B%B%B%B%B%B%B%B%B%B%B%B%B%B%B%B%B%B%B%B%B%B%B%B%B%B%B%B%B%B%B%B%B%B%B%B%B%B%B%B%B%B%B%B%B%B%B%B%B%B%B%B%B%B%B%B%B%B%B%B%B%B%B%B%B%B%B%B%B%B%B%B%B%B%B%B%B%B%H%7##########",
"######%a%8%F%B%B%B%B%B%B%B%B%B%B%B%B%B%B%B%B%B%B%B%B%B%B%B%B%B%B%B%B%B%B%B%B%B%B%B%B%B%B%B%B%B%B%B%B%B%B%B%B%B%B%B%B%B%B%B%B%B%B%B%B%B%B%B%B%B%B%B%B%B%B%B%B%B%B%B%B%B%B%B%B%B%B%B%B%B%B%B%B%B%B%B%B%B%B%B%B%B%B%B%B%B%3%_$~#^#'#@#8#8#8#9#9#9#9#=#=#=#=#=#>#>#>#>#C#D#D#G#G#G#H#H#J#J#K#K#K#K#_#0#_%#%]%4%B%B%B%B%B%B%B%B%B%B%B%B%B%B%B%B%B%B%B%B%B%B%B%B%B%B%B%B%B%B%B%B%B%B%B%B%B%B%B%B%B%B%B%B%B%B%B%B%B%B%B%B%B%B%B%B%B%B%B%B%B%B%B%B%B%B%B%B%B%B%B%B%B%B%B%B%B%B%B%B%B%B%B%B%B%B%B%B%B%B%B%B%B%B%B%B%B%B%B%B%F%9%a########",
"######%I%B%B%B%B%B%B%B%B%B%B%B%B%B%B%B%B%B%B%B%B%B%B%B%B%B%B%B%B%B%B%B%B%B%B%B%B%B%B%B%B%B%B%B%B%B%B%B%B%B%B%B%B%B%B%B%B%B%B%B%B%B%B%B%B%B%B%B%B%B%B%B%B%B%B%B%B%B%B%B%B%B%B%B%B%B%B%B%B%B%B%B%B%B%B%B%B%B%B%B%B%B%B%3%_$~#^#'#@#8#8#8#9#9#9#9#=#=#=#=#=#>#>#>#>#C#D#D#G#G#G#H#H#J#J#K#K#K#K#N#N#Z#0#c%#%]%4%B%B%B%B%B%B%B%B%B%B%B%B%B%B%B%B%B%B%B%B%B%B%B%B%B%B%B%B%B%B%B%B%B%B%B%B%B%B%B%B%B%B%B%B%B%B%B%B%B%B%B%B%B%B%B%B%B%B%B%B%B%B%B%B%B%B%B%B%B%B%B%B%B%B%B%B%B%B%B%B%B%B%B%B%B%B%B%B%B%B%B%B%B%B%B%B%B%B%B%B%G%9########",
"######%6%I%B%B%B%B%B%B%B%B%B%B%B%B%B%B%B%B%B%B%B%B%B%B%B%B%B%B%B%B%B%B%B%B%B%B%B%B%B%B%B%B%B%B%B%B%B%B%B%B%B%B%B%B%B%B%B%B%B%B%B%B%B%B%B%B%B%B%B%B%B%B%B%B%B%B%B%B%B%B%B%B%B%B%B%B%B%B%B%B%B%B%B%B%B%B%B%B%B%B%B%B%3%_$~#^#'#@#8#8#8#9#9#9#9#=#=#=#=#=#>#>#>#>#C#D#D#G#G#G#H#H#J#J#K#K#K#K#N#N#O#O#Z#B#c%#%]%4%B%B%B%B%B%B%B%B%B%B%B%B%B%B%B%B%B%B%B%B%B%B%B%B%B%B%B%B%B%B%B%B%B%B%B%B%B%B%B%B%B%B%B%B%B%B%B%B%B%B%B%B%B%B%B%B%B%B%B%B%B%B%B%B%B%B%B%B%B%B%B%B%B%B%B%B%B%B%B%B%B%B%B%B%B%B%B%B%B%B%B%B%B%B%B%B%B%B%B%I%7%b######",
"####%a%8%F%B%B%B%B%B%B%B%B%B%B%B%B%B%B%B%B%B%B%B%B%B%B%B%B%B%B%B%B%B%B%B%B%B%B%B%B%B%B%B%B%B%B%B%B%B%B%B%B%B%B%B%B%B%B%B%B%B%B%B%B%B%B%B%B%B%B%B%B%B%B%B%B%B%B%B%B%B%B%B%B%B%B%B%B%B%B%B%B%B%B%B%B%B%B%B%B%B%B%B%3%_$~#^#'#@#8#8#8#9#9#9#9#=#=#=#=#=#>#>#>#>#C#D#D#G#G#G#H#H#J#J#K#K#K#K#N#N#O#O#O#O#Z#B$)%#%]%4%B%B%B%B%B%B%B%B%B%B%B%B%B%B%B%B%B%B%B%B%B%B%B%B%B%B%B%B%B%B%B%B%B%B%B%B%B%B%B%B%B%B%B%B%B%B%B%B%B%B%B%B%B%B%B%B%B%B%B%B%B%B%B%B%B%B%B%B%B%B%B%B%B%B%B%B%B%B%B%B%B%B%B%B%B%B%B%B%B%B%B%B%B%B%B%B%B%B%B%@%`######",
"####%`%A%B%B%B%B%B%B%B%B%B%B%B%B%B%B%B%B%B%B%B%B%B%B%B%B%B%B%B%B%B%B%B%B%B%B%B%B%B%B%B%B%B%B%B%B%B%B%B%B%B%B%B%B%B%B%B%B%B%B%B%B%B%B%B%B%B%B%B%B%B%B%B%B%B%B%B%B%B%B%B%B%B%B%B%B%B%B%B%B%B%B%B%B%B%B%B%B%B%B%B%3%_$~#^#'#@#8#8#8#9#9#9#9#=#=#=#=#=#>#>#>#>#C#D#D#G#G#G#H#H#J#J#K#K#K#K#N#N#O#O#O#O#P#P#Z#0#c%#%]%4%B%B%B%B%B%B%B%B%B%B%B%B%B%B%B%B%B%B%B%B%B%B%B%B%B%B%B%B%B%B%B%B%B%B%B%B%B%B%B%B%B%B%B%B%B%B%B%B%B%B%B%B%B%B%B%B%B%B%B%B%B%B%B%B%B%B%B%B%B%B%B%B%B%B%B%B%B%B%B%B%B%B%B%B%B%B%B%B%B%B%B%B%B%B%B%B%B%B%H%7######",
"####%8%H%B%B%B%B%B%B%B%B%B%B%B%B%B%B%B%B%B%B%B%B%B%B%B%B%B%B%B%B%B%B%B%B%B%B%B%B%B%B%B%B%B%B%B%B%B%B%B%B%B%B%B%B%B%B%B%B%B%B%B%B%B%B%B%B%B%B%B%B%B%B%B%B%B%B%B%B%B%B%B%B%B%B%B%B%B%B%B%B%B%B%B%B%B%B%B%B%B%B%3%_$~#^#'#@#8#8#8#9#9#9#9#=#=#=#=#=#>#>#>#>#C#D#D#G#G#G#H#H#J#J#K#K#K#K#N#N#O#O#O#O#P#P#P#P#Z#B$)%#%]%4%B%B%B%B%B%B%B%B%B%B%B%B%B%B%B%B%B%B%B%B%B%B%B%B%B%B%B%B%B%B%B%B%B%B%B%B%B%B%B%B%B%B%B%B%B%B%B%B%B%B%B%B%B%B%B%B%B%B%B%B%B%B%B%B%B%B%B%B%B%B%B%B%B%B%B%B%B%B%B%B%B%B%B%B%B%B%B%B%B%B%B%B%B%B%B%B%B%I%7%b####",
"##%c%6%I%B%B%B%B%B%B%B%B%B%B%B%B%B%B%B%B%B%B%B%B%B%B%B%B%B%B%B%B%B%B%B%B%B%B%B%B%B%B%B%B%B%B%B%B%B%B%B%B%B%B%B%B%B%B%B%B%B%B%B%B%B%B%B%B%B%B%B%B%B%B%B%B%B%B%B%B%B%B%B%B%B%B%B%B%B%B%B%B%B%B%B%B%B%B%B%B%B%3%_$~#^#'#@#8#8#8#9#9#9#9#=#=#=#=#=#>#>#>#>#C#D#D#G#G#G#H#H#J#J#K#K#K#K#N#N#O#O#O#O#P#P#P#P#Q#Q#`#B$)%#%]%4%B%B%B%B%B%B%B%B%B%B%B%B%B%B%B%B%B%B%B%B%B%B%B%B%B%B%B%B%B%B%B%B%B%B%B%B%B%B%B%B%B%B%B%B%B%B%B%B%B%B%B%B%B%B%B%B%B%B%B%B%B%B%B%B%B%B%B%B%B%B%B%B%B%B%B%B%B%B%B%B%B%B%B%B%B%B%B%B%B%B%B%B%B%B%B%B%B%@%`####",
"##%a%8%F%B%B%B%B%B%B%B%B%B%B%B%B%B%B%B%B%B%B%B%B%B%B%B%B%B%B%B%B%B%B%B%B%B%B%B%B%B%B%B%B%B%B%B%B%B%B%B%B%B%B%B%B%B%B%B%B%B%B%B%B%B%B%B%B%B%B%B%B%B%B%B%B%B%B%B%B%B%B%B%B%B%B%B%B%B%B%B%B%B%B%B%B%B%B%B%B%3%_$~#^#'#@#8#8#8#9#9#9#9#=#=#=#=#=#>#>#>#>#C#D#D#G#G#G#H#H#J#J#K#K#K#K#N#N#O#O#O#O#P#P#P#P#Q#Q#Z#Z#`#B$)%#%]%4%B%B%B%B%B%B%B%B%B%B%B%B%B%B%B%B%B%B%B%B%B%B%B%B%B%B%B%B%B%B%B%B%B%B%B%B%B%B%B%B%B%B%B%B%B%B%B%B%B%B%B%B%B%B%B%B%B%B%B%B%B%B%B%B%B%B%B%B%B%B%B%B%B%B%B%B%B%B%B%B%B%B%B%B%B%B%B%B%B%B%B%B%B%B%B%B%F%8####",
"##%`%?%E%B%B%B%B%B%B%B%B%B%B%B%B%B%B%B%B%B%B%B%B%B%B%B%B%B%B%B%B%B%B%B%B%B%B%B%B%B%B%B%B%B%B%B%B%B%B%B%B%B%B%B%B%B%B%B%B%B%B%B%B%B%B%B%B%B%B%B%B%B%B%B%B%B%B%B%B%B%B%B%B%B%B%B%B%B%B%B%B%B%B%B%B%B%B%B%3%_$~#^#'#@#8#8#8#9#9#9#9#=#=#=#=#=#>#>#>#>#C#D#D#G#G#G#H#H#J#J#K#K#K#K#N#N#O#O#O#O#P#P#P#P#Q#Q#Z#Z#Z#[#`#B$)%#%]%4%B%B%B%B%B%B%B%B%B%B%B%B%B%B%B%B%B%B%B%B%B%B%B%B%B%B%B%B%B%B%B%B%B%B%B%B%B%B%B%B%B%B%B%B%B%B%B%B%B%B%B%B%B%B%B%B%B%B%B%B%B%B%B%B%B%B%B%B%B%B%B%B%B%B%B%B%B%B%B%B%B%B%B%B%B%B%B%B%B%B%B%B%B%B%B%I%6%b##",
"##%H%A%B%B%B%B%B%B%B%B%B%B%B%B%B%B%B%B%B%B%B%B%B%B%B%B%B%B%B%B%B%B%B%B%B%B%B%B%B%B%B%B%B%B%B%B%B%B%B%B%B%B%B%B%B%B%B%B%B%B%B%B%B%B%B%B%B%B%B%B%B%B%B%B%B%B%B%B%B%B%B%B%B%B%B%B%B%B%B%B%B%B%B%B%B%B%B%3%_$~#^#'#@#8#8#8#9#9#9#9#=#=#=#=#=#>#>#>#>#C#D#D#G#G#G#H#H#J#J#K#K#K#K#N#N#O#O#O#O#P#P#P#P#Q#Q#Z#Z#Z#[#[#[#`#B$)%#%]%4%B%B%B%B%B%B%B%B%B%B%B%B%B%B%B%B%B%B%B%B%B%B%B%B%B%B%B%B%B%B%B%B%B%B%B%B%B%B%B%B%B%B%B%B%B%B%B%B%B%B%B%B%B%B%B%B%B%B%B%B%B%B%B%B%B%B%B%B%B%B%B%B%B%B%B%B%B%B%B%B%B%B%B%B%B%B%B%B%B%B%B%B%B%B%F%?%a##",
"##%?%H%B%B%B%B%B%B%B%B%B%B%B%B%B%B%B%B%B%B%B%B%B%B%B%B%B%B%B%B%B%B%B%B%B%B%B%B%B%B%B%B%B%B%B%B%B%B%B%B%B%B%B%B%B%B%B%B%B%B%B%B%B%B%B%B%B%B%B%B%B%B%B%B%B%B%B%B%B%B%B%B%B%B%B%B%B%B%B%B%B%B%B%B%B%B%3%_$~#^#'#@#8#8#8#9#9#9#9#=#=#=#=#=#>#>#>#>#C#D#D#G#G#G#H#H#J#J#K#K#K#K#N#N#O#O#O#O#P#P#P#P#Q#Q#Z#Z#Z#[#[#[#[#[#`#B$)%#%]%4%B%B%B%B%B%B%B%B%B%B%B%B%B%B%B%B%B%B%B%B%B%B%B%B%B%B%B%B%B%B%B%B%B%B%B%B%B%B%B%B%B%B%B%B%B%B%B%B%B%B%B%B%B%B%B%B%B%B%B%B%B%B%B%B%B%B%B%B%B%B%B%B%B%B%B%B%B%B%B%B%B%B%B%B%B%B%B%B%B%B%B%B%B%B%@%`##",
"##%8%F%B%B%B%B%B%B%B%B%B%B%B%B%B%B%B%B%B%B%B%B%B%B%B%B%B%B%B%B%B%B%B%B%B%B%B%B%B%B%B%B%B%B%B%B%B%B%B%B%B%B%B%B%B%B%B%B%B%B%B%B%B%B%B%B%B%B%B%B%B%B%B%B%B%B%B%B%B%B%B%B%B%B%B%B%B%B%B%B%B%B%B%B%B%4%_%$#^#+#A#8#8#9#9#9#9#9#=#=#=#=#=#>#>#>#C#C#D#G#G#G#G#H#H#J#J#K#K#K#K#N#N#O#O#O#O#P#P#P#P#Q#Z#Z#Z#Z#[#[#[#[#[#`#`#c#V$)%%%_%4%B%B%B%B%B%B%B%B%B%B%B%B%B%B%B%B%B%B%B%B%B%B%B%B%B%B%B%B%B%B%B%B%B%B%B%B%B%B%B%B%B%B%B%B%B%B%B%B%B%B%B%B%B%B%B%B%B%B%B%B%B%B%B%B%B%B%B%B%B%B%B%B%B%B%B%B%B%B%B%B%B%B%B%B%B%B%B%B%B%B%B%B%B%B%@##",
"%b%8%F%B%B%B%B%B%B%B%B%B%B%B%B%B%B%B%B%B%B%B%B%B%B%B%B%B%B%B%B%B%B%B%B%B%B%B%B%B%B%B%B%B%B%B%B%B%B%B%B%>%>%>%>%>%>%>%>%>%>%>%>%>%>%>%>%>%>%>%>%>%>%>%>%>%>%>%>%>%>%>%>%>%>%>%>%>%>%>%>%>%>%>%>%<%_$~#^#'#@#8#8#9#9#9#9#9#=#=#=#=#=#>#>#>#>#C#D#D#G#G#H#H#H#J#J#K#K#K#K#N#N#O#O#O#P#P#P#P#P#Q#Q#Z#Z#Z#[#[#[#[#[#`#`#`#`#c#B$)%#%^%<%>%>%>%>%>%>%>%>%>%>%>%>%>%>%>%>%>%>%>%>%>%>%>%>%>%>%>%>%>%>%>%>%>%>%>%>%>%>%>%>%>%>%>%>%B%B%B%B%B%B%B%B%B%B%B%B%B%B%B%B%B%B%B%B%B%B%B%B%B%B%B%B%B%B%B%B%B%B%B%B%B%B%B%B%B%B%B%B%B%B%B%B%F%9##",
"%a%?%H%B%B%B%B%B%B%B%B%B%B%B%B%B%B%B%B%B%B%B%B%B%B%B%B%B%B%B%B%B%B%B%B%B%B%B%B%B%B%B%B%B%B%B%B%B%B%B%B%M%P%P%P%P%P%P%P%P%P%P%P%P%P%P%P%P%P%P%P%P%P%P%P%P%P%P%P%P%P%P%P%P%P%P%P%P%P%P%P%P%P%P%Q%J$x#^#'#?#5#6#6#6#6#6#6#:#<#<#<#<#<#<#<#<#C#D#D#D#D#D#E#E#E#F#E#E#E#E#I#I#L#M#M#M#M#M#M#M#M#Q#Q#Q#Q#[#[#[#[#[#V#V#V#`#`#`#`#B$)$x%J%Q%M%P%P%P%P%P%P%P%P%P%P%P%P%P%P%P%P%P%P%P%P%P%P%P%P%P%P%P%P%P%P%P%P%P%P%N%P%P%P%P%N%P%L%B%B%B%B%B%B%B%B%B%B%B%B%B%B%B%B%B%B%B%B%B%B%B%B%B%B%B%B%B%B%B%B%B%B%B%B%B%B%B%B%B%B%B%B%B%B%B%B%F%8%b",
"%a%?%H%B%B%B%B%B%B%B%B%B%B%B%B%B%B%B%B%B%B%B%B%B%B%B%B%B%B%B%B%B%B%B%B%B%B%B%B%B%B%B%B%B%B%B%B%B%B%>%L$t$c$c$c$c$c$c$c$c$c$c$c$c$c$c$c$c$c$c$c$c$c$c$c$c$c$c$d$d$d$d$d$d$d$d$d$d$d$d$d$d$d$d$c$u%*$x%$$z$z$z$z$z$z$z$z$z$z$z$z$z$z$z$z$z$z$z$z$z$z$z$z$z$z$z$z$z$z$z$z$z${${${${${${${${${${${${${${${${${$|${${${${$|$|$|%%$x%.$u$e$h$g$h$h$h$h$h$h$g$h$g$g$g$h$h$g$g$g$g$g$g$g$g$g$g$g$g$g$g$g$g$g$g$g$g$m$m$m$m$m$m$f$t%L%>%B%B%B%B%B%B%B%B%B%B%B%B%B%B%B%B%B%B%B%B%B%B%B%B%B%B%B%B%B%B%B%B%B%B%B%B%B%B%B%B%B%B%B%B%B%B%H%?%a",
"%`%@%B%B%B%B%B%B%B%B%B%B%B%B%B%B%B%B%B%B%B%B%B%B%B%B%B%B%B%B%B%B%B%B%B%B%B%B%B%B%B%B%B%B%B%B%B%B%B%>%P$c#$#$#$#$#$#$#$#$#$#$#$#$#$#$#$#$#$#$#$#$#$#&#&#&#&#&#&#&#&#&#&#&#&#&#&#&#&#&#&#&#'#%$c%/%]%V%T%V%V%V%V%V%V%V%V%V%V%V%V%V%V%V%V%V%V%V%V%V%V%V%V%V%V%V%V%V%V%V%T%T%T%T%T%T%T%T%T%T%T%T%T%T%T%T%T%T%T%T%T%T%T%T%T%T%T%T%V%W%/$e#B#V#B#B#B#R#R#R#B#R#R#R#R#R#R#R#R#R#R#R#R#R#R#R#W#W#W#W#W#W#W#W#W#T#W#W#W#W#W#W#W#R$f%P%>%B%B%B%B%B%B%B%B%B%B%B%B%B%B%B%B%B%B%B%B%B%B%B%B%B%B%B%B%B%B%B%B%B%B%B%B%B%B%B%B%B%B%B%B%B%B%E%?%a",
"%`%A%B%B%B%B%B%B%B%B%B%B%B%B%B%B%B%B%B%B%B%B%B%B%B%B%B%B%B%B%B%B%B%B%B%B%B%B%B%B%B%B%B%B%B%B%B%B%B%>%P$c#$#.#(#(#(#,#,#,#,#,#,#.#.#.#.#.#.#.#.#7#7#7#7#7#7#7#7#7#7#7#7#7#7#4#4#4#;#;#8#A#%$d%:%T%:%;%;%;%;%;%;%;%;%;%;%;%;%;%;%;%;%;%;%;%;%;%;%;%;%;%;%;%;%;%;%;%;%;%;%;%;%;%;%;%;%;%;%;%;%;%;%;%;%;%;%;%;%;%;%;%;%;%;%;%;%;%;%:%Q%;$h#B$(#c#a#a#a#a#b#d#d#g#g#g#g#g#g#k#k#k#k#k#k#k#k#k#y#y#y#y#y#y#y#y#y#y#y#z#z#z$$#W$m%P%>%B%B%B%B%B%B%B%B%B%B%B%B%B%B%B%B%B%B%B%B%B%B%B%B%B%B%B%B%B%B%B%B%B%B%B%B%B%B%B%B%B%B%B%B%B%B%B%@%`",
"%I%A%B%B%B%B%B%B%B%B%B%B%B%B%B%B%B%B%B%B%B%B%B%B%B%B%B%B%B%B%B%B%B%B%B%B%B%B%B%B%B%B%B%B%B%B%B%B%B%>%P$c#$#(#(#(#(#(#(#(#(#(#)#)#)#)#*#*#*#,#-#-#-#-#-#/#/#/#/#1#1#2#2#2#2#3#3#4#4#5#;#%$d%1%P%:%B%B%B%B%B%B%B%B%B%B%B%B%B%B%B%B%B%B%B%B%B%B%B%B%B%B%B%B%B%B%B%B%B%B%B%B%B%B%B%B%B%B%B%B%B%B%B%B%B%B%B%B%B%B%B%B%B%B%B%B%B%B%B%B%:%P%4$h#B#g#a#a#a#a#a#a#b#b#b#b#b#b#d#e#e#e#e#e#f#f#h#h#i#i#i#i#i#j#j#t#t#t#u#u#u#u#z#W$m%P%>%B%B%B%B%B%B%B%B%B%B%B%B%B%B%B%B%B%B%B%B%B%B%B%B%B%B%B%B%B%B%B%B%B%B%B%B%B%B%B%B%B%B%B%B%B%B%B%A%I",
"%I%B%B%B%B%B%B%B%B%B%B%B%B%B%B%B%B%B%B%B%B%B%B%B%B%B%B%B%B%B%B%B%B%B%B%B%B%B%B%B%B%B%B%B%B%B%B%B%B%>%P$c#$#(#(#(#(#(#(#(#(#)#)#)#)#*#*#*#,#-#-#-#-#-#/#/#/#/#1#1#2#2#2#2#3#3#4#4#5#;#%$d%1%P%:%B%B%B%B%B%B%B%B%B%B%B%B%B%B%B%B%B%B%B%B%B%B%B%B%B%B%B%B%B%B%B%B%B%B%B%B%B%B%B%B%B%B%B%B%B%B%B%B%B%B%B%B%B%B%B%B%B%B%B%B%B%B%B%B%B%B%:%P%4$h#R#g#a#a#a#a#b#b#b#b#b#b#d#e#e#e#e#e#f#f#h#h#i#i#i#i#i#j#j#t#t#t#u#u#u#u#v$$#W$m%P%>%B%B%B%B%B%B%B%B%B%B%B%B%B%B%B%B%B%B%B%B%B%B%B%B%B%B%B%B%B%B%B%B%B%B%B%B%B%B%B%B%B%B%B%B%B%B%B%B%H",
"%B%B%B%B%B%B%B%B%B%B%B%B%B%B%B%B%B%B%B%B%B%B%B%B%B%B%B%B%B%B%B%B%B%B%B%B%B%B%B%B%B%B%B%B%B%B%B%B%B%>%P$c#$#(#(#(#(#(#(#(#)#)#)#)#*#*#*#,#-#-#-#-#-#/#/#/#/#1#1#2#2#2#2#3#3#4#4#5#;#%$d%1%P%:%B%B%B%B%B%B%B%B%B%B%B%B%B%B%B%B%B%B%B%B%B%B%B%B%B%B%B%B%B%B%B%B%B%B%B%B%B%B%B%B%B%B%B%B%B%B%B%B%B%B%B%B%B%B%B%B%B%B%B%B%B%B%B%B%B%B%B%B%:%P%4$h#R#g#a#a#b#b#b#b#b#b#d#e#e#e#e#e#f#f#h#h#i#i#i#i#i#j#j#t#t#t#u#u#u#u#v#w$$#W$m%P%>%B%B%B%B%B%B%B%B%B%B%B%B%B%B%B%B%B%B%B%B%B%B%B%B%B%B%B%B%B%B%B%B%B%B%B%B%B%B%B%B%B%B%B%B%B%B%B%B%B",
"%B%B%B%B%B%B%B%B%B%B%B%B%B%B%B%B%B%B%B%B%B%B%B%B%B%B%B%B%B%B%B%B%B%B%B%B%B%B%B%B%B%B%B%B%B%B%B%B%B%>%P$c#$#,#(#(#(#(#(#)#)#)#)#*#*#*#,#-#-#-#-#-#/#/#/#/#1#1#2#2#2#2#3#3#4#4#5#;#%$d%1%P%:%B%B%B%B%B%B%B%B%B%B%B%B%B%B%B%B%B%B%B%B%B%B%B%B%B%B%B%B%B%B%B%B%B%B%B%B%B%B%B%B%B%B%B%B%B%B%B%B%B%B%B%B%B%B%B%B%B%B%B%B%B%B%B%B%B%B%B%B%B%B%:%P%4$h#R#g#b#b#b#b#b#b#d#e#e#e#e#e#f#f#h#h#i#i#i#i#i#j#j#t#t#t#u#u#u#u#v#w#w$$#W$m%O%>%B%B%B%B%B%B%B%B%B%B%B%B%B%B%B%B%B%B%B%B%B%B%B%B%B%B%B%B%B%B%B%B%B%B%B%B%B%B%B%B%B%B%B%B%B%B%B%B%B",
"%B%B%B%B%B%B%B%B%B%B%B%B%B%B%B%B%B%B%B%B%B%B%B%B%B%B%B%B%B%B%B%B%B%B%B%B%B%B%B%B%B%B%B%B%B%B%B%B%B%>%P$c#$#,#(#(#(#(#)#)#)#)#*#*#*#,#-#-#-#-#-#/#/#/#/#1#1#2#2#2#2#3#3#4#4#5#;#%$d%1%P%:%B%B%B%B%B%B%B%B%B%B%B%B%B%B%B%B%B%B%B%B%B%B%B%B%B%B%B%B%B%B%B%B%B%B%B%B%B%B%B%B%B%B%B%B%B%B%B%B%B%B%B%B%B%B%B%B%B%B%B%B%B%B%B%B%B%B%B%B%B%B%B%B%:%P%4$h#R#g#b#b#b#b#d#e#e#e#e#e#f#f#h#h#i#i#i#i#i#j#j#t#t#t#u#u#u#u#v#w#w#w$$#W$m%O%>%B%B%B%B%B%B%B%B%B%B%B%B%B%B%B%B%B%B%B%B%B%B%B%B%B%B%B%B%B%B%B%B%B%B%B%B%B%B%B%B%B%B%B%B%B%B%B%B%B",
"%B%B%B%B%B%B%B%B%B%B%B%B%B%B%B%B%B%B%B%B%B%B%B%B%B%B%B%B%B%B%B%B%B%B%B%B%B%B%B%B%B%B%B%B%B%B%B%B%B%>%P$c#$#,#(#(#(#)#)#)#)#*#*#*#,#-#-#-#-#-#/#/#/#/#1#1#2#2#2#2#3#3#4#4#5#;#%$d%1%P%:%B%B%B%B%B%B%B%B%B%B%B%B%B%B%B%B%B%B%B%B%B%B%B%B%B%B%B%B%B%B%B%B%B%B%B%B%B%B%B%B%B%B%B%B%B%B%B%B%B%B%B%B%B%B%B%B%B%B%B%B%B%B%B%B%B%B%B%B%B%B%B%B%B%B%:%P%4$h#R#g#b#b#d#e#e#e#e#e#f#f#h#h#i#i#i#i#i#j#j#t#t#t#u#u#u#u#v#w#w#w#z$$#W$m%O%>%B%B%B%B%B%B%B%B%B%B%B%B%B%B%B%B%B%B%B%B%B%B%B%B%B%B%B%B%B%B%B%B%B%B%B%B%B%B%B%B%B%B%B%B%B%B%B%B%B",
"%B%B%B%B%B%B%B%B%B%B%B%B%B%B%B%B%B%B%B%B%B%B%B%B%B%B%B%B%B%B%B%B%B%B%B%B%B%B%B%B%B%B%B%B%B%B%B%B%B%>%P$c#$#,#(#(#)#)#)#)#*#*#*#,#-#-#-#-#-#/#/#/#/#1#1#2#2#2#2#3#3#4#4#5#;#%$d%1%P%:%B%B%B%B%B%B%B%B%B%B%B%B%B%B%B%B%B%B%B%B%B%B%B%B%B%B%B%B%B%B%B%B%B%B%B%B%B%B%B%B%B%B%B%B%B%B%B%B%B%B%B%B%B%B%B%B%B%B%B%B%B%B%B%B%B%B%B%B%B%B%B%B%B%B%B%B%:%P%4$g#R#k#d#e#e#e#e#e#f#f#h#h#i#i#i#i#i#j#j#t#t#t#u#u#u#u#v#w#w#w#z#{$$#W$m%O%>%B%B%B%B%B%B%B%B%B%B%B%B%B%B%B%B%B%B%B%B%B%B%B%B%B%B%B%B%B%B%B%B%B%B%B%B%B%B%B%B%B%B%B%B%B%B%B%B%B",
"%B%B%B%B%B%B%B%B%B%B%B%B%B%B%B%B%B%B%B%B%B%B%B%B%B%B%B%B%B%B%B%B%B%B%B%B%B%B%B%B%B%B%B%B%B%B%B%B%B%>%P$c#$#,#(#)#)#)#)#*#*#*#,#-#-#-#-#-#/#/#/#/#1#1#2#2#2#2#3#3#4#4#5#;#%$d%1%P%:%B%B%B%B%B%B%B%B%B%B%B%B%B%B%B%B%B%B%B%B%B%B%B%B%B%B%B%B%B%B%B%B%B%B%B%B%B%B%B%B%B%B%B%B%B%B%B%B%B%B%B%B%B%B%B%B%B%B%B%B%B%B%B%B%B%B%B%B%B%B%B%B%B%B%B%B%B%B%:%P%4$g#R#k#e#e#e#e#f#f#h#h#i#i#i#i#i#j#j#t#t#t#u#u#u#u#v#w#w#w#z#{#{$$#W$m%P%>%B%B%B%B%B%B%B%B%B%B%B%B%B%B%B%B%B%B%B%B%B%B%B%B%B%B%B%B%B%B%B%B%B%B%B%B%B%B%B%B%B%B%B%B%B%B%B%B%B",
"%B%B%B%B%B%B%B%B%B%B%B%B%B%B%B%B%B%B%B%B%B%B%B%B%B%B%B%B%B%B%B%B%B%B%B%B%B%B%B%B%B%B%B%B%B%B%B%B%B%>%P$c#$#,#)#)#)#)#*#*#*#,#-#-#-#-#-#/#/#/#/#1#1#2#2#2#2#3#3#4#4#5#;#%$d%1%P%:%B%B%B%B%B%B%B%B%B%B%B%B%B%B%B%B%B%B%B%B%B%B%B%B%B%B%B%B%B%B%B%B%B%B%B%B%B%B%B%B%B%B%B%B%B%B%B%B%B%B%B%B%B%B%B%B%B%B%B%B%B%B%B%B%B%B%B%B%B%B%B%B%B%B%B%B%B%B%B%B%:%P%4$g#R#k#e#f#f#f#h#h#i#i#i#i#i#j#j#t#t#t#u#u#u#u#v#w#w#w#z#{#{#{$$#W$m%P%>%B%B%B%B%B%B%B%B%B%B%B%B%B%B%B%B%B%B%B%B%B%B%B%B%B%B%B%B%B%B%B%B%B%B%B%B%B%B%B%B%B%B%B%B%B%B%B%B%B",
"%B%B%B%B%B%B%B%B%B%B%B%B%B%B%B%B%B%B%B%B%B%B%B%B%B%B%B%B%B%B%B%B%B%B%B%B%B%B%B%B%B%B%B%B%B%B%B%B%B%>%P$c#$#.#)#)#)#*#*#*#,#-#-#-#-#-#/#/#/#/#1#1#2#2#2#2#3#3#4#4#5#;#%$d%1%P%:%B%B%B%B%B%B%B%B%B%B%B%B%B%B%B%B%B%B%B%B%B%B%B%B%B%B%B%B%B%B%B%B%B%B%B%B%B%B%B%B%B%B%B%B%B%B%B%B%B%B%B%B%B%B%B%B%B%B%B%B%B%B%B%B%B%B%B%B%B%B%B%B%B%B%B%B%B%B%B%B%B%B%:%P%4$h#R$(#f#f#h#h#i#i#i#i#i#j#j#t#t#t#u#u#u#u#v#w#w#w#z#{#{#{#{$*#X$m%P%>%B%B%B%B%B%B%B%B%B%B%B%B%B%B%B%B%B%B%B%B%B%B%B%B%B%B%B%B%B%B%B%B%B%B%B%B%B%B%B%B%B%B%B%B%B%B%B%B%B",
"%B%B%B%B%B%B%B%B%B%B%B%B%B%B%B%B%B%B%B%B%B%B%B%B%B%B%B%B%B%B%B%B%B%B%B%B%B%B%B%B%B%B%B%B%B%B%B%B%B%>%P$c#$#.#)#)#*#*#*#,#-#-#-#-#-#/#/#/#/#1#1#2#2#2#2#3#3#4#4#5#;#%$d%1%P%:%B%B%B%B%B%B%B%B%B%B%B%B%B%B%B%B%B%B%B%B%B%B%B%B%B%B%B%B%B%B%B%B%B%B%B%B%B%B%B%B%B%B%B%B%B%B%B%B%B%B%B%B%B%B%B%B%B%B%B%B%B%B%B%B%B%B%B%B%B%B%B%B%B%B%B%B%B%B%B%B%B%B%B%B%:%P%4$h#R#k#h#h#i#i#i#i#i#j#j#t#t#t#u#u#u#u#v#w#w#w#z#{#{#{#{#|$*#X$m%P%>%B%B%B%B%B%B%B%B%B%B%B%B%B%B%B%B%B%B%B%B%B%B%B%B%B%B%B%B%B%B%B%B%B%B%B%B%B%B%B%B%B%B%B%B%B%B%B%B%B",
"%B%B%B%B%B%B%B%B%B%B%B%B%B%B%B%B%B%B%B%B%B%B%B%B%B%B%B%B%B%B%B%B%B%B%B%B%B%B%B%B%B%B%B%B%B%B%B%B%B%>%P$c#$#.#)#*#*#*#,#-#-#-#-#-#/#/#/#/#1#1#2#2#2#2#3#3#4#4#5#;#%$d%1%P%:%B%B%B%B%B%B%B%B%B%B%B%B%B%B%B%B%B%B%B%B%B%B%B%B%B%B%B%B%B%B%B%B%B%B%B%B%B%B%B%B%B%B%B%B%B%B%B%B%B%B%B%B%B%B%B%B%B%B%B%B%B%B%B%B%B%B%B%B%B%B%B%B%B%B%B%B%B%B%B%B%B%B%B%B%B%B%:%P%4$h#R#y#i#i#i#i#i#j#j#t#t#t#u#u#u#u#v#w#w#w#z#{#{#{#{#|#}$*#X$m%P%>%B%B%B%B%B%B%B%B%B%B%B%B%B%B%B%B%B%B%B%B%B%B%B%B%B%B%B%B%B%B%B%B%B%B%B%B%B%B%B%B%B%B%B%B%B%B%B%B%B",
"%B%B%B%B%B%B%B%B%B%B%B%B%B%B%B%B%B%B%B%B%B%B%B%B%B%B%B%B%B%B%B%B%B%B%B%B%B%B%B%B%B%B%B%B%B%B%B%B%B%>%P$c#$#.#*#*#*#,#-#-#-#-#-#/#/#/#/#1#1#2#2#2#2#3#3#4#4#5#;#%$d%1%P%:%B%B%B%B%B%B%B%B%B%B%B%B%B%B%B%B%B%B%B%B%B%B%B%B%B%B%B%B%B%B%B%B%B%B%B%B%B%B%B%B%B%B%B%B%B%B%B%B%B%B%B%B%B%B%B%B%B%B%B%B%B%B%B%B%B%B%B%B%B%B%B%B%B%B%B%B%B%B%B%B%B%B%B%B%B%B%B%B%:%O%4$h#R#y#i#i#i#j#j#t#t#t#u#u#u#u#v#w#w#w#z#{#{#{#{#|#}#}$*#X$n%P%>%B%B%B%B%B%B%B%B%B%B%B%B%B%B%B%B%B%B%B%B%B%B%B%B%B%B%B%B%B%B%B%B%B%B%B%B%B%B%B%B%B%B%B%B%B%B%B%B%B",
"%B%B%B%B%B%B%B%B%B%B%B%B%B%B%B%B%B%B%B%B%B%B%B%B%B%B%B%B%B%B%B%B%B%B%B%B%B%B%B%B%B%B%B%B%B%B%B%B%B%>%P$c#$#.#*#*#,#-#-#-#-#-#/#/#/#/#1#1#2#2#2#2#3#3#4#4#5#;#%$d%1%P%:%B%B%B%B%B%B%B%B%B%B%B%B%B%B%B%B%B%B%B%B%B%B%B%B%B%B%B%B%B%B%B%B%B%B%B%B%B%B%B%B%B%B%B%B%B%B%B%B%B%B%B%B%B%B%B%B%B%B%B%B%B%B%B%B%B%B%B%B%B%B%B%B%B%B%B%B%B%B%B%B%B%B%B%B%B%B%B%B%B%B%:%O%4$g#R#y#i#j#j#t#t#t#u#u#u#u#v#w#w#w#z#{#{#{#{#|#}#}#}$*#X$n%P%>%B%B%B%B%B%B%B%B%B%B%B%B%B%B%B%B%B%B%B%B%B%B%B%B%B%B%B%B%B%B%B%B%B%B%B%B%B%B%B%B%B%B%B%B%B%B%B%B%B",
"%B%B%B%B%B%B%B%B%B%B%B%B%B%B%B%B%B%B%B%B%B%B%B%B%B%B%B%B%B%B%B%B%B%B%B%B%B%B%B%B%B%B%B%B%B%B%B%B%B%>%P$c#$#.#*#,#-#-#-#-#-#/#/#/#/#1#1#2#2#2#2#3#3#4#4#5#;#%$d%1%P%:%B%B%B%B%B%B%B%B%B%B%B%B%B%B%B%B%B%B%B%B%B%B%B%B%B%B%B%B%B%B%B%B%B%B%B%B%B%B%B%B%B%B%B%B%B%B%B%B%B%B%B%B%B%B%B%B%B%B%B%B%B%B%B%B%B%B%B%B%B%B%B%B%B%B%B%B%B%B%B%B%B%B%B%B%B%B%B%B%B%B%B%B%:%O%4$g#R#y#j#t#t#t#u#u#u#u#v#w#w#w#z#{#{#{#{#|#}#}#}#}$*#X$n%P%>%B%B%B%B%B%B%B%B%B%B%B%B%B%B%B%B%B%B%B%B%B%B%B%B%B%B%B%B%B%B%B%B%B%B%B%B%B%B%B%B%B%B%B%B%B%B%B%B%B",
"%B%B%B%B%B%B%B%B%B%B%B%B%B%B%B%B%B%B%B%B%B%B%B%B%B%B%B%B%B%B%B%B%B%B%B%B%B%B%B%B%B%B%B%B%B%B%B%B%B%>%P$c#$#.#,#-#-#-#-#-#/#/#/#/#1#1#2#2#2#2#3#3#4#4#5#;#%$d%1%P%:%B%B%B%B%B%B%B%B%B%B%B%B%B%B%B%B%B%B%B%B%B%B%B%B%B%B%B%B%B%B%B%B%B%B%B%B%B%B%B%B%B%B%B%B%B%B%B%B%B%B%B%B%B%B%B%B%B%B%B%B%B%B%B%B%B%B%B%B%B%B%B%B%B%B%B%B%B%B%B%B%B%B%B%B%B%B%B%B%B%B%B%B%B%B%:%O%4$g#T#y#t#t#u#u#u#u#v#w#w#w#z#{#{#{#{#|#}#}#}#}#}$*#m$n%P%>%B%B%B%B%B%B%B%B%B%B%B%B%B%B%B%B%B%B%B%B%B%B%B%B%B%B%B%B%B%B%B%B%B%B%B%B%B%B%B%B%B%B%B%B%B%B%B%B%B",
"%B%B%B%B%B%B%B%B%B%B%B%B%B%B%B%B%B%B%B%B%B%B%B%B%B%B%B%B%B%B%B%B%B%B%B%B%B%B%B%B%B%B%B%B%B%B%B%B%B%>%P$c#$#.#-#-#-#-#-#/#/#/#/#1#1#2#2#2#2#3#3#4#4#5#;#%$d%1%P%:%B%B%B%B%B%B%B%B%B%B%B%B%B%B%B%B%B%B%B%B%B%B%B%B%B%B%B%B%B%B%B%B%B%B%B%B%B%B%B%B%B%B%B%B%B%B%B%B%B%B%B%B%B%B%B%B%B%B%B%B%B%B%B%B%B%B%B%B%B%B%B%B%B%B%B%B%B%B%B%B%B%B%B%B%B%B%B%B%B%B%B%B%B%B%B%B%:%O%4$m#T#y#u#u#u#u#v#w#w#w#z#{#{#{#{#|#}#}#}#}#}#~$,#m$n%N%>%B%B%B%B%B%B%B%B%B%B%B%B%B%B%B%B%B%B%B%B%B%B%B%B%B%B%B%B%B%B%B%B%B%B%B%B%B%B%B%B%B%B%B%B%B%B%B%B%B",
"%B%B%B%B%B%B%B%B%B%B%B%B%B%B%B%B%B%B%B%B%B%B%B%B%B%B%B%B%B%B%B%B%B%B%B%B%B%B%B%B%B%B%B%B%B%B%B%B%B%>%P$c#$#7#-#-#-#-#/#/#/#/#1#1#2#2#2#2#3#3#4#4#5#;#%$d%1%P%:%B%B%B%B%B%B%B%B%B%B%B%B%B%B%B%B%B%B%B%B%B%B%B%B%B%B%B%B%B%B%B%B%B%B%B%B%B%B%B%B%B%B%B%B%B%B%B%B%B%B%B%B%B%B%B%B%B%B%B%B%B%B%B%B%B%B%B%B%B%B%B%B%B%B%B%B%B%B%B%B%B%B%B%B%B%B%B%B%B%B%B%B%B%B%B%B%B%B%:%O%4$m#T$$#u#u#v#w#w#w#z#{#{#{#{#|#}#}#}#}#}#~#~$,#m$n%N%>%B%B%B%B%B%B%B%B%B%B%B%B%B%B%B%B%B%B%B%B%B%B%B%B%B%B%B%B%B%B%B%B%B%B%B%B%B%B%B%B%B%B%B%B%B%B%B%B%B",
"%B%B%B%B%B%B%B%B%B%B%B%B%B%B%B%B%B%B%B%B%B%B%B%B%B%B%B%B%B%B%B%B%B%B%B%B%B%B%B%B%B%B%B%B%B%B%B%B%B%>%P$c#$#7#-#-#-#/#/#/#/#1#1#2#2#2#2#3#3#4#4#5#;#%$d%1%P%:%B%B%B%B%B%B%B%B%B%B%B%B%B%B%B%B%B%B%B%B%B%B%B%B%B%B%B%B%B%B%B%B%B%B%B%B%B%B%B%B%B%B%B%B%B%B%B%B%B%B%B%B%B%B%B%B%B%B%B%B%B%B%B%B%B%B%B%B%B%B%B%B%B%B%B%B%B%B%B%B%B%B%B%B%B%B%B%B%B%B%B%B%B%B%B%B%B%B%B%B%:%O%4$m#T$$#v#w#w#w#z#{#{#{#{#|#}#}#}#}#}#~#~$%$.#m$n%N%>%B%B%B%B%B%B%B%B%B%B%B%B%B%B%B%B%B%B%B%B%B%B%B%B%B%B%B%B%B%B%B%B%B%B%B%B%B%B%B%B%B%B%B%B%B%B%B%B%B",
"%B%B%B%B%B%B%B%B%B%B%B%B%B%B%B%B%B%B%B%B%B%B%B%B%B%B%B%B%B%B%B%B%B%B%B%B%B%B%B%B%B%B%B%B%B%B%B%B%B%>%P$c#&#7#-#-#/#/#/#/#1#1#2#2#2#2#3#3#4#4#5#;#%$d%1%P%:%B%B%B%B%B%B%B%B%B%B%B%B%B%B%B%B%B%B%B%B%B%B%B%B%B%B%B%B%B%B%B%B%B%B%B%B%B%B%B%B%B%B%B%B%B%B%B%B%B%B%B%B%B%B%B%B%B%B%B%B%B%B%B%B%B%B%B%B%B%B%B%B%B%B%B%B%B%B%B%B%B%B%B%B%B%B%B%B%B%B%B%B%B%B%B%B%B%B%B%B%B%B%:%O%4$m#T$$#w#w#z#{#{#{#{#|#}#}#}#}#}#~#~$%$%$/#m$n%N%>%B%B%B%B%B%B%B%B%B%B%B%B%B%B%B%B%B%B%B%B%B%B%B%B%B%B%B%B%B%B%B%B%B%B%B%B%B%B%B%B%B%B%B%B%B%B%B%B%B",
"%B%B%B%B%B%B%B%B%B%B%B%B%B%B%B%B%B%B%B%B%B%B%B%B%B%B%B%B%B%B%B%B%B%B%B%B%B%B%B%B%B%B%B%B%B%B%B%B%B%>%P$c#&#7#-#/#/#/#/#1#1#2#2#2#2#3#3#4#4#5#;#%$d%1%P%:%B%B%B%B%B%B%B%B%B%B%B%B%B%B%B%B%B%B%B%B%B%B%B%B%B%B%B%B%B%B%B%B%B%B%B%B%B%B%B%B%B%B%B%B%B%B%B%B%B%B%B%B%B%B%B%B%B%B%B%B%B%B%B%B%B%B%B%B%B%B%B%B%B%B%B%B%B%B%B%B%B%B%B%B%B%B%B%B%B%B%B%B%B%B%B%B%B%B%B%B%B%B%B%B%:%O%4$m#T$$#w#{#{#{#{#|#}#}#}#}#}#~#~$%$%$&$/#m$n%N%>%B%B%B%B%B%B%B%B%B%B%B%B%B%B%B%B%B%B%B%B%B%B%B%B%B%B%B%B%B%B%B%B%B%B%B%B%B%B%B%B%B%B%B%B%B%B%B%B%B",
"%B%B%B%B%B%B%B%B%B%B%B%B%B%B%B%B%B%B%B%B%B%B%B%B%B%B%B%B%B%B%B%B%B%B%B%B%B%B%B%B%B%B%B%B%B%B%B%B%B%>%P$c#&#7#/#/#/#/#1#1#2#2#2#2#3#3#4#4#5#;#%$d%1%P%:%B%B%B%B%B%B%B%B%B%B%B%B%B%B%B%B%B%B%B%B%B%B%B%B%B%B%B%B%B%B%B%B%B%B%B%B%B%B%B%B%B%B%B%B%B%B%B%B%B%B%B%B%B%B%B%B%B%B%B%B%B%B%B%B%B%B%B%B%B%B%B%B%B%B%B%B%B%B%B%B%B%B%B%B%B%B%B%B%B%B%B%B%B%B%B%B%B%B%B%B%B%B%B%B%B%B%:%O%4$m#T$*#{#{#{#|#}#}#}#}#}#~#~$%$%$&$&$/#m$n%N%>%B%B%B%B%B%B%B%B%B%B%B%B%B%B%B%B%B%B%B%B%B%B%B%B%B%B%B%B%B%B%B%B%B%B%B%B%B%B%B%B%B%B%B%B%B%B%B%B%B",
"%B%B%B%B%B%B%B%B%B%B%B%B%B%B%B%B%B%B%B%B%B%B%B%B%B%B%B%B%B%B%B%B%B%B%B%B%B%B%B%B%B%B%B%B%B%B%B%B%B%>%P$c#&#7#/#/#/#1#1#2#2#2#2#3#3#4#4#5#;#%$d%1%P%:%B%B%B%B%B%B%B%B%B%B%B%B%B%B%B%B%B%B%B%B%B%B%B%B%B%B%B%B%B%B%B%B%B%B%B%B%B%B%B%B%B%B%B%B%B%B%B%B%B%B%B%B%B%B%B%B%B%B%B%B%B%B%B%B%B%B%B%B%B%B%B%B%B%B%B%B%B%B%B%B%B%B%B%B%B%B%B%B%B%B%B%B%B%B%B%B%B%B%B%B%B%B%B%B%B%B%B%B%:%O%4$m#T$*#{#|#}#}#}#}#}#~#~$%$%$&$&$&$/#m$n%N%>%B%B%B%B%B%B%B%B%B%B%B%B%B%B%B%B%B%B%B%B%B%B%B%B%B%B%B%B%B%B%B%B%B%B%B%B%B%B%B%B%B%B%B%B%B%B%B%B%B",
"%B%B%B%B%B%B%B%B%B%B%B%B%B%B%B%B%B%B%B%B%B%B%B%B%B%B%B%B%B%B%B%B%B%B%B%B%B%B%B%B%B%B%B%B%B%B%B%B%B%>%P$c#&#7#/#/#1#1#2#2#2#2#3#3#4#4#5#;#%$d%1%P%:%B%B%B%B%B%B%B%B%B%B%B%B%B%B%B%B%B%B%B%B%B%B%B%B%B%B%B%B%B%B%B%B%B%B%B%B%B%B%B%B%B%B%B%B%B%B%B%B%B%B%B%B%B%B%B%B%B%B%B%B%B%B%B%B%B%B%B%B%B%B%B%B%B%B%B%B%B%B%B%B%B%B%B%B%B%B%B%B%B%B%B%B%B%B%B%B%B%B%B%B%B%B%B%B%B%B%B%B%B%B%:%O%5$m#T$,#}#}#}#}#}#~#~$%$%$&$&$&$&$/#m$n%N%>%B%B%B%B%B%B%B%B%B%B%B%B%B%B%B%B%B%B%B%B%B%B%B%B%B%B%B%B%B%B%B%B%B%B%B%B%B%B%B%B%B%B%B%B%B%B%B%B%B",
"%B%B%B%B%B%B%B%B%B%B%B%B%B%B%B%B%B%B%B%B%B%B%B%B%B%B%B%B%B%B%B%B%B%B%B%B%B%B%B%B%B%B%B%B%B%B%B%B%B%>%P$d#&#7#/#1#1#2#2#2#2#3#3#4#4#5#;#%$d%1%P%:%B%B%B%B%B%B%B%B%B%B%B%B%B%B%B%B%B%B%B%B%B%B%B%B%B%B%B%B%B%B%B%B%B%B%B%B%B%B%B%B%B%B%B%B%B%B%B%B%B%B%B%B%B%B%B%B%B%B%B%B%B%B%B%B%B%B%B%B%B%B%B%B%B%B%B%B%B%B%B%B%B%B%B%B%B%B%B%B%B%B%B%B%B%B%B%B%B%B%B%B%B%B%B%B%B%B%B%B%B%B%B%B%:%O%4$m#S$,#}#}#}#~#~$%$%$&$&$&$&$&$/#o$o%N%>%B%B%B%B%B%B%B%B%B%B%B%B%B%B%B%B%B%B%B%B%B%B%B%B%B%B%B%B%B%B%B%B%B%B%B%B%B%B%B%B%B%B%B%B%B%B%B%B%B",
"%B%B%B%B%B%B%B%B%B%B%B%B%B%B%B%B%B%B%B%B%B%B%B%B%B%B%B%B%B%B%B%B%B%B%B%B%B%B%B%B%B%B%B%B%B%B%B%B%B%>%P$d#&#7#1#1#2#2#2#2#3#3#4#4#5#;#%$d%1%P%:%B%B%B%B%B%B%B%B%B%B%B%B%B%B%B%B%B%B%B%B%B%B%B%B%B%B%B%B%B%B%B%B%B%B%B%B%B%B%B%B%B%B%B%B%B%B%B%B%B%B%B%B%B%B%B%B%B%B%B%B%B%B%B%B%B%B%B%B%B%B%B%B%B%B%B%B%B%B%B%B%B%B%B%B%B%B%B%B%B%B%B%B%B%B%B%B%B%B%B%B%B%B%B%B%B%B%B%B%B%B%B%B%B%B%:%O%4$m#S$,#~#~#~$%$%$&$&$&$&$&$&$1#o$o%N%>%B%B%B%B%B%B%B%B%B%B%B%B%B%B%B%B%B%B%B%B%B%B%B%B%B%B%B%B%B%B%B%B%B%B%B%B%B%B%B%B%B%B%B%B%B%B%B%B%B",
"%B%B%B%B%B%B%B%B%B%B%B%B%B%B%B%B%B%B%B%B%B%B%B%B%B%B%B%B%B%B%B%B%B%B%B%B%B%B%B%B%B%B%B%B%B%B%B%B%B%>%P$d#&#7#1#2#2#2#2#3#3#4#4#5#;#%$d%1%P%:%B%B%B%B%B%B%B%B%B%B%B%B%B%B%B%B%B%B%B%B%B%B%B%B%B%B%B%B%B%B%B%B%B%B%B%B%B%B%B%B%B%B%B%B%B%B%B%B%B%B%B%B%B%B%B%B%B%B%B%B%B%B%B%B%B%B%B%B%B%B%B%B%B%B%B%B%B%B%B%B%B%B%B%B%B%B%B%B%B%B%B%B%B%B%B%B%B%B%B%B%B%B%B%B%B%B%B%B%B%B%B%B%B%B%B%B%:%O%4$m#S$,#~$%$%$&$&$&$&$&$&$+$1#o$o%N%>%B%B%B%B%B%B%B%B%B%B%B%B%B%B%B%B%B%B%B%B%B%B%B%B%B%B%B%B%B%B%B%B%B%B%B%B%B%B%B%B%B%B%B%B%B%B%B%B%B",
"%B%B%B%B%B%B%B%B%B%B%B%B%B%B%B%B%B%B%B%B%B%B%B%B%B%B%B%B%B%B%B%B%B%B%B%B%B%B%B%B%B%B%B%B%B%B%B%B%B%>%P$d#&#7#2#2#2#2#3#3#4#4#5#;#%$d%1%P%:%B%B%B%B%B%B%B%B%B%B%B%B%B%B%B%B%B%B%B%B%B%B%B%B%B%B%B%B%B%B%B%B%B%B%B%B%B%B%B%B%B%B%B%B%B%B%B%B%B%B%B%B%B%B%B%B%B%B%B%B%B%B%B%B%B%B%B%B%B%B%B%B%B%B%B%B%B%B%B%B%B%B%B%B%B%B%B%B%B%B%B%B%B%B%B%B%B%B%B%B%B%B%B%B%B%B%B%B%B%B%B%B%B%B%B%B%B%B%:%O%4$n#U$2$%$&$&$&$&$&$&$+$-$1#o$o%N%>%B%B%B%B%B%B%B%B%B%B%B%B%B%B%B%B%B%B%B%B%B%B%B%B%B%B%B%B%B%B%B%B%B%B%B%B%B%B%B%B%B%B%B%B%B%B%B%B%B",
"%B%B%B%B%B%B%B%B%B%B%B%B%B%B%B%B%B%B%B%B%B%B%B%B%B%B%B%B%B%B%B%B%B%B%B%B%B%B%B%B%B%B%B%B%B%B%B%B%B%>%P$d#&#7#2#2#2#3#3#4#4#5#;#%$d%1%P%:%B%B%B%B%B%B%B%B%B%B%B%B%B%B%B%B%B%B%B%B%B%B%B%B%B%B%B%B%B%B%B%B%B%B%B%B%B%B%B%B%B%B%B%B%B%B%B%B%B%B%B%B%B%>%;%:%:%>%B%B%B%B%B%B%B%B%B%B%B%B%B%B%B%B%B%B%B%B%B%B%B%B%B%B%B%B%B%B%B%B%B%B%B%B%B%B%B%B%B%B%B%B%B%B%B%B%B%B%B%B%B%B%B%B%B%B%B%B%B%B%:%O%4$n#U$2$&$&$&$&$&$+$-$-$1#o$o%N%>%B%B%B%B%B%B%B%B%B%B%B%B%B%B%B%B%B%B%B%B%B%B%B%B%B%B%B%B%B%B%B%B%B%B%B%B%B%B%B%B%B%B%B%B%B%B%B%B%B",
"%B%B%B%B%B%B%B%B%B%B%B%B%B%B%B%B%B%B%B%B%B%B%B%B%B%B%B%B%B%B%B%B%B%B%B%B%B%B%B%B%B%B%B%B%B%B%B%B%B%>%P$d#&#7#2#2#3#3#4#4#5#;#%$d%1%P%:%B%B%B%B%B%B%B%B%B%B%B%B%B%B%B%B%B%B%B%B%B%B%B%B%B%B%B%B%B%B%B%B%B%B%B%B%B%B%B%B%B%B%B%B%B%B%B%B%B%>%;%:%;%B%K%S%[%^%O%>%B%B%B%B%B%B%B%B%B%B%B%B%B%B%B%B%B%B%B%B%B%B%B%B%B%B%B%B%B%B%B%B%B%B%B%B%B%B%B%B%B%B%B%B%B%B%B%B%B%B%B%B%B%B%B%B%B%B%B%B%B%B%:%O%4$n#U$2$&$&$&$+$-$-$-$1#o$o%N%>%B%B%B%B%B%B%B%B%B%B%B%B%B%B%B%B%B%B%B%B%B%B%B%B%B%B%B%B%B%B%B%B%B%B%B%B%B%B%B%B%B%B%B%B%B%B%B%B%B",
"%B%B%B%B%B%B%B%B%B%B%B%B%B%B%B%B%B%B%B%B%B%B%B%B%B%B%B%B%B%B%B%B%B%B%B%B%B%B%B%B%B%B%B%B%B%B%B%B%B%>%P$d#&#7#2#3#3#4#4#5#;#%$d%1%P%:%B%B%B%B%B%B%B%B%B%B%B%B%B%B%B%B%B%B%B%B%B%B%B%B%B%B%B%B%B%B%B%B%B%B%B%B%B%B%B%B%B%B%B%B%B%B%B%>%:%;%J%W%^%[%>%/$}$w$u%'%P%>%B%B%B%B%B%B%B%B%B%B%B%B%B%B%B%B%B%B%B%B%B%B%B%B%B%B%B%B%B%B%B%B%B%B%B%B%B%B%B%B%B%B%B%B%B%B%B%B%B%B%B%B%B%B%B%B%B%B%B%B%B%B%:%O%5$n#U$2$&$-$-$-$-$-$1#o$o%N%>%B%B%B%B%B%B%B%B%B%B%B%B%B%B%B%B%B%B%B%B%B%B%B%B%B%B%B%B%B%B%B%B%B%B%B%B%B%B%B%B%B%B%B%B%B%B%B%B%B",
"%B%B%B%B%B%B%B%B%B%B%B%B%B%B%B%B%B%B%B%B%B%B%B%B%B%B%B%B%B%B%B%B%B%B%B%B%B%B%B%B%B%B%B%B%B%B%B%B%B%>%P$d#&#4#3#3#4#4#5#;#%$d%1%P%:%B%B%B%B%B%B%B%B%B%B%B%B%B%B%B%B%B%B%B%B%B%B%B%B%B%B%B%B%B%B%B%B%B%B%B%B%B%B%B%B%B%B%B%B%B%B%:%:%K%Z%[%/$w$u$t$f$5$&#S$t%0%D%>%B%B%B%B%B%B%B%B%B%B%B%B%B%B%B%B%B%B%B%B%B%B%B%B%B%B%B%B%B%B%B%B%B%B%B%B%B%B%B%B%B%B%B%B%B%B%B%B%B%B%B%B%B%B%B%B%B%B%B%B%B%B%B%:%O%5$n#U$4$-$-$-$-$-$1#q$o%N%>%B%B%B%B%B%B%B%B%B%B%B%B%B%B%B%B%B%B%B%B%B%B%B%B%B%B%B%B%B%B%B%B%B%B%B%B%B%B%B%B%B%B%B%B%B%B%B%B%B",
"%B%B%B%B%B%B%B%B%B%B%B%B%B%B%B%B%B%B%B%B%B%B%B%B%B%B%B%B%B%B%B%B%B%B%B%B%B%B%B%B%B%B%B%B%B%B%B%B%B%>%P$d#&#4#3#4#4#5#;#%$d%1%P%:%B%B%B%B%B%B%B%B%B%B%B%B%B%B%B%B%B%B%B%B%B%B%B%B%B%B%B%B%B%B%B%B%B%B%B%B%B%B%B%B%B%B%B%B%>%:%B%[%Z%/$v$t$@#p#U#X#p#x#X$u%^%K%>%B%B%B%B%B%B%B%B%B%B%B%B%B%B%B%B%B%B%B%B%B%B%B%B%B%B%B%B%B%B%B%B%B%B%B%B%B%B%B%B%B%B%B%B%B%B%B%B%B%B%B%B%B%B%B%B%B%B%B%B%B%B%B%B%B%:%O%5$o#l$4$-$-$-$-$2#q$o%N%>%B%B%B%B%B%B%B%B%B%B%B%B%B%B%B%B%B%B%B%B%B%B%B%B%B%B%B%B%B%B%B%B%B%B%B%B%B%B%B%B%B%B%B%B%B%B%B%B%B",
"%B%B%B%B%B%B%B%B%B%B%B%B%B%B%B%B%B%B%B%B%B%B%B%B%B%B%B%B%B%B%B%B%B%B%B%B%B%B%B%B%B%B%B%B%B%B%B%B%B%>%P$d#&#4#4#4#5#;#%$d%1%P%:%B%B%B%B%B%B%B%B%B%B%B%B%B%B%B%B%B%B%B%B%B%B%B%B%B%B%B%B%B%B%B%B%B%B%B%B%B%B%B%B%B%B%B%B%:%D%Z%D$w$t$5#U#X#r$+$1$1$2#X$u%^%;%>%B%B%B%B%B%B%B%B%B%B%B%B%B%B%B%B%B%B%B%B%B%B%B%B%B%B%B%B%B%B%B%B%B%B%B%B%B%B%B%B%B%B%B%B%B%B%B%B%B%B%B%B%B%B%B%B%B%B%B%B%B%B%B%B%B%B%B%:%O%5$o#l$4$-$-$/$3#q$o%N%>%B%B%B%B%B%B%B%B%B%B%B%B%B%B%B%B%B%B%B%B%B%B%B%B%B%B%B%B%B%B%B%B%B%B%B%B%B%B%B%B%B%B%B%B%B%B%B%B%B",
"%B%B%B%B%B%B%B%B%B%B%B%B%B%B%B%B%B%B%B%B%B%B%B%B%B%B%B%B%B%B%B%B%B%B%B%B%B%B%B%B%B%B%B%B%B%B%B%B%B%>%P$d#&#;#4#5#;#%$d%1%P%:%B%B%B%B%B%B%B%B%B%B%B%B%B%B%B%B%B%B%B%B%B%B%B%B%B%B%B%B%B%B%B%B%B%B%B%B%B%B%B%B%B%B%B%:%B%Z%5$v$l#m#U#r$1$1$+$&$&$1#U$u%^%:%>%B%B%B%B%B%B%B%B%B%B%B%B%B%B%B%B%B%B%B%B%B%B%B%B%B%B%B%B%B%B%B%B%B%B%B%B%B%B%B%B%B%B%B%B%B%B%B%B%B%B%B%B%B%B%B%B%B%B%B%B%B%B%B%B%B%B%B%B%B%:%O%5$o#l$4$0$0$3#q$o%N%>%B%B%B%B%B%B%B%B%B%B%B%B%B%B%B%B%B%B%B%B%B%B%B%B%B%B%B%B%B%B%B%B%B%B%B%B%B%B%B%B%B%B%B%B%B%B%B%B%B",
"%B%B%B%B%B%B%B%B%B%B%B%B%B%B%B%B%B%B%B%B%B%B%B%B%B%B%B%B%B%B%B%B%B%B%B%B%B%B%B%B%B%B%B%B%B%B%B%B%B%>%P$d#&#;#5#;#%$d%1%P%:%B%B%B%B%B%B%B%B%B%B%B%B%B%B%B%B%B%B%B%B%B%B%B%B%B%B%B%B%B%B%B%B%B%B%B%B%B%B%B%B%B%B%>%:%[%J$v$j#U#o$/$1$+$&$&$&$&$1#U$t%[%;%>%B%B%B%B%B%B%B%B%B%B%B%B%B%B%B%B%B%B%B%B%B%B%B%B%B%B%B%B%B%B%B%B%B%B%B%B%B%B%B%B%B%B%B%B%B%B%B%B%B%B%B%B%B%B%B%B%B%B%B%B%B%B%B%B%B%B%B%B%B%B%B%:%O%5$o#l$4$0$3#q$o%N%>%B%B%B%B%B%B%B%B%B%B%B%B%B%B%B%B%B%B%B%B%B%B%B%B%B%B%B%B%B%B%B%B%B%B%B%B%B%B%B%B%B%B%B%B%B%B%B%B%B",
"%B%B%B%B%B%B%B%B%B%B%B%B%B%B%B%B%B%B%B%B%B%B%B%B%B%B%B%B%B%B%B%B%B%B%B%B%B%B%B%B%B%B%B%B%B%B%B%B%B%>%P$d#&#8#;#%$d%1%P%:%B%B%B%B%B%B%B%B%B%B%B%B%B%B%B%B%B%B%B%B%B%B%B%B%B%B%B%B%B%B%B%B%B%B%B%B%B%B%B%B%B%B%:%K%[$w$l#U#p$1$/$&$&$&$&$&$&$1#l$n%J%D%>%B%B%B%B%B%B%B%B%B%B%B%B%B%B%B%B%B%B%B%B%B%B%B%B%B%B%B%B%B%B%B%B%B%B%B%B%B%B%B%B%B%B%B%B%B%B%B%B%B%B%B%B%B%B%B%B%B%B%B%B%B%B%B%B%B%B%B%B%B%B%B%B%B%:%O%5$o#n$4$3#q$o%N%>%B%B%B%B%B%B%B%B%B%B%B%B%B%B%B%B%B%B%B%B%B%B%B%B%B%B%B%B%B%B%B%B%B%B%B%B%B%B%B%B%B%B%B%B%B%B%B%B%B",
"%B%B%B%B%B%B%B%B%B%B%B%B%B%B%B%B%B%B%B%B%B%B%B%B%B%B%B%B%B%B%B%B%B%B%B%B%B%B%B%B%B%B%B%B%B%B%B%B%B%>%P$d#&#A#%$d%1%P%:%B%B%B%B%B%B%B%B%B%B%B%B%B%B%B%B%B%B%B%B%B%B%B%B%B%B%B%B%B%B%B%B%B%B%B%B%B%B%B%B%B%B%:%[%/$t#o#o$1$,$&$&$&$&$&$&$&$+#r$5%.%Q%:%B%B%B%B%B%B%B%B%B%B%B%B%B%B%B%B%B%B%B%B%B%B%B%B%B%B%B%B%B%B%B%B%B%B%B%B%B%B%B%B%B%B%B%B%B%B%B%B%B%B%B%B%B%B%B%B%B%B%B%B%B%B%B%B%B%B%B%B%B%B%B%B%B%B%B%:%N%5$o#n$:#q$o%N%>%B%B%B%B%B%B%B%B%B%B%B%B%B%B%B%B%B%B%B%B%B%B%B%B%B%B%B%B%B%B%B%B%B%B%B%B%B%B%B%B%B%B%B%B%B%B%B%B%B",
"%B%B%B%B%B%B%B%B%B%B%B%B%B%B%B%B%B%B%B%B%B%B%B%B%B%B%B%B%B%B%B%B%B%B%B%B%B%B%B%B%B%B%B%B%B%B%B%B%B%>%P$d#'#&$d%1%P%:%B%B%B%B%B%B%B%B%B%B%B%B%B%B%B%B%B%B%B%B%B%B%B%B%B%B%B%B%B%B%B%B%B%B%B%B%B%B%B%B%B%=%>%Z$w$@#U$,$/$&$&$&$&$&$&$&$&$&$/#X$v%Z%4%B%B%B%B%B%B%B%B%B%B%B%B%B%B%B%B%B%B%B%B%B%B%B%B%B%B%B%B%B%B%B%B%B%B%B%B%B%B%B%B%B%B%B%B%B%B%B%B%B%B%B%B%B%B%B%B%B%B%B%B%B%B%B%B%B%B%B%B%B%B%B%B%B%B%B%B%B%:%N%5$o#n#s$o%N%>%B%B%B%B%B%B%B%B%B%B%B%B%B%B%B%B%B%B%B%B%B%B%B%B%B%B%B%B%B%B%B%B%B%B%B%B%B%B%B%B%B%B%B%B%B%B%B%B%B",
"%B%B%B%B%B%B%B%B%B%B%B%B%B%B%B%B%B%B%B%B%B%B%B%B%B%B%B%B%B%B%B%B%B%B%B%B%B%B%B%B%B%B%B%B%B%B%B%B%B%>%P$d#%$d%1%P%:%B%B%B%B%B%B%B%B%B%B%B%B%B%B%B%B%B%B%B%B%B%B%B%B%B%B%B%B%B%B%B%B%B%B%B%B%B%B%B%B%B%:%J%Q$u#m#p$2$&$&$&$&$&$&$&$&$&$&$1#U$t%Z%;%B%B%B%B%B%B%B%B%B%B%B%B%B%B%B%B%B%B%B%B%B%B%B%B%B%B%B%B%B%B%B%B%B%B%B%B%B%B%B%B%B%B%B%B%B%B%B%B%B%B%B%B%B%B%B%B%B%B%B%B%B%B%B%B%B%B%B%B%B%B%B%B%B%B%B%B%B%B%B%:%N%5$p#S$p%O%>%B%B%B%B%B%B%B%B%B%B%B%B%B%B%B%B%B%B%B%B%B%B%B%B%B%B%B%B%B%B%B%B%B%B%B%B%B%B%B%B%B%B%B%B%B%B%B%B%B",
"%B%B%B%B%B%B%B%B%B%B%B%B%B%B%B%B%B%B%B%B%B%B%B%B%B%B%B%B%B%B%B%B%B%B%B%B%B%B%B%B%B%B%B%B%B%B%B%B%B%>%Q$c$c%4%P%:%B%B%B%B%B%B%B%B%B%B%B%B%B%B%B%B%B%B%B%B%B%B%B%B%B%B%B%B%B%B%B%B%B%B%B%B%B%B%B%B%B%:%Q%0$p#S$+$/$&$&$&$&$&$&$&$&$&$&$+#x$4%.%O%;%B%B%B%B%B%B%B%B%B%B%B%B%B%B%B%B%B%B%B%B%B%B%B%B%B%B%B%B%B%B%B%B%B%B%B%B%B%B%B%B%B%B%B%B%B%B%B%B%B%B%B%B%B%B%B%B%B%B%B%B%B%B%B%B%B%B%B%B%B%B%B%B%B%B%B%B%B%B%B%B%:%N%=$l$l%Q%>%B%B%B%B%B%B%B%B%B%B%B%B%B%B%B%B%B%B%B%B%B%B%B%B%B%B%B%B%B%B%B%B%B%B%B%B%B%B%B%B%B%B%B%B%B%B%B%B%B",
"%B%B%B%B%B%B%B%B%B%B%B%B%B%B%B%B%B%B%B%B%B%B%B%B%B%B%B%B%B%B%B%B%B%B%B%B%B%B%B%B%B%B%B%B%B%B%B%B%B%;%L$t%/%T%:%B%B%B%B%B%B%B%B%B%B%B%B%B%B%B%B%B%B%B%B%B%B%B%B%B%B%B%B%B%B%B%B%B%B%B%B%B%B%B%B%B%:%U%.$l#U$2$&$&$&$&$&$&$&$&$&$&$&$&$1#U$u%^%4%B%B%B%B%B%B%B%B%B%B%B%B%B%B%B%B%B%B%B%B%B%B%B%B%B%B%B%B%B%B%B%B%B%B%B%B%B%B%B%B%B%B%B%B%B%B%B%B%B%B%B%B%B%B%B%B%B%B%B%B%B%B%B%B%B%B%B%B%B%B%B%B%B%B%B%B%B%B%B%B%B%B%:%Q%/$u%K%=%B%B%B%B%B%B%B%B%B%B%B%B%B%B%B%B%B%B%B%B%B%B%B%B%B%B%B%B%B%B%B%B%B%B%B%B%B%B%B%B%B%B%B%B%B%B%B%B%B",
"%B%B%B%B%B%B%B%B%B%B%B%B%B%B%B%B%B%B%B%B%B%B%B%B%B%B%B%B%B%B%B%B%B%B%B%B%B%B%B%B%B%B%B%B%B%B%B%B%3%_$x%.%]%:%B%B%B%B%B%B%B%B%B%B%B%B%B%B%B%B%B%B%B%B%B%B%B%B%B%B%B%B%B%B%B%B%B%B%B%B%B%B%B%B%B%4%U%.$@#l$2$&$&$&$&$&$&$&$&$&$&$&$&$+#p$@%0%J%>%B%B%B%B%B%B%B%B%B%B%B%B%B%B%B%B%B%B%B%B%B%B%B%B%B%B%B%B%B%B%B%B%B%B%B%B%B%B%B%B%B%B%B%B%B%B%B%B%B%B%B%B%B%B%B%B%B%B%B%B%B%B%B%B%B%B%B%B%B%B%B%B%B%B%B%B%B%B%B%B%B%B%B%:%U%.$y%[%4%B%B%B%B%B%B%B%B%B%B%B%B%B%B%B%B%B%B%B%B%B%B%B%B%B%B%B%B%B%B%B%B%B%B%B%B%B%B%B%B%B%B%B%B%B%B%B%B",
"%B%B%B%B%B%B%B%B%B%B%B%B%B%B%B%B%B%B%B%B%B%B%B%B%B%B%B%B%B%B%B%B%B%B%B%B%B%B%B%B%B%B%B%B%B%B%B%3%_$~#^$x%V%;%B%B%B%B%B%B%B%B%B%B%B%B%B%B%B%B%B%B%B%B%B%B%B%B%B%B%B%B%B%B%B%B%B%B%B%B%B%B%B%B%:%U%.$@#m$2$&$&$&$&$&$&$&$&$&$&$&$&$&$1#U$u%^%4%B%B%B%B%B%B%B%B%B%B%B%B%B%B%B%B%B%B%B%B%B%B%B%B%B%B%B%B%B%B%B%B%B%B%B%B%B%B%B%B%B%B%B%B%B%B%B%B%B%B%B%B%B%B%B%B%B%B%B%B%B%B%B%B%B%B%B%B%B%B%B%B%B%B%B%B%B%B%B%B%B%B%B%B%;%S$y$@%'%[%4%B%B%B%B%B%B%B%B%B%B%B%B%B%B%B%B%B%B%B%B%B%B%B%B%B%B%B%B%B%B%B%B%B%B%B%B%B%B%B%B%B%B%B%B%B%B%B",
"%B%B%B%B%B%B%B%B%B%B%B%B%B%B%B%B%B%B%B%B%B%B%B%B%B%B%B%B%B%B%B%B%B%B%B%B%B%B%B%B%B%B%B%B%B%B%3%_%$#^#'%$%V%;%B%B%B%B%B%B%B%B%B%B%B%B%B%B%B%B%B%B%B%B%B%B%B%B%B%B%B%B%B%B%B%B%B%B%B%B%B%B%B%:%Q%.$@#m$2$&$&$&$&$&$&$&$&$&$&$&$&$&$+#r$@%/%J%>%B%B%B%B%B%B%B%B%B%B%B%B%B%B%B%B%B%B%B%B%B%B%B%B%B%B%B%B%B%B%B%B%B%B%B%B%B%B%B%B%B%B%B%B%B%B%B%B%B%B%B%B%B%B%B%B%B%B%B%B%B%B%B%B%B%B%B%B%B%B%B%B%B%B%B%B%B%B%B%B%B%B%B%B%;%S%*#s$@%'%[%4%B%B%B%B%B%B%B%B%B%B%B%B%B%B%B%B%B%B%B%B%B%B%B%B%B%B%B%B%B%B%B%B%B%B%B%B%B%B%B%B%B%B%B%B%B%B",
"%B%B%B%B%B%B%B%B%B%B%B%B%B%B%B%B%B%B%B%B%B%B%B%B%B%B%B%B%B%B%B%B%B%B%B%B%B%B%B%B%B%B%B%B%B%3%_$~#^#'#?$z%V%;%B%B%B%B%B%B%B%B%B%B%B%B%B%B%B%B%B%B%B%B%B%B%B%B%B%B%B%B%B%B%B%B%B%B%B%B%B%B%=%J%0$l#l$2$&$&$&$&$&$&$&$&$&$&$&$&$&$&$1#U$t%^%:%B%B%B%B%B%B%B%B%B%B%B%B%B%B%B%B%B%B%B%B%B%B%B%B%B%B%D%>%B%B%B%B%B%B%B%>%D%B%B%B%B%B%B%B%B%B%B%B%B%B%B%B%B%B%B%B%B%B%B%B%B%B%B%B%B%B%B%B%B%B%B%B%B%B%B%B%B%B%B%B%B%B%B%B%B%;%S%&$:#s$@%'%[%4%B%B%B%B%B%B%B%B%B%B%B%B%B%B%B%B%B%B%B%B%B%B%B%B%B%B%B%B%B%B%B%B%B%B%B%B%B%B%B%B%B%B%B%B%B",
"%B%B%B%B%B%B%B%B%B%B%B%B%B%B%B%B%B%B%B%B%B%B%B%B%B%B%B%B%B%B%B%B%B%B%B%B%B%B%B%B%B%B%B%B%3%_$~#^#+#@#6$z%V%;%B%B%B%B%B%B%B%B%B%B%B%B%B%B%B%B%B%B%B%B%B%B%B%B%B%B%B%B%B%B%B%B%B%B%B%B%B%B%>%Q$p#U$2$&$&$&$&$&$&$&$&$&$&$&$&$&$&$&$+#r$y%S%;%B%B%B%B%B%B%B%B%B%B%B%B%B%B%B%B%B%B%B%B%B%B%B%B%B%B%;%K%<%B%B%B%B%B%<%K%;%B%B%B%B%B%B%B%B%B%B%B%B%B%B%B%B%B%B%B%B%B%B%B%B%B%B%B%B%B%B%B%B%B%B%B%B%B%B%B%B%B%B%B%B%B%B%B%B%;%R%&$3$:#s$@%'%Z%4%B%B%B%B%B%B%B%B%B%B%B%B%B%B%B%B%B%B%B%B%B%B%B%B%B%B%B%B%B%B%B%B%B%B%B%B%B%B%B%B%B%B%B%B",
"%B%B%B%B%B%B%B%B%B%B%B%B%B%B%B%B%B%B%B%B%B%B%B%B%B%B%B%B%B%B%B%B%B%B%B%B%B%B%B%B%B%B%B%3%_$~#^#'#A#8#6$z%V%;%B%B%B%B%B%B%B%B%B%B%B%B%B%B%B%B%B%B%B%B%B%B%B%B%B%B%B%B%B%B%B%B%B%B%B%B%B%:%Z$u#S$2$&$&$&$&$&$&$&$&$&$&$&$&$&$&$&$/#o$l%J%B%B%B%B%B%B%B%B%B%B%B%B%B%B%B%B%B%B%B%B%B%B%B%B%B%B%;%U$w$w%Z%:%B%B%B%:%Z$w$w%U%;%B%B%B%B%B%B%B%B%B%B%B%B%B%B%B%B%B%B%B%B%B%B%B%B%B%B%B%B%B%B%B%B%B%B%B%B%B%B%B%B%B%B%B%B%B%B%;%R%&$3$3$=#s$@%(%Z%4%B%B%B%B%B%B%B%B%B%B%B%B%B%B%B%B%B%B%B%B%B%B%B%B%B%B%B%B%B%B%B%B%B%B%B%B%B%B%B%B%B%B%B",
"%B%B%B%B%B%B%B%B%B%B%B%B%B%B%B%B%B%B%B%B%B%B%B%B%B%B%B%B%B%B%B%B%B%B%B%B%B%B%B%B%B%B%3%_$~#^#'#@#8#8#6$z%V%;%B%B%B%B%B%B%B%B%B%B%B%B%B%B%B%B%B%B%B%B%B%B%B%B%B%B%B%B%B%B%B%B%B%B%B%B%:%Z$w#o$-$&$&$&$&$&$&$&$&$&$&$&$&$&$&$&$&$1#U$u%Z%:%B%B%B%B%B%B%B%B%B%B%B%B%B%B%B%B%B%B%B%B%B%B%B%B%B%;%Z$w$@%/%K%;%B%;%O%/$@$w%W%;%B%B%B%B%B%B%B%B%B%B%B%B%B%B%B%B%B%B%B%B%B%B%B%B%B%B%B%B%B%B%B%B%B%B%B%B%B%B%B%B%B%B%B%B%B%B%;%R%&$3$3$4$=#s$@%(%Z%4%B%B%B%B%B%B%B%B%B%B%B%B%B%B%B%B%B%B%B%B%B%B%B%B%B%B%B%B%B%B%B%B%B%B%B%B%B%B%B%B%B%B",
"%B%B%B%B%B%B%B%B%B%B%B%B%B%B%B%B%B%B%B%B%B%B%B%B%B%B%B%B%B%B%B%B%B%B%B%B%B%B%B%B%B%3%_$~#^#'#@#8#8#9#6$z%V%;%B%B%B%B%B%B%B%B%B%B%B%B%B%B%B%B%B%B%B%B%B%B%B%B%B%B%B%B%B%B%B%B%B%B%B%>%K%/$@#p$/$&$&$&$&$&$&$&$&$&$&$&$&$&$&$&$&$-#p$y%U%;%B%B%B%B%B%B%B%B%B%B%B%B%B%B%B%B%B%B%B%B%B%B%B%B%B%;%Q%,#X$p%Q%B%;%B%M$o#p%.%Q%>%B%B%B%B%B%B%B%B%B%B%B%B%B%B%B%B%B%B%B%B%B%B%B%B%B%B%B%B%B%B%B%B%B%B%B%B%B%B%B%B%B%B%B%B%B%B%;%R%&$3$4$7$7$=$'$I%(%Z%4%B%B%B%B%B%B%B%B%B%B%B%B%B%B%B%B%B%B%B%B%B%B%B%B%B%B%B%B%B%B%B%B%B%B%B%B%B%B%B%B%B",
"%B%B%B%B%B%B%B%B%B%B%B%B%B%B%B%B%B%B%B%B%B%B%B%B%B%B%B%B%B%B%B%B%B%B%B%B%B%B%B%B%3%_$~#^#'#@#8#8#9#9#6$z%V%;%B%B%B%B%B%B%B%B%B%B%B%B%B%B%B%B%B%B%B%B%B%B%B%B%B%B%B%B%B%B%B%B%B%B%B%;%Z$t#U$2$&$&$&$&$&$&$&$&$&$&$&$&$&$&$&$&$+#p$@%0%J%>%B%B%B%B%B%B%B%B%B%B%B%B%B%B%B%B%B%B%B%B%B%B%B%B%B%>%K%/$@#S$u%^%1%[$t#S$@%/%J%>%B%B%B%B%B%B%B%B%B%B%B%B%B%B%B%B%B%B%B%B%B%B%B%B%B%B%B%B%B%B%B%B%B%B%B%B%B%B%B%B%B%B%B%B%B%B%;%R%&$3$7$7$7$7$=$'$I%(%Z%4%B%B%B%B%B%B%B%B%B%B%B%B%B%B%B%B%B%B%B%B%B%B%B%B%B%B%B%B%B%B%B%B%B%B%B%B%B%B%B%B",
"%B%B%B%B%B%B%B%B%B%B%B%B%B%B%B%B%B%B%B%B%B%B%B%B%B%B%B%B%B%B%B%B%B%B%B%B%B%B%B%3%_$~#^#'#@#8#8#8#9#9#6$z%V%;%B%B%B%B%B%B%B%B%B%B%B%B%B%B%B%B%B%B%B%B%B%B%B%B%B%B%B%B%B%B%B%B%B%B%:%W$w#o$/$&$&$&$&$&$&$&$&$&$&$&$&$&$&$&$&$&$1#X$p%U%;%B%B%B%B%B%B%B%B%B%B%B%B%B%B%B%B%B%B%B%B%B%B%;%>%>%B%>%D%0$i#r#l$v%^$v#X#r$f%;%D%>%B%>%>%;%B%B%B%B%B%B%B%B%B%B%B%B%B%B%B%B%B%B%B%B%B%B%B%B%B%B%B%B%B%B%B%B%B%B%B%B%B%B%B%B%B%B%;%R%&$7$7$7$7$7$7$=$0$I%(%Z%4%B%B%B%B%B%B%B%B%B%B%B%B%B%B%B%B%B%B%B%B%B%B%B%B%B%B%B%B%B%B%B%B%B%B%B%B%B%B%B",
"%B%B%B%B%B%B%B%B%B%B%B%B%B%B%B%B%B%B%B%B%B%B%B%B%B%B%B%B%B%B%B%B%B%B%B%B%B%B%3%_$~#^#'#@#8#8#8#9#9#9#6$z%V%;%B%B%B%B%B%B%B%B%B%B%B%B%B%B%B%B%B%B%B%B%B%B%B%B%B%B%B%B%B%B%B%B%B%B%B%J$l#o$/$&$&$&$&$&$&$&$&$&$&$&$&$&$&$&$&$&$1#S$u%^%:%B%B%B%B%B%B%B%B%B%B%B%B%B%B%B%B%B%B%B%B%B%D%W%Q%J%B%;%:%B$l#o#x$5$u$2$&#m$o%J%4%;%B%J%Q%W%D%B%B%B%B%B%B%B%B%B%B%B%B%B%B%B%B%B%B%B%B%B%B%B%B%B%B%B%B%B%B%B%B%B%B%B%B%B%B%B%B%B%;%R%&$7$7$7$7$7$8$8$=$0$I%(%Z%4%B%B%B%B%B%B%B%B%B%B%B%B%B%B%B%B%B%B%B%B%B%B%B%B%B%B%B%B%B%B%B%B%B%B%B%B%B%B",
"%B%B%B%B%B%B%B%B%B%B%B%B%B%B%B%B%B%B%B%B%B%B%B%B%B%B%B%B%B%B%B%B%B%B%B%B%B%3%_$~#^#'#@#8#8#8#9#9#9#9#:$z%V%;%B%B%B%B%B%B%B%B%B%B%B%B%B%B%B%B%B%B%B%B%B%B%B%B%B%B%B%B%B%B%B%B%B%:%Z$v#U$1$&$&$&$&$&$&$&$&$&$&$&$&$&$&$&$&$&$&$1#X$v%Z%:%B%B%B%B%B%B%B%B%B%B%B%B%B%B%B%B%B%B%B%B%J%0$w%.%0%>%S%W%^$t#U$2$##X$#$2#U$t%^%U%U%B%0%.$y%0%J%B%B%B%B%B%B%B%B%B%B%B%B%B%B%B%B%B%B%B%B%B%B%B%B%B%B%B%B%B%B%B%B%B%B%B%B%B%B%B%B%;%R%&$7$7$7$7$8$8$8$8$>$'$I%(%Z%4%B%B%B%B%B%B%B%B%B%B%B%B%B%B%B%B%B%B%B%B%B%B%B%B%B%B%B%B%B%B%B%B%B%B%B%B%B",
"%B%B%B%B%B%B%B%B%B%B%B%B%B%B%B%B%B%B%B%B%B%B%B%B%B%B%B%B%B%B%B%B%B%B%B%B%3%_$~#^#'#@#8#8#8#9#9#9#9#=#<$z%V%;%B%B%B%B%B%B%B%B%B%B%B%B%B%B%B%B%B%B%B%B%B%B%B%B%B%B%B%B%B%B%B%B%B%D%4$j#p$/$&$&$&$&$&$&$&$&$&$&$&$&$&$&$&$&$&$&$&#r$y%U%;%B%B%B%B%B%B%B%B%B%B%B%B%B%B%B%B%B%B%B%B%B%D$v$/$@$l$p$t$u$n#p$+$+$/$+$+#o$o$u$t$p$l$@$2$v%D%>%B%B%B%B%B%B%B%B%B%B%B%B%B%B%B%B%B%B%B%B%B%B%B%B%B%B%B%B%B%B%B%B%B%B%B%B%B%B%B%B%;%R%&$7$7$7$8$8$8$8$8$9$>$6$I%(%Z%4%B%B%B%B%B%B%B%B%B%B%B%B%B%B%B%B%B%B%B%B%B%B%B%B%B%B%B%B%B%B%B%B%B%B%B%B",
"%B%B%B%B%B%B%B%B%B%B%B%B%B%B%B%B%B%B%B%B%B%B%B%B%B%B%B%B%B%B%B%B%B%B%B%3%_$~#^#'#@#8#8#8#9#9#9#9#=#=#<$z%V%;%B%B%B%B%B%B%B%B%B%B%B%B%B%B%B%B%B%B%B%B%B%B%B%B%B%B%B%B%B%B%B%B%:%Z$v#U$1$&$&$&$&$&$&$&$&$&$&$&$&$&$&$&$&$&$&$+#x$4%.%O%>%B%B%B%B%B%B%B%B%B%B%B%B%B%B%B%B%B%B%B%B%B%B%^$w$5#S#p#U#S#p$+$&$&$&$&$&$+#p#S#U#p#S$5$y%^%B%B%B%B%B%B%B%B%B%B%B%B%B%B%B%B%B%B%B%B%B%B%B%B%B%B%B%B%B%B%B%B%B%B%B%B%B%B%B%B%B%B%;%R%&$7$7$8$8$8$8$8$9$9$;$F$6$I%(%Z%4%B%B%B%B%B%B%B%B%B%B%B%B%B%B%B%B%B%B%B%B%B%B%B%B%B%B%B%B%B%B%B%B%B%B%B",
"%B%B%B%B%B%B%B%B%B%B%B%B%B%B%B%B%B%B%B%B%B%B%B%B%B%B%B%B%B%B%B%B%B%B%3%_$~#^#'#@#8#8#8#9#9#9#9#=#=#=#<$z%V%;%B%B%B%B%B%B%B%B%B%B%B%B%B%B%B%B%B%B%B%B%B%B%B%B%B%B%B%B%B%B%B%B%B%D$l#o$,$&$&$&$&$&$&$&$&$&$&$&$&$&$&$&$&$&$&$+#r$@%/%J%>%B%B%B%B%B%B%B%B%B%B%B%B%B%B%B%B%B%B%B%B%B%B%:%Z%.$l#X$2$1$+$&$&$&$&$&$&$&$+$2$2#U$n%/%Z%:%B%B%B%B%B%B%B%B%B%B%B%B%B%B%B%B%B%B%B%B%B%B%B%B%B%B%B%B%B%B%B%B%B%B%B%B%B%B%B%B%B%B%;%R%&$7$8$8$8$8$8$9$9$;$;$;$F$6$I%(%Z%4%B%B%B%B%B%B%B%B%B%B%B%B%B%B%B%B%B%B%B%B%B%B%B%B%B%B%B%B%B%B%B%B%B%B",
"%B%B%B%B%B%B%B%B%B%B%B%B%B%B%B%B%B%B%B%B%B%B%B%B%B%B%B%B%B%B%B%B%B%3%_$~#^#'#@#8#8#8#9#9#9#9#=#=#=#=#<$z%V%;%B%B%B%B%B%B%B%B%B%B%B%B%B%B%B%B%B%B%B%B%B%B%B%B%B%B%B%B%B%B%B%:%W$w#m$/$&$&$&$&$&$&$&$&$&$&$&$&$&$&$&$&$&$&$&$+#p$e%5%D%>%B%B%B%B%B%B%B%B%B%B%B%B%B%B%B%B%B%B%B%B%B%B%B%:%Q%>$t#o$+$&$&$&$&$&$&$&$&$&$+#p$t%D%Q%:%B%B%B%B%B%B%B%B%B%B%B%B%B%B%B%B%B%B%B%B%B%B%B%B%B%B%B%B%B%B%B%B%B%B%B%B%B%B%B%B%B%B%B%;%R%&$7$8$8$8$8$9$9$;$;$;$;$;$F$6$I%*%Z%4%B%B%B%B%B%B%B%B%B%B%B%B%B%B%B%B%B%B%B%B%B%B%B%B%B%B%B%B%B%B%B%B%B",
"%B%B%B%B%B%B%B%B%B%B%B%B%B%B%B%B%B%B%B%B%B%B%B%B%B%B%B%B%B%B%B%B%3%_$~#^#'#@#8#8#8#9#9#9#9#=#=#=#=#=#<$z%V%;%B%B%B%B%B%B%B%B%B%B%B%B%B%B%B%B%B%B%B%B%B%B%B%B%B%B%B%B%B%B%B%:%W$t#U$1$&$&$&$&$&$&$&$&$&$&$&$&$&$&$&$&$&$&$&$/#o$l%>%B%B%B%B%B%B%B%B%B%B%B%B%B%B%B%B%B%B%B%B%B%B%B%B%B%B%:%>%^$t#l$/$&$&$&$&$&$&$&$/#l$t%^%<%:%B%B%B%B%B%B%B%B%B%B%B%B%B%B%B%B%B%B%B%B%B%B%B%B%B%B%B%B%B%B%B%B%B%B%B%B%B%B%B%B%B%B%B%B%;%R%&$7$8$8$8$9$9$;$;$;$;$;$<$<$F$6$W%*%Z%4%B%B%B%B%B%B%B%B%B%B%B%B%B%B%B%B%B%B%B%B%B%B%B%B%B%B%B%B%B%B%B%B",
"%B%B%B%B%B%B%B%B%B%B%B%B%B%B%B%B%B%B%B%B%B%B%B%B%B%B%B%B%B%B%B%3%_$~#^#'#@#8#8#8#9#9#9#9#=#=#=#=#=#>#<$z%V%;%B%B%B%B%B%B%B%B%B%B%B%B%B%B%B%B%B%B%B%B%B%B%B%B%B%B%B%B%B%B%>%N%/$5#r$+$&$&$&$&$&$&$&$&$&$&$&$&$&$&$&$&$&$&$&$/#o$l%B%B%B%B%B%B%B%B%B%B%B%B%B%B%B%B%B%B%B%B%B%B%B%B%B%B%;%B%Z$v$5$#$+$&$&$&$&$&$&$&$+#x$@$v%Z%B%;%B%B%B%B%B%B%B%B%B%B%B%B%B%B%B%B%B%B%B%B%B%B%B%B%B%B%B%B%B%B%B%B%B%B%B%B%B%B%B%B%B%B%B%;%R%&$7$8$8$9$9$;$;$;$;$;$;$<$>$>$H$6$W%*%X%4%B%B%B%B%B%B%B%B%B%B%B%B%B%B%B%B%B%B%B%B%B%B%B%B%B%B%B%B%B%B%B",
"%B%B%B%B%B%B%B%B%B%B%B%B%B%B%B%B%B%B%B%B%B%B%B%B%B%B%B%B%B%B%3%_$~#^#'#@#8#8#8#9#9#9#9#=#=#=#=#=#>#>#<$z%V%;%B%B%B%B%B%B%B%B%B%B%B%B%B%B%B%B%B%B%B%B%B%B%B%B%B%B%B%B%B%B%:%Z$v#U$1$&$&$&$&$&$&$&$&$&$&$&$&$&$&$&$&$&$&$&$&$/#o$l%>%B%B%B%B%B%B%B%B%B%B%B%B%B%B%B%B%B%B%B%B%B%B%B%B%:%K%Q$u#X#r$1$+$&$&$&$&$&$&$&$+$1#r#l$u%S%K%:%B%B%B%B%B%B%B%B%B%B%B%B%B%B%B%B%B%B%B%B%B%B%B%B%B%B%B%B%B%B%B%B%B%B%B%B%B%B%B%B%B%B%;%R%&$7$8$9$9$;$;$;$;$;$;$<$>$>$?$?$H$6$W%+%X%4%B%B%B%B%B%B%B%B%B%B%B%B%B%B%B%B%B%B%B%B%B%B%B%B%B%B%B%B%B%B",
"%B%B%B%B%B%B%B%B%B%B%B%B%B%B%B%B%B%B%B%B%B%B%B%B%B%B%B%B%B%3%_$~#^#'#@#8#8#8#9#9#9#9#=#=#=#=#=#>#>#>#<$z%V%;%B%B%B%B%B%B%B%B%B%B%B%B%B%B%B%B%B%B%B%B%B%B%B%B%B%B%B%B%B%B%;%W$t#U$1$&$&$&$&$&$&$&$&$&$&$&$&$&$&$&$&$&$&$&$&$+#p$j%1%D%>%B%B%B%B%B%B%B%B%B%B%B%B%B%B%B%B%B%B%B%B%B%>%Z%0$p#S$##r#l#p$+$&$&$&$&$&$+#p#l#p$##S$p%0%Z%>%B%B%B%B%B%B%B%B%B%B%B%B%B%B%B%B%B%B%B%B%B%B%B%B%B%B%B%B%B%B%B%B%B%B%B%B%B%B%B%B%B%;%R%&$7$9$9$;$;$;$;$;$;$<$>$>$?$?$?$?$H$6$W%+%X%4%B%B%B%B%B%B%B%B%B%B%B%B%B%B%B%B%B%B%B%B%B%B%B%B%B%B%B%B%B",
"%B%B%B%B%B%B%B%B%B%B%B%B%B%B%B%B%B%B%B%B%B%B%B%B%B%B%B%B%3%_$~#^#'#@#8#8#8#9#9#9#9#=#=#=#=#=#>#>#>#>#C$z%V%;%B%B%B%B%B%B%B%B%B%B%B%B%B%B%B%B%B%B%B%B%B%B%B%B%B%B%B%B%B%>%J%/$@#r$+$&$&$&$&$&$&$&$&$&$&$&$&$&$&$&$&$&$&$&$&$+#r$@%/%J%>%B%B%B%B%B%B%B%B%B%B%B%B%B%B%B%B%B%B%B%B%>%K$w$5#S$4$5$i$o$@#r$+$&$/$&$+#r$i$o$j$5$4#S$@$y%K%>%B%B%B%B%B%B%B%B%B%B%B%B%B%B%B%B%B%B%B%B%B%B%B%B%B%B%B%B%B%B%B%B%B%B%B%B%B%B%B%B%;%R%&$7$9$;$;$;$;$;$;$<$>$>$?$?$?$?$C$C$H$6$W%+%Z%4%B%B%B%B%B%B%B%B%B%B%B%B%B%B%B%B%B%B%B%B%B%B%B%B%B%B%B%B",
"%B%B%B%B%B%B%B%B%B%B%B%B%B%B%B%B%B%B%B%B%B%B%B%B%B%B%B%3%_$~#^#'#@#8#8#8#9#9#9#9#=#=#=#=#=#>#>#>#C#C#D$z%V%;%B%B%B%B%B%B%B%B%B%B%B%B%B%B%B%B%B%B%B%B%B%B%B%B%B%B%B%B%B%;%W$w#p$-$&$&$&$&$&$&$&$&$&$&$&$&$&$&$&$&$&$&$&$&$&$+#x$4%.%O%>%B%B%B%B%B%B%B%B%B%B%B%B%B%B%B%B%B%B%B%B%J%0$v$v$y%*%/%0%^$t#U$1$+#m$+$1#U$t%^%0%/%,$y$v$v%0%D%B%B%B%B%B%B%B%B%B%B%B%B%B%B%B%B%B%B%B%B%B%B%B%B%B%B%B%B%B%B%B%B%B%B%B%B%B%B%B%B%;%R%&$7$;$;$;$;$;$;$<$>$>$?$?$?$?$?$D$D$D$H$6$W%+%Z%4%B%B%B%B%B%B%B%B%B%B%B%B%B%B%B%B%B%B%B%B%B%B%B%B%B%B%B",
"%B%B%B%B%B%B%B%B%B%B%B%B%B%B%B%B%B%B%B%B%B%B%B%B%B%B%3%_$~#^#'#@#8#8#8#9#9#9#9#=#=#=#=#=#>#>#>#>#C#D#D$z%V%;%B%B%B%B%B%B%B%B%B%B%B%B%B%B%B%B%B%B%B%B%B%B%B%B%B%B%B%B%B%:%^$u#U$1$&$&$&$&$&$&$&$&$&$&$&$&$&$&$&$&$&$&$&$&$&$&$+#r$y%W%;%B%B%B%B%B%B%B%B%B%B%B%B%B%B%B%B%B%B%B%B%B%B%[%^%W%R%K%D%O$o#m$/#x$p#r$1#l$p%R%B%L%Q%W%^%[%B%B%B%B%B%B%B%B%B%B%B%B%B%B%B%B%B%B%B%B%B%B%B%B%B%B%B%B%B%B%B%B%B%B%B%B%B%B%B%B%B%B%;%R%&$9$;$;$;$;$;$<$>$>$?$?$?$?$?$D$D$D$D$D$H$6$W%+%Z%4%B%B%B%B%B%B%B%B%B%B%B%B%B%B%B%B%B%B%B%B%B%B%B%B%B%B",
"%B%B%B%B%B%B%B%B%B%B%B%B%B%B%B%B%B%B%B%B%B%B%B%B%B%3%_$~#^#'#@#8#8#8#9#9#9#9#=#=#=#=#=#>#>#>#>#C#D#D#D$z%V%;%B%B%B%B%B%B%B%B%B%B%B%B%B%B%B%B%B%B%B%B%B%B%B%B%B%B%B%B%B%;%W$t#X$1$&$&$&$&$&$&$&$&$&$&$&$&$&$&$&$&$&$&$&$&$&$&$1#X$v%Z%:%B%B%B%B%B%B%B%B%B%B%B%B%B%B%B%B%B%B%B%B%B%B%;%:%;%;%=%B%5$f#x#U$t%^$t#U#r$l%B%B%>%;%;%:%;%B%B%B%B%B%B%B%B%B%B%B%B%B%B%B%B%B%B%B%B%B%B%B%B%B%B%B%B%B%B%B%B%B%B%B%B%B%B%B%B%B%B%;%R%($9$;$;$;$;$<$>$>$?$?$?$?$?$D$D$D$D$D$D$D$O$A$i%+%Z%4%B%B%B%B%B%B%B%B%B%B%B%B%B%B%B%B%B%B%B%B%B%B%B%B%B",
"%B%B%B%B%B%B%B%B%B%B%B%B%B%B%B%B%B%B%B%B%B%B%B%B%3%_$~#^#'#@#8#8#8#9#9#9#9#=#=#=#=#=#>#>#>#>#C#D#G#G#D$z%V%;%B%B%B%B%B%B%B%B%B%B%B%B%B%B%B%B%B%B%B%B%B%B%B%B%B%B%B%B%B%B%>$f#p$,$&$&$&$&$&$&$&$&$&$&$&$&$&$&$&$&$&$&$&$&$&$&$1#U$u%^%:%B%B%B%B%B%B%B%B%B%B%B%B%B%B%B%B%B%B%B%B%B%B%B%B%B%B%>%L%/$@#S$p%J%J%B$n#S$@%0%J%>%B%B%B%B%B%B%B%B%B%B%B%B%B%B%B%B%B%B%B%B%B%B%B%B%B%B%B%B%B%B%B%B%B%B%B%B%B%B%B%B%B%B%B%B%B%B%;%R%($9$;$;$;$<$>$>$?$?$?$?$?$D$D$D$D$D$D$D$G$G$O$A$i%+%Z%4%B%B%B%B%B%B%B%B%B%B%B%B%B%B%B%B%B%B%B%B%B%B%B%B",
"%B%B%B%B%B%B%B%B%B%B%B%B%B%B%B%B%B%B%B%B%B%B%B%3%_$~#^#'#@#8#8#8#9#9#9#9#=#=#=#=#=#>#>#>#>#C#D#D#G#G#D$z%V%;%B%B%B%B%B%B%B%B%B%B%B%B%B%B%B%B%B%B%B%B%B%B%B%B%B%B%B%B%>%M%/$5#r$+$&$&$&$&$&$&$&$&$&$&$&$&$&$&$&$&$&$&$&$&$&$&$1#X$p%U%;%B%B%B%B%B%B%B%B%B%B%B%B%B%B%B%B%B%B%B%B%B%B%B%B%B%B%>%Q%.#r$@%/%O%5%Q%/$@$,%.%O%>%B%B%B%B%B%B%B%B%B%B%B%B%B%B%B%B%B%B%B%B%B%B%B%B%B%B%B%B%B%B%B%B%B%B%B%B%B%B%B%B%B%B%B%B%B%B%;%R%($9$;$<$<$>$>$?$?$?$?$?$D$D$D$D$D$D$D$G$G$G$G$O$A$i%+%X%4%B%B%B%B%B%B%B%B%B%B%B%B%B%B%B%B%B%B%B%B%B%B%B",
"%B%B%B%B%B%B%B%B%B%B%B%B%B%B%B%B%B%B%B%B%B%B%3%_$~#^#'#@#8#8#8#9#9#9#9#=#=#=#=#=#>#>#>#>#C#D#D#G#G#H#E$z%V%;%B%B%B%B%B%B%B%B%B%B%B%B%B%B%B%B%B%B%B%B%B%B%B%B%B%B%B%B%;%U$}#x$&$&$&$&$&$&$&$&$&$&$&$&$&$&$&$&$&$&$&$&$&$&$&$&$+#p$@%/%J%>%B%B%B%B%B%B%B%B%B%B%B%B%B%B%B%B%B%B%B%B%B%B%B%B%B%;%W$w#p$y%W%:%D%4%[$y#p$y%U%;%B%B%B%B%B%B%B%B%B%B%B%B%B%B%B%B%B%B%B%B%B%B%B%B%B%B%B%B%B%B%B%B%B%B%B%B%B%B%B%B%B%B%B%B%B%B%;%R%($9$<$<$>$>$?$?$?$?$?$D$D$D$D$D$D$D$G$G$G$G$G$G$O$A$i%+%X%4%B%B%B%B%B%B%B%B%B%B%B%B%B%B%B%B%B%B%B%B%B%B",
"%B%B%B%B%B%B%B%B%B%B%B%B%B%B%B%B%B%B%B%B%B%3%_$~#^#'#@#8#8#8#9#9#9#9#=#=#=#=#=#>#>#>#>#C#D#D#G#G#G#H#E$z%V%;%B%B%B%B%B%B%B%B%B%B%B%B%B%B%B%B%B%B%B%B%B%B%B%B%B%B%B%B%:%[$w#l$/$&$&$&$&$&$&$&$&$&$&$&$&$&$&$&$&$&$&$&$&$&$&$&$&$+#p$w%U%;%B%B%B%B%B%B%B%B%B%B%B%B%B%B%B%B%B%B%B%B%B%B%B%B%B%:%Z$v$v%^%:%B%B%B%:%^$u$w%Z%;%B%B%B%B%B%B%B%B%B%B%B%B%B%B%B%B%B%B%B%B%B%B%B%B%B%B%B%B%B%B%B%B%B%B%B%B%B%B%B%B%B%B%B%B%B%B%;%R%($9$<$>$>$?$?$?$?$?$D$D$D$D$D$D$D$G$G$G$G$G$G$G$G$T$A$i%+%X%4%B%B%B%B%B%B%B%B%B%B%B%B%B%B%B%B%B%B%B%B%B",
"%B%B%B%B%B%B%B%B%B%B%B%B%B%B%B%B%B%B%B%B%3%_$~#^#'#@#8#8#8#9#9#9#9#=#=#=#=#=#>#>#>#>#C#D#D#G#G#G#H#H#F$z%V%;%B%B%B%B%B%B%B%B%B%B%B%B%B%B%B%B%B%B%B%B%B%B%B%B%B%B%B%B%:%Z$v#X$1$&$&$&$&$&$&$&$&$&$&$&$&$&$&$&$&$&$&$&$&$&$&$&$&$1#U$u%^%:%B%B%B%B%B%B%B%B%B%B%B%B%B%B%B%B%B%B%B%B%B%B%B%B%B%B%D%/%D%B%B%B%B%B%B%B%D%/%D%B%B%B%B%B%B%B%B%B%B%B%B%B%B%B%B%B%B%B%B%B%B%B%B%B%B%B%B%B%B%B%B%B%B%B%B%B%B%B%B%B%B%B%B%B%B%B%;%R%($9$>$>$?$?$?$?$?$D$D$D$D$D$D$D$G$G$G$G$G$G$G$H$L$L$T$A$i%+%X%4%B%B%B%B%B%B%B%B%B%B%B%B%B%B%B%B%B%B%B%B",
"%B%B%B%B%B%B%B%B%B%B%B%B%B%B%B%B%B%B%B%4%_$~#^#'#@#8#8#8#9#9#9#9#=#=#=#=#=#>#>#>#>#C#D#D#G#G#G#H#H#J#F$z%V%;%B%B%B%B%B%B%B%B%B%B%B%B%B%B%B%B%B%B%B%B%B%B%B%B%B%B%B%B%:%^$u#U$1$&$&$&$&$&$&$&$&$&$&$&$&$&$&$&$&$&$&$&$&$&$&$&$&$,#o$l%D%B%B%B%B%B%B%B%B%B%B%B%B%B%B%B%B%B%B%B%B%B%B%B%B%B%B%B%B%J%>%B%B%B%B%B%B%B%B%J%B%B%B%B%B%B%B%B%B%B%B%B%B%B%B%B%B%B%B%B%B%B%B%B%B%B%B%B%B%B%B%B%B%B%B%B%B%B%B%B%B%B%B%B%B%B%B%B%;%R%($<$>$?$?$?$?$?$D$D$D$D$D$D$D$G$G$G$G$G$G$G$H$L$L$M$M$T$A$i%+%X%:%B%B%B%B%B%B%B%B%B%B%B%B%B%B%B%B%B%B%B",
"%B%B%B%B%B%B%B%B%B%B%B%B%B%B%B%B%B%B%;%_%$#^#'#@#8#8#8#9#9#9#9#=#=#=#=#=#>#>#>#>#C#D#D#G#G#G#H#H#J#J#E$z%V%;%B%B%B%B%B%B%B%B%B%B%B%B%B%B%B%B%B%B%B%B%B%B%B%B%B%B%B%B%:%^$u#S$1$&$&$&$&$&$&$&$&$&$&$&$&$&$&$&$&$&$&$&$&$&$&$&$&$&$+#p$y%U%;%B%B%B%B%B%B%B%B%B%B%B%B%B%B%B%B%B%B%B%B%B%B%B%B%B%B%>%B%B%B%B%B%B%B%B%B%>%B%B%B%B%B%B%B%B%B%B%B%B%B%B%B%B%B%B%B%B%B%B%B%B%B%B%B%B%B%B%B%B%B%B%B%B%B%B%B%B%B%B%B%B%B%B%B%B%;%R%($<$?$?$?$?$?$D$D$D$D$D$D$D$G$G$G$G$G$G$G$H$L$L$M$M$M$M$V$B$j%,%Z%;%B%B%B%B%B%B%B%B%B%B%B%B%B%B%B%B%B%B",
"%B%B%B%B%B%B%B%B%B%B%B%B%B%B%B%B%B%;%Q$x#]#+#@#8#8#8#9#9#9#9#=#=#=#=#=#>#>#>#>#C#D#D#G#G#G#H#H#J#J#K#E$z%V%;%B%B%B%B%B%B%B%B%B%B%B%B%B%B%B%B%B%B%B%B%B%B%B%B%B%B%B%B%:%^$u#S$1$&$&$&$&$&$&$&$&$&$&$&$&$&$&$&$&$&$&$&$&$&$&$&$&$&$1#U$t%^%:%B%B%B%B%B%B%B%B%B%B%B%B%B%B%B%B%B%B%B%B%B%B%B%B%B%B%B%B%B%B%B%B%B%B%B%B%B%B%B%B%B%B%B%B%B%B%B%B%B%B%B%B%B%B%B%B%B%B%B%B%B%B%B%B%B%B%B%B%B%B%B%B%B%B%B%B%B%B%B%B%B%B%B%B%B%;%R%($<$?$?$?$?$D$D$D$D$D$D$D$G$G$G$G$G$G$G$H$L$L$M$M$M$M$N$N$T$B$W$y%Q%;%B%B%B%B%B%B%B%B%B%B%B%B%B%B%B%B%B",
"%B%B%B%B%B%B%B%B%B%B%B%B%B%B%B%B%B%;%Q$x#]#+#@#8#8#9#9#9#9#=#=#=#=#=#>#>#>#>#C#D#D#G#G#G#H#H#J#J#K#K#E$z%V%;%B%B%B%B%B%B%B%B%B%B%B%B%B%B%B%B%B%B%B%B%B%B%B%B%B%B%B%B%:%^$u#S$1$&$&$&$&$&$&$&$&$&$&$&$&$&$&$&$&$&$&$&$&$&$&$&$&$&$+#r$5%/%L%>%B%B%B%B%B%B%B%B%B%B%B%B%B%B%B%B%B%B%B%B%B%B%B%B%B%B%B%B%B%B%B%B%B%B%B%B%B%B%B%B%B%B%B%B%B%B%B%B%B%B%B%B%B%B%B%B%B%B%B%B%B%B%B%B%B%B%B%B%B%B%B%B%B%B%B%B%B%B%B%B%B%B%B%B%;%R%($<$?$?$?$D$D$D$D$D$D$D$G$G$G$G$G$G$G$H$L$L$M$M$M$M$N$N$P$U$B$W$y%Q%;%B%B%B%B%B%B%B%B%B%B%B%B%B%B%B%B%B",
"%B%B%B%B%B%B%B%B%B%B%B%B%B%B%B%B%B%B%;%_%$#^#'#@#9#9#9#9#=#=#=#=#=#>#>#>#>#C#D#D#G#G#G#H#H#J#J#K#K#K#E$z%T%;%B%B%B%B%B%B%B%B%B%B%B%B%B%B%B%B%B%B%B%B%B%B%B%B%B%B%B%B%:%^$u#S$1$&$&$&$&$&$&$&$&$&$&$&$&$&$&$&$&$&$&$&$&$&$&$&$&$&$&$1#U$u%^%:%B%B%B%B%B%B%B%B%B%B%B%B%B%B%B%B%B%B%B%B%B%B%B%B%B%B%B%B%B%B%B%B%B%B%B%B%B%B%B%B%B%B%B%B%B%B%B%B%B%B%B%B%B%B%B%B%B%B%B%B%B%B%B%B%B%B%B%B%B%B%B%B%B%B%B%B%B%B%B%B%B%B%B%B%;%R%($<$?$C$D$D$D$D$D$D$D$G$G$G$G$G$G$G$H$L$L$M$M$M$M$N$N$P$V$B$j%,%Z%;%B%B%B%B%B%B%B%B%B%B%B%B%B%B%B%B%B%B",
"%B%B%B%B%B%B%B%B%B%B%B%B%B%B%B%B%B%B%B%4%_$~#^#'#@#9#9#=#=#=#=#=#>#>#>#>#C#D#D#G#G#G#H#H#J#J#K#K#K#K#I$z%T%;%B%B%B%B%B%B%B%B%B%B%B%B%B%B%B%B%B%B%B%B%B%B%B%B%B%B%B%B%:%^$u#U$1$&$&$&$&$&$&$&$&$&$&$&$&$&$&$&$&$&$&$&$&$&$&$&$&$&$&$+#r$@%/%J%>%B%B%B%B%B%B%B%B%B%B%B%B%B%B%B%B%B%B%B%B%B%B%B%B%B%B%B%B%B%B%B%B%B%B%B%B%B%B%B%B%B%B%B%B%B%B%B%B%B%B%B%B%B%B%B%B%B%B%B%B%B%B%B%B%B%B%B%B%B%B%B%B%B%B%B%B%B%B%B%B%B%B%B%;%R%($<$?$D$D$D$D$D$D$D$G$G$G$G$G$G$G$H$L$L$M$M$M$M$N$N$P$V$B$j%+%X%:%B%B%B%B%B%B%B%B%B%B%B%B%B%B%B%B%B%B%B",
"%B%B%B%B%B%B%B%B%B%B%B%B%B%B%B%B%B%B%B%B%3%_%##^#'#@#<#=#=#=#=#>#>#>#>#C#D#D#G#G#G#H#H#J#J#K#K#K#K#N#I$z%T%;%B%B%B%B%B%B%B%B%B%B%B%B%B%B%B%B%B%B%B%B%B%B%B%B%B%B%B%B%:%Z$v#X$1$&$&$&$&$&$&$&$&$&$&$&$&$&$&$&$&$&$&$&$&$&$&$&$&$&$&$&$1#U$u%^%4%B%B%B%B%B%B%B%B%B%B%B%B%B%B%B%B%B%B%B%B%B%B%B%B%B%B%B%B%B%B%B%B%B%B%B%B%B%B%B%B%B%B%B%B%B%B%B%B%B%B%B%B%B%B%B%B%B%B%B%B%B%B%B%B%B%B%B%B%B%B%B%B%B%B%B%B%B%B%B%B%B%B%B%;%R%($<$D$D$D$D$D$D$D$G$G$G$G$G$G$G$H$L$L$M$M$M$M$N$N$P$V$B$j%+%X%4%B%B%B%B%B%B%B%B%B%B%B%B%B%B%B%B%B%B%B%B",
"%B%B%B%B%B%B%B%B%B%B%B%B%B%B%B%B%B%B%B%B%B%3%_%##^#+#Y#=#=#=#>#>#>#>#C#D#D#G#G#G#H#H#J#J#K#K#K#K#N#N#L${%T%;%B%B%B%B%B%B%B%B%B%B%B%B%B%B%B%B%B%B%B%B%B%B%B%B%B%B%B%B%:%[$w#l$/$&$&$&$&$&$&$&$&$&$&$&$&$&$&$&$&$&$&$&$&$&$&$&$&$&$&$&$+$#$2%.%Q%;%B%B%B%B%B%B%B%B%B%B%B%B%B%B%B%B%B%B%B%B%B%B%B%B%B%B%B%B%B%B%B%B%B%B%B%B%B%B%B%B%B%B%B%B%B%B%B%B%B%B%B%B%B%B%B%B%B%B%B%B%B%B%B%B%B%B%B%B%B%B%B%B%B%B%B%B%B%B%B%B%B%B%;%R%($C$D$D$D$D$D$D$G$G$G$G$G$G$G$H$L$L$M$M$M$M$N$N$P$V$B$j%+%X%4%B%B%B%B%B%B%B%B%B%B%B%B%B%B%B%B%B%B%B%B%B",
"%B%B%B%B%B%B%B%B%B%B%B%B%B%B%B%B%B%B%B%B%B%B%3%_%$#^#+#Y#=#>#>#>#>#C#D#D#G#G#G#H#H#J#J#K#K#K#K#N#N#O#M${%T%;%B%B%B%B%B%B%B%B%B%B%B%B%B%B%B%B%B%B%B%B%B%B%B%B%B%B%B%B%;%U$}#r$&$&$&$&$&$&$&$&$&$&$&$&$&$&$&$&$&$&$&$&$&$&$&$&$&$&$&$&$&$1#U$p%U%;%B%B%B%B%B%B%B%B%B%B%B%B%B%B%B%B%B%B%B%B%B%B%B%B%B%B%B%B%B%B%B%B%B%B%B%B%B%B%B%B%B%B%B%B%B%B%B%B%B%B%B%B%B%B%B%B%B%B%B%B%B%B%B%B%B%B%B%B%B%B%B%B%B%B%B%B%B%B%B%B%B%B%;%R%($C$D$D$D$D$D$G$G$G$G$G$G$G$H$L$L$M$M$M$M$N$N$P$V$B$j%+%X%4%B%B%B%B%B%B%B%B%B%B%B%B%B%B%B%B%B%B%B%B%B%B",
"%B%B%B%B%B%B%B%B%B%B%B%B%B%B%B%B%B%B%B%B%B%B%B%4%]%$#^#+#Y#>#>#>#C#D#D#G#G#G#H#H#J#J#K#K#K#K#N#N#O#O#M${%T%;%B%B%B%B%B%B%B%B%B%B%B%B%B%B%B%B%B%B%B%B%B%B%B%B%B%B%B%B%>%M%.$5#r$+$&$&$&$&$&$&$&$&$&$&$&$&$&$&$&$&$&$&$&$&$&$&$&$&$&$&$&$&$1#U$v%^%4%B%B%B%B%B%B%B%B%B%B%B%B%B%B%B%B%B%B%B%B%B%B%B%B%B%B%B%B%B%B%B%B%B%B%B%B%B%B%B%B%B%B%B%B%B%B%B%B%B%B%B%B%B%B%B%B%B%B%B%B%B%B%B%B%B%B%B%B%B%B%B%B%B%B%B%B%B%B%B%B%B%;%R%($C$D$D$D$D$G$G$G$G$G$G$G$H$L$L$M$M$M$M$N$N$P$V$B$j%+%X%4%B%B%B%B%B%B%B%B%B%B%B%B%B%B%B%B%B%B%B%B%B%B%B",
"%B%B%B%B%B%B%B%B%B%B%B%B%B%B%B%B%B%B%B%B%B%B%B%B%4%]%$#^#0#Y#>#C#D#D#G#G#G#H#H#J#J#K#K#K#K#N#N#O#O#O#M${%T%;%B%B%B%B%B%B%B%B%B%B%B%B%B%B%B%B%B%B%B%B%B%B%B%B%B%B%B%B%B%B%>$f#p$,$&$&$&$&$&$&$&$&$&$&$&$&$&$&$&$&$&$&$&$&$&$&$&$&$&$&$&$&$+#r$4%.%S%:%B%B%B%B%B%B%B%B%B%B%B%B%B%B%B%B%B%B%B%B%B%B%B%B%B%B%B%B%B%B%B%B%B%B%B%B%B%B%B%B%B%B%B%B%B%B%B%B%B%B%B%B%B%B%B%B%B%B%B%B%B%B%B%B%B%B%B%B%B%B%B%B%B%B%B%B%B%B%B%B%;%R%($C$D$D$D$G$G$G$G$G$G$G$H$L$L$M$M$M$M$N$N$P$V$B$j%+%X%4%B%B%B%B%B%B%B%B%B%B%B%B%B%B%B%B%B%B%B%B%B%B%B%B",
"%B%B%B%B%B%B%B%B%B%B%B%B%B%B%B%B%B%B%B%B%B%B%B%B%B%4%]%$#^#0#Y#D#D#G#G#G#H#H#J#J#K#K#K#K#N#N#O#O#O#P#M${%T%;%B%B%B%B%B%B%B%B%B%B%B%B%B%B%B%B%B%B%B%B%B%B%B%B%B%B%B%B%B%;%W$t#X$1$&$&$&$&$&$&$&$&$&$&$&$&$&$&$&$&$&$&$&$&$&$&$&$&$&$&$&$&$&$1#m$l%>%J%;%B%B%B%B%B%B%B%B%B%B%B%B%B%B%B%B%B%B%B%B%B%B%B%B%B%B%B%B%B%B%B%B%B%B%B%B%B%B%B%B%B%B%B%B%B%B%B%B%B%B%B%B%B%B%B%B%B%B%B%B%B%B%B%B%B%B%B%B%B%B%B%B%B%B%B%B%B%B%B%;%R%($C$D$D$G$G$G$G$G$G$G$H$L$L$M$M$M$M$N$N$P$V$B$j%+%X%4%B%B%B%B%B%B%B%B%B%B%B%B%B%B%B%B%B%B%B%B%B%B%B%B%B",
"%B%B%B%B%B%B%B%B%B%B%B%B%B%B%B%B%B%B%B%B%B%B%B%B%B%B%4%]%$#_#0#Y#G#G#G#H#H#J#J#K#K#K#K#N#N#O#O#O#O#P#M${%T%;%B%B%B%B%B%B%B%B%B%B%B%B%B%B%B%B%B%B%B%B%B%B%B%B%B%B%B%B%B%:%^$u#U$1$&$&$&$&$&$&$&$&$&$&$&$&$&$&$&$&$&$&$&$&$&$&$&$&$&$&$&$&$&$&$2#U$t%W%>%>%B%B%B%B%B%B%B%B%B%B%B%B%B%B%B%B%B%B%B%B%B%B%B%B%B%B%B%B%B%B%B%B%B%B%B%B%B%B%B%B%B%B%B%B%B%B%B%B%B%B%B%B%B%B%B%B%B%B%B%B%B%B%B%B%B%B%B%B%B%B%B%B%B%B%B%B%B%B%;%R%($C$D$G$G$G$G$G$G$G$H$L$L$M$M$M$M$N$N$P$V$B$j%+%X%4%B%B%B%B%B%B%B%B%B%B%B%B%B%B%B%B%B%B%B%B%B%B%B%B%B%B",
"%B%B%B%B%B%B%B%B%B%B%B%B%B%B%B%B%B%B%B%B%B%B%B%B%B%B%B%4%]%$#_#0#Y#G#H#H#J#J#K#K#K#K#N#N#O#O#O#O#P#P#M${%T%;%B%B%B%B%B%B%B%B%B%B%B%B%B%B%B%B%B%B%B%B%B%B%B%B%B%B%B%B%B%;%W$w#p$-$&$&$&$&$&$&$&$&$&$&$&$&$&$&$&$&$&$&$&$&$&$&$&$&$&$&$&$&$&$&$&$1#U$u%^%;%>%B%B%B%B%B%B%B%B%B%B%B%B%B%B%B%B%B%B%B%B%B%B%B%B%B%B%B%B%B%B%B%B%B%B%B%B%B%B%B%B%B%B%B%B%B%B%B%B%B%B%B%B%B%B%B%B%B%B%B%B%B%B%B%B%B%B%B%B%B%B%B%B%B%B%B%B%B%;%R%($C$G$G$G$G$G$G$G$H$L$L$M$M$M$M$N$N$P$V$B$j%+%X%4%B%B%B%B%B%B%B%B%B%B%B%B%B%B%B%B%B%B%B%B%B%B%B%B%B%B%B",
"%B%B%B%B%B%B%B%B%B%B%B%B%B%B%B%B%B%B%B%B%B%B%B%B%B%B%B%B%4%]%$#_#0#Y#H#J#J#K#K#K#K#N#N#O#O#O#O#P#P#P#M${%T%;%B%B%B%B%B%B%B%B%B%B%B%B%B%B%B%B%B%B%B%B%B%B%B%B%B%B%B%B%B%>%J%/$@#r$+$&$&$&$&$&$&$&$&$&$&$&$&$&$&$&$&$&$&$&$&$&$&$&$&$&$&$&$&$&$&$&$/#U$u%Z%;%>%B%B%B%B%B%B%B%B%B%B%B%B%B%B%B%B%B%B%B%B%B%B%B%B%B%B%B%B%B%B%B%B%B%B%B%B%B%B%B%B%B%B%B%B%B%B%B%B%B%B%B%B%B%B%B%B%B%B%B%B%B%B%B%B%B%B%B%B%B%B%B%B%B%B%B%B%;%R%($D$G$G$G$G$G$G$H$L$L$M$M$M$M$N$N$P$V$B$j%+%X%4%B%B%B%B%B%B%B%B%B%B%B%B%B%B%B%B%B%B%B%B%B%B%B%B%B%B%B%B",
"%B%B%B%B%B%B%B%B%B%B%B%B%B%B%B%B%B%B%B%B%B%B%B%B%B%B%B%B%B%4%]%$#_#0#Y#J#K#K#K#K#N#N#O#O#O#O#P#P#P#P#M${%T%;%B%B%B%B%B%B%B%B%B%B%B%B%B%B%B%B%B%B%B%B%B%B%B%B%B%B%B%B%B%B%;%W$t#U$1$&$&$&$&$&$&$&$&$&$&$&$&$&$&$&$&$&$&$&$&$&$&$&$&$&$&$&$&$&$&$&$+$/#U$u%[%B%;%B%B%B%B%B%B%B%B%B%B%B%B%B%B%B%B%B%B%B%B%B%B%B%B%B%B%B%B%B%B%B%B%B%B%B%B%B%B%B%B%B%B%B%B%B%B%B%B%B%B%B%B%B%B%B%B%B%B%B%B%B%B%B%B%B%B%B%B%B%B%B%B%B%B%B%;%R%($E$G$G$G$G$G$H$L$L$M$M$M$M$N$N$P$V$B$j%+%X%4%B%B%B%B%B%B%B%B%B%B%B%B%B%B%B%B%B%B%B%B%B%B%B%B%B%B%B%B%B",
"%B%B%B%B%B%B%B%B%B%B%B%B%B%B%B%B%B%B%B%B%B%B%B%B%B%B%B%B%B%B%4%]%$#_#0#N#K#K#K#N#N#O#O#O#O#P#P#P#P#Q#Q${%T%;%B%B%B%B%B%B%B%B%B%B%B%B%B%B%B%B%B%B%B%B%B%B%B%B%B%B%B%B%B%B%:%Z$v#U$1$&$&$&$&$&$&$&$&$&$&$&$&$&$&$&$&$&$&$&$&$&$&$&$&$&$&$&$&$&$&$&$&$+$/#U$t%O%O%:%B%B%B%B%B%B%B%B%B%B%B%B%B%B%B%B%B%B%B%B%B%B%B%B%B%B%B%B%B%B%B%B%B%B%B%B%B%B%B%B%B%B%B%B%B%B%B%B%B%B%B%B%B%B%B%B%B%B%B%B%B%B%B%B%B%B%B%B%B%B%B%B%B%B%;%R%($E$G$G$G$G$H$L$L$M$M$M$M$N$N$P$V$B$j%+%X%4%B%B%B%B%B%B%B%B%B%B%B%B%B%B%B%B%B%B%B%B%B%B%B%B%B%B%B%B%B%B",
"%B%B%B%B%B%B%B%B%B%B%B%B%B%B%B%B%B%B%B%B%B%B%B%B%B%B%B%B%B%B%B%4%]%$#_#0#N#K#N#N#O#O#O#O#P#P#P#P#Q#Q#Q${%T%;%B%B%B%B%B%B%B%B%B%B%B%B%B%B%B%B%B%B%B%B%B%B%B%B%B%B%B%B%B%B%>%N%/$5#r$+$&$&$&$&$&$&$&$&$&$&$&$&$&$&$&$&$&$&$&$&$&$&$&$&$&$&$&$&$&$&$&$&$&$1#U$p%/%[%4%>%B%B%B%B%B%B%B%B%B%B%B%B%B%B%B%B%B%B%B%B%B%B%B%B%B%B%B%B%B%B%B%B%B%B%B%B%B%B%B%B%B%B%B%B%B%B%B%B%B%B%B%B%B%B%B%B%B%B%B%B%B%B%B%B%B%B%B%B%B%B%B%B%;%R%($E$G$G$G$H$L$L$M$M$M$M$N$N$P$V$B$j%+%X%4%B%B%B%B%B%B%B%B%B%B%B%B%B%B%B%B%B%B%B%B%B%B%B%B%B%B%B%B%B%B%B",
"%B%B%B%B%B%B%B%B%B%B%B%B%B%B%B%B%B%B%B%B%B%B%B%B%B%B%B%B%B%B%B%B%4%]%$#_#0#_#N#O#O#O#O#P#P#P#P#Q#Z#Z#Q${%T%;%B%B%B%B%B%B%B%B%B%B%B%B%B%B%B%B%B%B%B%B%B%B%B%B%B%B%B%B%B%B%B%:%W$t#U$1$&$&$&$&$&$&$&$&$&$&$&$&$&$&$&$&$&$&$&$&$&$&$&$&$&$&$&$&$&$&$&$&$&$&$2#U$@$w%^%J%:%B%B%B%B%B%B%B%B%B%B%B%B%B%B%B%B%B%B%B%B%B%B%B%B%B%B%B%B%B%B%B%B%B%B%B%>%;%B%B%B%B%B%B%B%B%B%B%B%B%B%B%B%B%B%B%B%B%B%B%B%B%B%B%B%B%B%B%B%B%B%B%;%R%($E$G$G$H$L$L$M$M$M$M$N$N$P$V$B$j%+%X%4%B%B%B%B%B%B%B%B%B%B%B%B%B%B%B%B%B%B%B%B%B%B%B%B%B%B%B%B%B%B%B%B",
"%B%B%B%B%B%B%B%B%B%B%B%B%B%B%B%B%B%B%B%B%B%B%B%B%B%B%B%B%B%B%B%B%B%4%]%$#_#0#Z#O#O#O#P#P#P#P#Q#Q#Z#Z#Q${%T%;%B%B%B%B%B%B%B%B%B%B%B%B%B%B%B%B%B%B%B%B%B%B%B%B%B%B%B%B%B%B%B%:%W$w#m$/$&$&$&$&$&$&$&$&$&$&$&$&$&$&$&$&$&$&$&$&$&$&$&$&$&$&$&$&$&$&$&$&$&$&$&$1#p#p$u%1%Z%<%:%B%B%B%B%B%B%B%B%B%B%B%B%B%B%B%B%B%B%B%B%B%B%B%B%B%B%B%B%B%B%B%B%:%D%S%B%B%B%B%B%B%B%B%B%B%B%B%B%B%B%B%B%B%B%B%B%B%B%B%B%B%B%B%B%B%B%B%B%B%;%R%($E$G$H$L$L$M$M$M$M$N$N$P$V$B$j%+%X%4%B%B%B%B%B%B%B%B%B%B%B%B%B%B%B%B%B%B%B%B%B%B%B%B%B%B%B%B%B%B%B%B%B",
"%B%B%B%B%B%B%B%B%B%B%B%B%B%B%B%B%B%B%B%B%B%B%B%B%B%B%B%B%B%B%B%B%B%B%4%]%$$)#0#Z#O#P#P#P#P#Q#Q#Z#Z#Z#[${%T%;%B%B%B%B%B%B%B%B%B%B%B%B%B%B%B%B%B%B%B%B%B%B%B%B%B%B%B%B%B%B%B%B%B%D$l#o$,$&$&$&$&$&$&$&$&$&$&$&$&$&$&$&$&$&$&$&$&$&$&$&$&$&$&$&$&$&$&$&$&$&$&$&$/$+#U$i$v%Q%[%>%:%>%B%B%B%B%B%B%B%B%B%B%B%B%B%B%B%B%B%B%B%B%B%B%B%B%B%B%>%:%>%Z%>$y%>%B%B%B%B%B%B%B%B%B%B%B%B%B%B%B%B%B%B%B%B%B%B%B%B%B%B%B%B%B%B%B%B%B%;%R%($E$H$L$L$M$M$M$M$N$N$P$V$B$j%+%X%4%B%B%B%B%B%B%B%B%B%B%B%B%B%B%B%B%B%B%B%B%B%B%B%B%B%B%B%B%B%B%B%B%B%B",
"%B%B%B%B%B%B%B%B%B%B%B%B%B%B%B%B%B%B%B%B%B%B%B%B%B%B%B%B%B%B%B%B%B%B%B%4%]%$$)#0#Z#P#P#P#Q#Q#Z#Z#Z#[#[${%T%;%B%B%B%B%B%B%B%B%B%B%B%B%B%B%B%B%B%B%B%B%B%B%B%B%B%B%B%B%B%B%B%B%:%Z$v#U$1$&$&$&$&$&$&$&$&$&$&$&$&$&$&$&$&$&$&$&$&$&$&$&$&$&$&$&$&$&$&$&$&$&$&$&$&$&$1#p#X$o$w%Q%Z%J%:%;%>%B%B%B%B%B%B%B%B%B%B%B%B%B%B%B%B%B%B%B%B%>%;%:%J%Z%L$w$f$u%W%:%B%B%B%B%B%B%B%B%B%B%B%B%B%B%B%B%B%B%B%B%B%B%B%B%B%B%B%B%B%B%B%B%;%R%($G$L$L$M$M$M$M$N$N$P$V$B$j%+%X%4%B%B%B%B%B%B%B%B%B%B%B%B%B%B%B%B%B%B%B%B%B%B%B%B%B%B%B%B%B%B%B%B%B%B%B",
"%B%B%B%B%B%B%B%B%B%B%B%B%B%B%B%B%B%B%B%B%B%B%B%B%B%B%B%B%B%B%B%B%B%B%B%B%4%]%$$)#0#Z#P#Q#Q#Z#Z#Z#[#[#[${%T%;%B%B%B%B%B%B%B%B%B%B%B%B%B%B%B%B%B%B%B%B%B%B%B%B%B%B%B%B%B%B%B%B%B%D%4$j#p$/$&$&$&$&$&$&$&$&$&$&$&$&$&$&$&$&$&$&$&$&$&$&$&$&$&$&$&$&$&$&$&$&$&$&$&$&$&$/$/#l#o$o$v%0%Z%W%D%:%:%;%>%B%B%B%B%B%B%B%B%B%B%B%B%>%;%:%:%J%W%Z%0$v$n#S$@%;%J%>%B%B%B%B%B%B%B%B%B%B%B%B%B%B%B%B%B%B%B%B%B%B%B%B%B%B%B%B%B%B%B%B%;%R%*$G$L$M$M$M$M$N$N$P$V$B$j%+%X%4%B%B%B%B%B%B%B%B%B%B%B%B%B%B%B%B%B%B%B%B%B%B%B%B%B%B%B%B%B%B%B%B%B%B%B%B",
"%B%B%B%B%B%B%B%B%B%B%B%B%B%B%B%B%B%B%B%B%B%B%B%B%B%B%B%B%B%B%B%B%B%B%B%B%B%4%]%$$)#0#Z#Q#Z#Z#Z#[#[#[#[${%T%;%B%B%B%B%B%B%B%B%B%B%B%B%B%B%B%B%B%B%B%B%B%B%B%B%B%B%B%B%B%B%B%B%B%:%Z$v#U$1$&$&$&$&$&$&$&$&$&$&$&$&$&$&$&$&$&$&$&$&$&$&$&$&$&$&$&$&$&$&$&$&$&$&$&$&$&$&$&$/$/#l#X$i$u$y%4%Z%Z%S%J%>%;%:%:%:%:%:%:%:%:%;%>%J%U%Z%Z%0$w$t$@#U#p#X$v%Z%:%B%B%B%B%B%B%B%B%B%B%B%B%B%B%B%B%B%B%B%B%B%B%B%B%B%B%B%B%B%B%B%B%B%;%R%+$L$M$M$M$M$N$N$P$V$B$j%+%X%4%B%B%B%B%B%B%B%B%B%B%B%B%B%B%B%B%B%B%B%B%B%B%B%B%B%B%B%B%B%B%B%B%B%B%B%B%B",
"%B%B%B%B%B%B%B%B%B%B%B%B%B%B%B%B%B%B%B%B%B%B%B%B%B%B%B%B%B%B%B%B%B%B%B%B%B%B%4%]%$$)#B#`#Z#Z#[#[#[#[#[$|%T%;%B%B%B%B%B%B%B%B%B%B%B%B%B%B%B%B%B%B%B%B%B%B%B%B%B%B%B%B%B%B%B%B%B%B%B%D$l#o$/$&$&$&$&$&$&$&$&$&$&$&$&$&$&$&$&$&$&$&$&$&$&$&$&$&$&$&$&$&$&$&$&$&$&$&$&$&$&$&$&$/$1#p#U#p$j$t$v%'%/%K%[%Z%^%^%Z%Z%^%^%Z%[%J%/$}$v$t$i#p#U#p$4#p$l%D%B%B%B%B%B%B%B%B%B%B%B%B%B%B%B%B%B%B%B%B%B%B%B%B%B%B%B%B%B%B%B%B%B%B%B%;%R%+$M$M$M$M$N$N$P$V$B$j%+%X%4%B%B%B%B%B%B%B%B%B%B%B%B%B%B%B%B%B%B%B%B%B%B%B%B%B%B%B%B%B%B%B%B%B%B%B%B%B%B",
"%B%B%B%B%B%B%B%B%B%B%B%B%B%B%B%B%B%B%B%B%B%B%B%B%B%B%B%B%B%B%B%B%B%B%B%B%B%B%B%4%]%%$)#B#`#[#[#[#[#[#V${%T%;%B%B%B%B%B%B%B%B%B%B%B%B%B%B%B%B%B%B%B%B%B%B%B%B%B%B%B%B%B%B%B%B%B%B%:%W$w#o$/$&$&$&$&$&$&$&$&$&$&$&$&$&$&$&$&$&$&$&$&$&$&$&$&$&$&$&$&$&$&$&$&$&$&$&$&$&$&$&$&$&$&$+$1$+#p#U#U#x$@$n$t$u$u$v$v$v$v$u$u$t$l$@#r#U#U#p$+$1$+$/#o$w%W%:%B%B%B%B%B%B%B%B%B%B%B%B%B%B%B%B%B%B%B%B%B%B%B%B%B%B%B%B%B%B%B%B%B%B%;%R%+$M$M$M$N$N$P$V$B$j%+%X%4%B%B%B%B%B%B%B%B%B%B%B%B%B%B%B%B%B%B%B%B%B%B%B%B%B%B%B%B%B%B%B%B%B%B%B%B%B%B%B",
"%B%B%B%B%B%B%B%B%B%B%B%B%B%B%B%B%B%B%B%B%B%B%B%B%B%B%B%B%B%B%B%B%B%B%B%B%B%B%B%B%4%]%%$)#B#`#[#[#[#`#V${%T%;%B%B%B%B%B%B%B%B%B%B%B%B%B%B%B%B%B%B%B%B%B%B%B%B%B%B%B%B%B%B%B%B%B%B%B%;%Z$t#U$2$&$&$&$&$&$&$&$&$&$&$&$&$&$&$&$&$&$&$&$&$&$&$&$&$&$&$&$&$&$&$&$&$&$&$&$&$&$&$&$&$&$&$&$&$+$1$1$&#r#m#X#U#S#U#U#U#U#S#U#X#m#r$&$1$1$+$&$&$2#U$t%Z%;%B%B%B%B%B%B%B%B%B%B%B%B%B%B%B%B%B%B%B%B%B%B%B%B%B%B%B%B%B%B%B%B%B%B%B%;%R%+$M$M$N$N$P$V$B$j%+%X%4%B%B%B%B%B%B%B%B%B%B%B%B%B%B%B%B%B%B%B%B%B%B%B%B%B%B%B%B%B%B%B%B%B%B%B%B%B%B%B%B",
"%B%B%B%B%B%B%B%B%B%B%B%B%B%B%B%B%B%B%B%B%B%B%B%B%B%B%B%B%B%B%B%B%B%B%B%B%B%B%B%B%B%4%]%%$)#B#`#[#`#`#V${%T%;%B%B%B%B%B%B%B%B%B%B%B%B%B%B%B%B%B%B%B%B%B%B%B%B%B%B%B%B%B%B%B%B%B%B%B%>%K%/$@#p$/$&$&$&$&$&$&$&$&$&$&$&$&$&$&$&$&$&$&$&$&$&$&$&$&$&$&$&$&$&$&$&$&$&$&$&$&$&$&$&$&$&$&$&$&$&$&$&$+$/$1$1$1$1$1$1$1$1$1$1$/$+$&$&$&$&$&$/#p$@%/%K%>%B%B%B%B%B%B%B%B%B%B%B%B%B%B%B%B%B%B%B%B%B%B%B%B%B%B%B%B%B%B%B%B%B%B%B%;%R%)$M$N$N$P$V$B$j%+%X%4%B%B%B%B%B%B%B%B%B%B%B%B%B%B%B%B%B%B%B%B%B%B%B%B%B%B%B%B%B%B%B%B%B%B%B%B%B%B%B%B%B",
"%B%B%B%B%B%B%B%B%B%B%B%B%B%B%B%B%B%B%B%B%B%B%B%B%B%B%B%B%B%B%B%B%B%B%B%B%B%B%B%B%B%B%4%]%%$)#B#`#`#`#`${%T%;%B%B%B%B%B%B%B%B%B%B%B%B%B%B%B%B%B%B%B%B%B%B%B%B%B%B%B%B%B%B%B%B%B%B%B%B%:%Z$w#m$-$&$&$&$&$&$&$&$&$&$&$&$&$&$&$&$&$&$&$&$&$&$&$&$&$&$&$&$&$&$&$&$&$&$&$&$&$&$&$&$&$&$&$&$&$&$&$&$&$&$&$&$&$&$&$&$&$&$&$&$&$&$&$&$&$&$&$-#o$w%Z%:%B%B%B%B%B%B%B%B%B%B%B%B%B%B%B%B%B%B%B%B%B%B%B%B%B%B%B%B%B%B%B%B%B%B%B%B%;%R%)$M$N$P$V$B$j%+%X%4%B%B%B%B%B%B%B%B%B%B%B%B%B%B%B%B%B%B%B%B%B%B%B%B%B%B%B%B%B%B%B%B%B%B%B%B%B%B%B%B%B%B",
"%B%B%B%B%B%B%B%B%B%B%B%B%B%B%B%B%B%B%B%B%B%B%B%B%B%B%B%B%B%B%B%B%B%B%B%B%B%B%B%B%B%B%B%4%]%%$)#B#c#`#`$|%T%;%B%B%B%B%B%B%B%B%B%B%B%B%B%B%B%B%B%B%B%B%B%B%B%B%B%B%B%B%B%B%B%B%B%B%B%B%B%:%Z$u#S$2$&$&$&$&$&$&$&$&$&$&$&$&$&$&$&$&$&$&$&$&$&$&$&$&$&$&$&$&$&$&$&$&$&$&$&$&$&$&$&$&$&$&$&$&$&$&$&$&$&$&$&$&$&$&$&$&$&$&$&$&$&$&$&$&$2#S$u%Z%:%B%B%B%B%B%B%B%B%B%B%B%B%B%B%B%B%B%B%B%B%B%B%B%B%B%B%B%B%B%B%B%B%B%B%B%B%B%;%R%+$M$P$V$B$j%+%X%4%B%B%B%B%B%B%B%B%B%B%B%B%B%B%B%B%B%B%B%B%B%B%B%B%B%B%B%B%B%B%B%B%B%B%B%B%B%B%B%B%B%B%B",
"%B%B%B%B%B%B%B%B%B%B%B%B%B%B%B%B%B%B%B%B%B%B%B%B%B%B%B%B%B%B%B%B%B%B%B%B%B%B%B%B%B%B%B%B%4%]%%$)#B#c#`$|%T%;%B%B%B%B%B%B%B%B%B%B%B%B%B%B%B%B%B%B%B%B%B%B%B%B%B%B%B%B%B%B%B%B%B%B%B%B%B%B%>%Q$p#U$2$&$&$&$&$&$&$&$&$&$&$&$&$&$&$&$&$&$&$&$&$&$&$&$&$&$&$&$&$&$&$&$&$&$&$&$&$&$&$&$&$&$&$&$&$&$&$&$&$&$&$&$&$&$&$&$&$&$&$&$&$&$&$2#U$p%Q%>%B%B%B%B%B%B%B%B%B%B%B%B%B%B%B%B%B%B%B%B%B%B%B%B%B%B%B%B%B%B%B%B%B%B%B%B%B%B%;%R%+$P$V$B$j%+%X%4%B%B%B%B%B%B%B%B%B%B%B%B%B%B%B%B%B%B%B%B%B%B%B%B%B%B%B%B%B%B%B%B%B%B%B%B%B%B%B%B%B%B%B%B",
"%B%B%B%B%B%B%B%B%B%B%B%B%B%B%B%B%B%B%B%B%B%B%B%B%B%B%B%B%B%B%B%B%B%B%B%B%B%B%B%B%B%B%B%B%B%4%]%%$)#B#`$|%T%;%B%B%B%B%B%B%B%B%B%B%B%B%B%B%B%B%B%B%B%B%B%B%B%B%B%B%B%B%B%B%B%B%B%B%B%B%B%B%=%J%0$l#l$2$&$&$&$&$&$&$&$&$&$&$&$&$&$&$&$&$&$&$&$&$&$&$&$&$&$&$&$&$&$&$&$&$&$&$&$&$&$&$&$&$&$&$&$&$&$&$&$&$&$&$&$&$&$&$&$&$&$&$&$&$2#l$l%0%J%=%B%B%B%B%B%B%B%B%B%B%B%B%B%B%B%B%B%B%B%B%B%B%B%B%B%B%B%B%B%B%B%B%B%B%B%B%B%B%=%R%+$U$B$j%+%X%4%B%B%B%B%B%B%B%B%B%B%B%B%B%B%B%B%B%B%B%B%B%B%B%B%B%B%B%B%B%B%B%B%B%B%B%B%B%B%B%B%B%B%B%B%B",
"%B%B%B%B%B%B%B%B%B%B%B%B%B%B%B%B%B%B%B%B%B%B%B%B%B%B%B%B%B%B%B%B%B%B%B%B%B%B%B%B%B%B%B%B%B%B%4%]%%$)#B%%%T%;%B%B%B%B%B%B%B%B%B%B%B%B%B%B%B%B%B%B%B%B%B%B%B%B%B%B%B%B%B%B%B%B%B%B%B%B%B%B%B%:%Q%.$@#m$2$&$&$&$&$&$&$&$&$&$&$&$&$&$&$&$&$&$&$&$&$&$&$&$&$&$&$&$&$&$&$&$&$&$&$&$&$&$&$&$&$&$&$&$&$&$&$&$&$&$&$&$&$&$&$&$&$&$&$2#m$@%.%Q%:%B%B%B%B%B%B%B%B%B%B%B%B%B%B%B%B%B%B%B%B%B%B%B%B%B%B%B%B%B%B%B%B%B%B%B%B%B%B%B%=%R%-$B$j%-%X%4%B%B%B%B%B%B%B%B%B%B%B%B%B%B%B%B%B%B%B%B%B%B%B%B%B%B%B%B%B%B%B%B%B%B%B%B%B%B%B%B%B%B%B%B%B%B",
"%B%B%B%B%B%B%B%B%B%B%B%B%B%B%B%B%B%B%B%B%B%B%B%B%B%B%B%B%B%B%B%B%B%B%B%B%B%B%B%B%B%B%B%B%B%B%B%4%]%%$)$x%V%;%B%B%B%B%B%B%B%B%B%B%B%B%B%B%B%B%B%B%B%B%B%B%B%B%B%B%B%B%B%B%B%B%B%B%B%B%B%B%B%B%:%U%.$@#m$2$&$&$&$&$&$&$&$&$&$&$&$&$&$&$&$&$&$&$&$&$&$&$&$&$&$&$&$&$&$&$&$&$&$&$&$&$&$&$&$&$&$&$&$&$&$&$&$&$&$&$&$&$&$&$&$&$2#m$@%.%U%:%B%B%B%B%B%B%B%B%B%B%B%B%B%B%B%B%B%B%B%B%B%B%B%B%B%B%B%B%B%B%B%B%B%B%B%B%B%B%B%B%=%R$y$j%+%X%4%B%B%B%B%B%B%B%B%B%B%B%B%B%B%B%B%B%B%B%B%B%B%B%B%B%B%B%B%B%B%B%B%B%B%B%B%B%B%B%B%B%B%B%B%B%B%B",
"%B%B%B%B%B%B%B%B%B%B%B%B%B%B%B%B%B%B%B%B%B%B%B%B%B%B%B%B%B%B%B%B%B%B%B%B%B%B%B%B%B%B%B%B%B%B%B%B%4%_$x%.%W%:%B%B%B%B%B%B%B%B%B%B%B%B%B%B%B%B%B%B%B%B%B%B%B%B%B%B%B%B%B%B%B%B%B%B%B%B%B%B%B%B%B%4%U%.$@#l$2$&$&$&$&$&$&$&$&$&$&$&$&$&$&$&$&$&$&$&$&$&$&$&$&$&$&$&$&$&$&$&$&$&$&$&$&$&$&$&$&$&$&$&$&$&$&$&$&$&$&$&$&$&$&$2#l$@%.%U%4%B%B%B%B%B%B%B%B%B%B%B%B%B%B%B%B%B%B%B%B%B%B%B%B%B%B%B%B%B%B%B%B%B%B%B%B%B%B%B%B%B%=%U%.$y%Z%4%B%B%B%B%B%B%B%B%B%B%B%B%B%B%B%B%B%B%B%B%B%B%B%B%B%B%B%B%B%B%B%B%B%B%B%B%B%B%B%B%B%B%B%B%B%B%B%B",
"%B%B%B%B%B%B%B%B%B%B%B%B%B%B%B%B%B%B%B%B%B%B%B%B%B%B%B%B%B%B%B%B%B%B%B%B%B%B%B%B%B%B%B%B%B%B%B%B%B%=%L$u%/%T%:%B%B%B%B%B%B%B%B%B%B%B%B%B%B%B%B%B%B%B%B%B%B%B%B%B%B%B%B%B%B%B%B%B%B%B%B%B%B%B%B%B%:%U%.$l#U$2$&$&$&$&$&$&$&$&$&$&$&$&$&$&$&$&$&$&$&$&$&$&$&$&$&$&$&$&$&$&$&$&$&$&$&$&$&$&$&$&$&$&$&$&$&$&$&$&$&$&$&$&$2#U$l%.%U%:%B%B%B%B%B%B%B%B%B%B%B%B%B%B%B%B%B%B%B%B%B%B%B%B%B%B%B%B%B%B%B%B%B%B%B%B%B%B%B%B%B%:%Q%/$u%K%>%B%B%B%B%B%B%B%B%B%B%B%B%B%B%B%B%B%B%B%B%B%B%B%B%B%B%B%B%B%B%B%B%B%B%B%B%B%B%B%B%B%B%B%B%B%B%B%B%B",
"%B%B%B%B%B%B%B%B%B%B%B%B%B%B%B%B%B%B%B%B%B%B%B%B%B%B%B%B%B%B%B%B%B%B%B%B%B%B%B%B%B%B%B%B%B%B%B%B%B%>%Q$e$e%4%P%:%B%B%B%B%B%B%B%B%B%B%B%B%B%B%B%B%B%B%B%B%B%B%B%B%B%B%B%B%B%B%B%B%B%B%B%B%B%B%B%B%B%:%Q%0$p#S$+$/$&$&$&$&$&$&$&$&$&$&$&$&$&$&$&$&$&$&$&$&$&$&$&$&$&$&$&$&$&$&$&$&$&$&$&$&$&$&$&$&$&$&$&$&$&$&$&$&$/$+#S$p%0%Q%:%B%B%B%B%B%B%B%B%B%B%B%B%B%B%B%B%B%B%B%B%B%B%B%B%B%B%B%B%B%B%B%B%B%B%B%B%B%B%B%B%B%:%K%;$o$o%N%>%B%B%B%B%B%B%B%B%B%B%B%B%B%B%B%B%B%B%B%B%B%B%B%B%B%B%B%B%B%B%B%B%B%B%B%B%B%B%B%B%B%B%B%B%B%B%B%B%B",
"%B%B%B%B%B%B%B%B%B%B%B%B%B%B%B%B%B%B%B%B%B%B%B%B%B%B%B%B%B%B%B%B%B%B%B%B%B%B%B%B%B%B%B%B%B%B%B%B%B%>%P$h#B$h%1%P%:%B%B%B%B%B%B%B%B%B%B%B%B%B%B%B%B%B%B%B%B%B%B%B%B%B%B%B%B%B%B%B%B%B%B%B%B%B%B%B%B%B%:%J%Q$u#m#p$2$&$&$&$&$&$&$&$&$&$&$&$&$&$&$&$&$&$&$&$&$&$&$&$&$&$&$&$&$&$&$&$&$&$&$&$&$&$&$&$&$&$&$&$&$&$&$2#p#m$u%Q%J%:%B%B%B%B%B%B%B%B%B%B%B%B%B%B%B%B%B%B%B%B%B%B%B%B%B%B%B%B%B%B%B%B%B%B%B%B%B%B%B%B%B%:%K%5$r$'$s%K%>%B%B%B%B%B%B%B%B%B%B%B%B%B%B%B%B%B%B%B%B%B%B%B%B%B%B%B%B%B%B%B%B%B%B%B%B%B%B%B%B%B%B%B%B%B%B%B%B%B",
"%B%B%B%B%B%B%B%B%B%B%B%B%B%B%B%B%B%B%B%B%B%B%B%B%B%B%B%B%B%B%B%B%B%B%B%B%B%B%B%B%B%B%B%B%B%B%B%B%B%>%P$g#V#B$g%1%P%:%B%B%B%B%B%B%B%B%B%B%B%B%B%B%B%B%B%B%B%B%B%B%B%B%B%B%B%B%B%B%B%B%B%B%B%B%B%B%B%B%B%=%>%Z$w$@#U$,$/$&$&$&$&$&$&$&$&$&$&$&$&$&$&$&$&$&$&$&$&$&$&$&$&$&$&$&$&$&$&$&$&$&$&$&$&$&$&$&$&$&$&$/$,#U$@$w%Z%>%=%B%B%B%B%B%B%B%B%B%B%B%B%B%B%B%B%B%B%B%B%B%B%B%B%B%B%B%B%B%B%B%B%B%B%B%B%B%B%B%B%B%:%K%5$q$A$B$q%K%>%B%B%B%B%B%B%B%B%B%B%B%B%B%B%B%B%B%B%B%B%B%B%B%B%B%B%B%B%B%B%B%B%B%B%B%B%B%B%B%B%B%B%B%B%B%B%B%B%B",
"%B%B%B%B%B%B%B%B%B%B%B%B%B%B%B%B%B%B%B%B%B%B%B%B%B%B%B%B%B%B%B%B%B%B%B%B%B%B%B%B%B%B%B%B%B%B%B%B%B%>%P$h#B$(#B$g%1%P%:%B%B%B%B%B%B%B%B%B%B%B%B%B%B%B%B%B%B%B%B%B%B%B%B%B%B%B%B%B%B%B%B%B%B%B%B%B%B%B%B%B%>%:%[%/$t#o#o$1$,$&$&$&$&$&$&$&$&$&$&$&$&$&$&$&$&$&$&$&$&$&$&$&$&$&$&$&$&$&$&$&$&$&$&$&$&$&$&$,$1#o#o$t%/%[%:%>%B%B%B%B%B%B%B%B%B%B%B%B%B%B%B%B%B%B%B%B%B%B%B%B%B%B%B%B%B%B%B%B%B%B%B%B%B%B%B%B%B%:%K%5$q$'$i$A$q%K%>%B%B%B%B%B%B%B%B%B%B%B%B%B%B%B%B%B%B%B%B%B%B%B%B%B%B%B%B%B%B%B%B%B%B%B%B%B%B%B%B%B%B%B%B%B%B%B%B%B",
"%B%B%B%B%B%B%B%B%B%B%B%B%B%B%B%B%B%B%B%B%B%B%B%B%B%B%B%B%B%B%B%B%B%B%B%B%B%B%B%B%B%B%B%B%B%B%B%B%B%>%P$h#B#a#g#R$g%1%P%:%B%B%B%B%B%B%B%B%B%B%B%B%B%B%B%B%B%B%B%B%B%B%B%B%B%B%B%B%B%B%B%B%B%B%B%B%B%B%B%B%B%B%:%K%[$w$l#U#p$1$/$&$&$&$&$&$&$&$&$&$&$&$&$&$&$&$&$&$&$&$&$&$&$&$&$&$&$&$&$&$&$&$&$&$&$/$1#p#U$l$w%[%K%:%B%B%B%B%B%B%B%B%B%B%B%B%B%B%B%B%B%B%B%B%B%B%B%B%B%B%B%B%B%B%B%B%B%B%B%B%B%B%B%B%B%B%:%K%5$q$'$W$V$A$q%K%>%B%B%B%B%B%B%B%B%B%B%B%B%B%B%B%B%B%B%B%B%B%B%B%B%B%B%B%B%B%B%B%B%B%B%B%B%B%B%B%B%B%B%B%B%B%B%B%B%B",
"%B%B%B%B%B%B%B%B%B%B%B%B%B%B%B%B%B%B%B%B%B%B%B%B%B%B%B%B%B%B%B%B%B%B%B%B%B%B%B%B%B%B%B%B%B%B%B%B%B%>%P$h#B#a#a#g#R$g%2%P%:%B%B%B%B%B%B%B%B%B%B%B%B%B%B%B%B%B%B%B%B%B%B%B%B%B%B%B%B%B%B%B%B%B%B%B%B%B%B%B%B%B%B%>%:%[%J$v$j#U#o$/$1$+$&$&$&$&$&$&$&$&$&$&$&$&$&$&$&$&$&$&$&$&$&$&$&$&$&$&$&$&$+$1$/#o#U$j$v%J%[%:%>%B%B%B%B%B%B%B%B%B%B%B%B%B%B%B%B%B%B%B%B%B%B%B%B%B%B%B%B%B%B%B%B%B%B%B%B%B%B%B%B%B%B%:%K%5$q$'$W$Q$V$A$q%K%>%B%B%B%B%B%B%B%B%B%B%B%B%B%B%B%B%B%B%B%B%B%B%B%B%B%B%B%B%B%B%B%B%B%B%B%B%B%B%B%B%B%B%B%B%B%B%B%B%B",
"%B%B%B%B%B%B%B%B%B%B%B%B%B%B%B%B%B%B%B%B%B%B%B%B%B%B%B%B%B%B%B%B%B%B%B%B%B%B%B%B%B%B%B%B%B%B%B%B%B%>%P$h#R#a#a#a#g#R$g%1%O%:%B%B%B%B%B%B%B%B%B%B%B%B%B%B%B%B%B%B%B%B%B%B%B%B%B%B%B%B%B%B%B%B%B%B%B%B%B%B%B%B%B%B%B%:%B%Z%2$v$l#m#U#r$1$1$+$&$&$&$&$&$&$&$&$&$&$&$&$&$&$&$&$&$&$&$&$&$&$+$1$1#r#U#m$l$v%2%Z%B%:%B%B%B%B%B%B%B%B%B%B%B%B%B%B%B%B%B%B%B%B%B%B%B%B%B%B%B%B%B%B%B%B%B%B%B%B%B%B%B%B%B%B%B%:%K%5$q$'$W$Q$R$Y$A$q%K%>%B%B%B%B%B%B%B%B%B%B%B%B%B%B%B%B%B%B%B%B%B%B%B%B%B%B%B%B%B%B%B%B%B%B%B%B%B%B%B%B%B%B%B%B%B%B%B%B%B",
"%B%B%B%B%B%B%B%B%B%B%B%B%B%B%B%B%B%B%B%B%B%B%B%B%B%B%B%B%B%B%B%B%B%B%B%B%B%B%B%B%B%B%B%B%B%B%B%B%B%>%P$h#R#a#a#a#a#g#R$g%1%P%:%B%B%B%B%B%B%B%B%B%B%B%B%B%B%B%B%B%B%B%B%B%B%B%B%B%B%B%B%B%B%B%B%B%B%B%B%B%B%B%B%B%B%B%B%:%D%Z%D$w$t$5#U#X#r$+$1$1$/$+$&$&$&$&$&$&$&$&$&$&$&$&$+$/$1$1$+#r#X#U$5$t$w%D%Z%D%:%B%B%B%B%B%B%B%B%B%B%B%B%B%B%B%B%B%B%B%B%B%B%B%B%B%B%B%B%B%B%B%B%B%B%B%B%B%B%B%B%B%B%B%B%:%K%5$q$'$W$Q$R$R$Y$A$q%K%>%B%B%B%B%B%B%B%B%B%B%B%B%B%B%B%B%B%B%B%B%B%B%B%B%B%B%B%B%B%B%B%B%B%B%B%B%B%B%B%B%B%B%B%B%B%B%B%B%B",
"%B%B%B%B%B%B%B%B%B%B%B%B%B%B%B%B%B%B%B%B%B%B%B%B%B%B%B%B%B%B%B%B%B%B%B%B%B%B%B%B%B%B%B%B%B%B%B%B%B%>%P$g#R#a#a#a#a#b#g#R$g%1%P%:%B%B%B%B%B%B%B%B%B%B%B%B%B%B%B%B%B%B%B%B%B%B%B%B%B%B%B%B%B%B%B%B%B%B%B%B%B%B%B%B%B%B%B%B%>%:%B%[%[%.$v$t$@#p#U#X#p#r$&$/$1$1$1$1$1$1$1$1$/$&#r#p#X#U#p$@$t$v%.%[%[%B%:%>%B%B%B%B%B%B%B%B%B%B%B%B%B%B%B%B%B%B%B%B%B%B%B%B%B%B%B%B%B%B%B%B%B%B%B%B%B%B%B%B%B%B%B%B%:%K%5$q$'$W$Q$R$R$R$Y$B$q%K%>%B%B%B%B%B%B%B%B%B%B%B%B%B%B%B%B%B%B%B%B%B%B%B%B%B%B%B%B%B%B%B%B%B%B%B%B%B%B%B%B%B%B%B%B%B%B%B%B%B",
"%B%B%B%B%B%B%B%B%B%B%B%B%B%B%B%B%B%B%B%B%B%B%B%B%B%B%B%B%B%B%B%B%B%B%B%B%B%B%B%B%B%B%B%B%B%B%B%B%B%>%P$h#B#b#a#a#b#b#b#g#R$g%2%O%:%B%B%B%B%B%B%B%B%B%B%B%B%B%B%B%B%B%B%B%B%B%B%B%B%B%B%B%B%B%B%B%B%B%B%B%B%B%B%B%B%B%B%B%B%B%B%:%:%O%Z%Y%/$w$u$t$f$5#r#l#X#U#S#S#S#S#U#X#l#x$5$f$t$u$w%/%Y%Z%K%:%:%B%B%B%B%B%B%B%B%B%B%B%B%B%B%B%B%B%B%B%B%B%B%B%B%B%B%B%B%B%B%B%B%B%B%B%B%B%B%B%B%B%B%B%B%B%B%:%K%5$q$'$W$Q$R$R$R$R$[$B$q%K%>%B%B%B%B%B%B%B%B%B%B%B%B%B%B%B%B%B%B%B%B%B%B%B%B%B%B%B%B%B%B%B%B%B%B%B%B%B%B%B%B%B%B%B%B%B%B%B%B%B",
"%B%B%B%B%B%B%B%B%B%B%B%B%B%B%B%B%B%B%B%B%B%B%B%B%B%B%B%B%B%B%B%B%B%B%B%B%B%B%B%B%B%B%B%B%B%B%B%B%B%>%P$h#R#d#a#b#b#b#b#b#k#R$g%2%O%:%B%B%B%B%B%B%B%B%B%B%B%B%B%B%B%B%B%B%B%B%B%B%B%B%B%B%B%B%B%B%B%B%B%B%B%B%B%B%B%B%B%B%B%B%B%B%B%>%:%;%J%W%^%[%>%.$y$w$v$u$u$u$u$u$u$v$w$}%/%>%[%^%W%J%;%:%>%B%B%B%B%B%B%B%B%B%B%B%B%B%B%B%B%B%B%B%B%B%B%B%B%B%B%B%B%B%B%B%B%B%B%B%B%B%B%B%B%B%B%B%B%B%B%B%:%K%5$q$'$W$Q$R$R$R$R$U$[$B$r%K%>%B%B%B%B%B%B%B%B%B%B%B%B%B%B%B%B%B%B%B%B%B%B%B%B%B%B%B%B%B%B%B%B%B%B%B%B%B%B%B%B%B%B%B%B%B%B%B%B%B",
"%B%B%B%B%B%B%B%B%B%B%B%B%B%B%B%B%B%B%B%B%B%B%B%B%B%B%B%B%B%B%B%B%B%B%B%B%B%B%B%B%B%B%B%B%B%B%B%B%B%>%P$g#R#d#b#b#b#b#b#b#d#k#R$g%2%O%:%B%B%B%B%B%B%B%B%B%B%B%B%B%B%B%B%B%B%B%B%B%B%B%B%B%B%B%B%B%B%B%B%B%B%B%B%B%B%B%B%B%B%B%B%B%B%B%B%B%>%;%:%;%D%K%U%[%Z%^%^%^%^%^%^%Z%[%U%K%D%;%:%;%>%B%B%B%B%B%B%B%B%B%B%B%B%B%B%B%B%B%B%B%B%B%B%B%B%B%B%B%B%B%B%B%B%B%B%B%B%B%B%B%B%B%B%B%B%B%B%B%B%B%:%K%5$q$'$W$Q$R$R$R$R$U$U$[$J$r%K%>%B%B%B%B%B%B%B%B%B%B%B%B%B%B%B%B%B%B%B%B%B%B%B%B%B%B%B%B%B%B%B%B%B%B%B%B%B%B%B%B%B%B%B%B%B%B%B%B%B",
"%B%B%B%B%B%B%B%B%B%B%B%B%B%B%B%B%B%B%B%B%B%B%B%B%B%B%B%B%B%B%B%B%B%B%B%B%B%B%B%B%B%B%B%B%B%B%B%B%B%>%P$g#R#g#b#b#b#b#b#d#e#e#k#R$g%2%O%:%B%B%B%B%B%B%B%B%B%B%B%B%B%B%B%B%B%B%B%B%B%B%B%B%B%B%B%B%B%B%B%B%B%B%B%B%B%B%B%B%B%B%B%B%B%B%B%B%B%B%B%B%B%>%;%:%:%:%:%:%:%:%:%:%:%;%>%B%B%B%B%B%B%B%B%B%B%B%B%B%B%B%B%B%B%B%B%B%B%B%B%B%B%B%B%B%B%B%B%B%B%B%B%B%B%B%B%B%B%B%B%B%B%B%B%B%B%B%B%B%:%K%5$q$'$W$Q$R$R$R$R$U$U$U$[$J$r%K%>%B%B%B%B%B%B%B%B%B%B%B%B%B%B%B%B%B%B%B%B%B%B%B%B%B%B%B%B%B%B%B%B%B%B%B%B%B%B%B%B%B%B%B%B%B%B%B%B%B",
"%B%B%B%B%B%B%B%B%B%B%B%B%B%B%B%B%B%B%B%B%B%B%B%B%B%B%B%B%B%B%B%B%B%B%B%B%B%B%B%B%B%B%B%B%B%B%B%B%B%>%P$g#R#g#b#b#b#b#d#e#e#e#e$(#R$g%2%O%:%B%B%B%B%B%B%B%B%B%B%B%B%B%B%B%B%B%B%B%B%B%B%B%B%B%B%B%B%B%B%B%B%B%B%B%B%B%B%B%B%B%B%B%B%B%B%B%B%B%B%B%B%B%B%B%B%B%B%B%B%B%B%B%B%B%B%B%B%B%B%B%B%B%B%B%B%B%B%B%B%B%B%B%B%B%B%B%B%B%B%B%B%B%B%B%B%B%B%B%B%B%B%B%B%B%B%B%B%B%B%B%B%B%B%B%B%B%B%:%K%5$q$'$W$Q$R$R$R$R$U$U$U$U$^$J$r%K%>%B%B%B%B%B%B%B%B%B%B%B%B%B%B%B%B%B%B%B%B%B%B%B%B%B%B%B%B%B%B%B%B%B%B%B%B%B%B%B%B%B%B%B%B%B%B%B%B%B",
"%B%B%B%B%B%B%B%B%B%B%B%B%B%B%B%B%B%B%B%B%B%B%B%B%B%B%B%B%B%B%B%B%B%B%B%B%B%B%B%B%B%B%B%B%B%B%B%B%B%>%P$h#R#g#b#b#b#d#e#e#e#e#f#f#k#R$g%1%O%:%B%B%B%B%B%B%B%B%B%B%B%B%B%B%B%B%B%B%B%B%B%B%B%B%B%B%B%B%B%B%B%B%B%B%B%B%B%B%B%B%B%B%B%B%B%B%B%B%B%B%B%B%B%B%B%B%B%B%B%B%B%B%B%B%B%B%B%B%B%B%B%B%B%B%B%B%B%B%B%B%B%B%B%B%B%B%B%B%B%B%B%B%B%B%B%B%B%B%B%B%B%B%B%B%B%B%B%B%B%B%B%B%B%B%B%B%:%K%5$q$'$W$Q$R$R$R$R$U$U$U$U$X$^$J$r%K%>%B%B%B%B%B%B%B%B%B%B%B%B%B%B%B%B%B%B%B%B%B%B%B%B%B%B%B%B%B%B%B%B%B%B%B%B%B%B%B%B%B%B%B%B%B%B%B%B%B",
"%B%B%B%B%B%B%B%B%B%B%B%B%B%B%B%B%B%B%B%B%B%B%B%B%B%B%B%B%B%B%B%B%B%B%B%B%B%B%B%B%B%B%B%B%B%B%B%B%B%>%P$h#R#g#b#b#d#e#e#e#e#e#f#f#h#y#R$g%1%O%:%B%B%B%B%B%B%B%B%B%B%B%B%B%B%B%B%B%B%B%B%B%B%B%B%B%B%B%B%B%B%B%B%B%B%B%B%B%B%B%B%B%B%B%B%B%B%B%B%B%B%B%B%B%B%B%B%B%B%B%B%B%B%B%B%B%B%B%B%B%B%B%B%B%B%B%B%B%B%B%B%B%B%B%B%B%B%B%B%B%B%B%B%B%B%B%B%B%B%B%B%B%B%B%B%B%B%B%B%B%B%B%B%B%B%:%K%5$q$'$W$Q$R$R$R$R$U$U$U$U$X$X$^$J$r%K%>%B%B%B%B%B%B%B%B%B%B%B%B%B%B%B%B%B%B%B%B%B%B%B%B%B%B%B%B%B%B%B%B%B%B%B%B%B%B%B%B%B%B%B%B%B%B%B%B%B",
"%B%B%B%B%B%B%B%B%B%B%B%B%B%B%B%B%B%B%B%B%B%B%B%B%B%B%B%B%B%B%B%B%B%B%B%B%B%B%B%B%B%B%B%B%B%B%B%B%B%>%P$g#R#g#b#d#e#e#e#e#e#f#f#h#h#i#y#R$g%1%O%:%B%B%B%B%B%B%B%B%B%B%B%B%B%B%B%B%B%B%B%B%B%B%B%B%B%B%B%B%B%B%B%B%B%B%B%B%B%B%B%B%B%B%B%B%B%B%B%B%B%B%B%B%B%B%B%B%B%B%B%B%B%B%B%B%B%B%B%B%B%B%B%B%B%B%B%B%B%B%B%B%B%B%B%B%B%B%B%B%B%B%B%B%B%B%B%B%B%B%B%B%B%B%B%B%B%B%B%B%B%B%B%B%:%K%5$q$'$W$Q$R$R$R$R$U$U$U$U$X$X$X$`$J$r%K%>%B%B%B%B%B%B%B%B%B%B%B%B%B%B%B%B%B%B%B%B%B%B%B%B%B%B%B%B%B%B%B%B%B%B%B%B%B%B%B%B%B%B%B%B%B%B%B%B%B",
"%B%B%B%B%B%B%B%B%B%B%B%B%B%B%B%B%B%B%B%B%B%B%B%B%B%B%B%B%B%B%B%B%B%B%B%B%B%B%B%B%B%B%B%B%B%B%B%B%B%>%P$g#R#g#d#e#e#e#e#e#f#f#h#h#i#i#i#y#R$g%1%P%:%B%B%B%B%B%B%B%B%B%B%B%B%B%B%B%B%B%B%B%B%B%B%B%B%B%B%B%B%B%B%B%B%B%B%B%B%B%B%B%B%B%B%B%B%B%B%B%B%B%B%B%B%B%B%B%B%B%B%B%B%B%B%B%B%B%B%B%B%B%B%B%B%B%B%B%B%B%B%B%B%B%B%B%B%B%B%B%B%B%B%B%B%B%B%B%B%B%B%B%B%B%B%B%B%B%B%B%B%B%B%:%K%5$q$'$W$Q$R$R$R$R$U$U$U$U$X$X$X$Z$`$J$r%K%>%B%B%B%B%B%B%B%B%B%B%B%B%B%B%B%B%B%B%B%B%B%B%B%B%B%B%B%B%B%B%B%B%B%B%B%B%B%B%B%B%B%B%B%B%B%B%B%B%B",
"%B%B%B%B%B%B%B%B%B%B%B%B%B%B%B%B%B%B%B%B%B%B%B%B%B%B%B%B%B%B%B%B%B%B%B%B%B%B%B%B%B%B%B%B%B%B%B%B%B%>%P$g#R#k#e#e#e#e#e#f#f#h#h#i#i#i#i#i#y#T$g%2%O%:%B%B%B%B%B%B%B%B%B%B%B%B%B%B%B%B%B%B%B%B%B%B%B%B%B%B%B%B%B%B%B%B%B%B%B%B%B%B%B%B%B%B%B%B%B%B%B%B%B%B%B%B%B%B%B%B%B%B%B%B%B%B%B%B%B%B%B%B%B%B%B%B%B%B%B%B%B%B%B%B%B%B%B%B%B%B%B%B%B%B%B%B%B%B%B%B%B%B%B%B%B%B%B%B%B%B%B%B%:%K%5$q$'$W$Q$R$R$R$R$U$U$U$U$X$X$X$Z$Z$`$J$r%K%>%B%B%B%B%B%B%B%B%B%B%B%B%B%B%B%B%B%B%B%B%B%B%B%B%B%B%B%B%B%B%B%B%B%B%B%B%B%B%B%B%B%B%B%B%B%B%B%B%B",
"%B%B%B%B%B%B%B%B%B%B%B%B%B%B%B%B%B%B%B%B%B%B%B%B%B%B%B%B%B%B%B%B%B%B%B%B%B%B%B%B%B%B%B%B%B%B%B%B%B%>%P$g#R#k#e#e#e#e#f#f#h#h#i#i#i#i#i#j#j#y#T$g%2%O%:%B%B%B%B%B%B%B%B%B%B%B%B%B%B%B%B%B%B%B%B%B%B%B%B%B%B%B%B%B%B%B%B%B%B%B%B%B%B%B%B%B%B%B%B%B%B%B%B%B%B%B%B%B%B%B%B%B%B%B%B%B%B%B%B%B%B%B%B%B%B%B%B%B%B%B%B%B%B%B%B%B%B%B%B%B%B%B%B%B%B%B%B%B%B%B%B%B%B%B%B%B%B%B%B%B%B%:%K%5$q$'$W$Q$R$R$R$R$U$U$U$U$X$X$X$Z$Z$Z$[$J$r%K%>%B%B%B%B%B%B%B%B%B%B%B%B%B%B%B%B%B%B%B%B%B%B%B%B%B%B%B%B%B%B%B%B%B%B%B%B%B%B%B%B%B%B%B%B%B%B%B%B%B",
"%B%B%B%B%B%B%B%B%B%B%B%B%B%B%B%B%B%B%B%B%B%B%B%B%B%B%B%B%B%B%B%B%B%B%B%B%B%B%B%B%B%B%B%B%B%B%B%B%B%>%P$g#R#k#e#e#e#f#f#h#h#i#i#i#i#i#j#j#t#t#y#T$m%2%O%:%B%B%B%B%B%B%B%B%B%B%B%B%B%B%B%B%B%B%B%B%B%B%B%B%B%B%B%B%B%B%B%B%B%B%B%B%B%B%B%B%B%B%B%B%B%B%B%B%B%B%B%B%B%B%B%B%B%B%B%B%B%B%B%B%B%B%B%B%B%B%B%B%B%B%B%B%B%B%B%B%B%B%B%B%B%B%B%B%B%B%B%B%B%B%B%B%B%B%B%B%B%B%B%B%:%K%5$q$'$W$Q$R$R$R$R$U$U$U$U$X$X$X$Z$Z$Z$Z$`$J$r%K%>%B%B%B%B%B%B%B%B%B%B%B%B%B%B%B%B%B%B%B%B%B%B%B%B%B%B%B%B%B%B%B%B%B%B%B%B%B%B%B%B%B%B%B%B%B%B%B%B%B",
"%B%B%B%B%B%B%B%B%B%B%B%B%B%B%B%B%B%B%B%B%B%B%B%B%B%B%B%B%B%B%B%B%B%B%B%B%B%B%B%B%B%B%B%B%B%B%B%B%B%>%P$g#R#k#e#e#f#f#h#h#i#i#i#i#i#j#j#t#t#t#u$$#T$m%2%O%:%B%B%B%B%B%B%B%B%B%B%B%B%B%B%B%B%B%B%B%B%B%B%B%B%B%B%B%B%B%B%B%B%B%B%B%B%B%B%B%B%B%B%B%B%B%B%B%B%B%B%B%B%B%B%B%B%B%B%B%B%B%B%B%B%B%B%B%B%B%B%B%B%B%B%B%B%B%B%B%B%B%B%B%B%B%B%B%B%B%B%B%B%B%B%B%B%B%B%B%B%B%B%:%K%5$q$'$W$Q$R$R$R$R$U$U$U$U$X$X$X$Z$Z$Z$Z$Z$`$J$r%K%>%B%B%B%B%B%B%B%B%B%B%B%B%B%B%B%B%B%B%B%B%B%B%B%B%B%B%B%B%B%B%B%B%B%B%B%B%B%B%B%B%B%B%B%B%B%B%B%B%B",
"%B%B%B%B%B%B%B%B%B%B%B%B%B%B%B%B%B%B%B%B%B%B%B%B%B%B%B%B%B%B%B%B%B%B%B%B%B%B%B%B%B%B%B%B%B%B%B%B%B%>%P$g#R#k#e#f#f#h#h#i#i#i#i#i#j#j#t#t#t#u#u#u$$#T$m%2%O%:%B%B%B%B%B%B%B%B%B%B%B%B%B%B%B%B%B%B%B%B%B%B%B%B%B%B%B%B%B%B%B%B%B%B%B%B%B%B%B%B%B%B%B%B%B%B%B%B%B%B%B%B%B%B%B%B%B%B%B%B%B%B%B%B%B%B%B%B%B%B%B%B%B%B%B%B%B%B%B%B%B%B%B%B%B%B%B%B%B%B%B%B%B%B%B%B%B%B%B%B%:%K%5$q$'$W$Q$R$R$R$R$U$U$U$U$X$X$X$Z$Z$Z$Z$Z$]$`$J$r%K%>%B%B%B%B%B%B%B%B%B%B%B%B%B%B%B%B%B%B%B%B%B%B%B%B%B%B%B%B%B%B%B%B%B%B%B%B%B%B%B%B%B%B%B%B%B%B%B%B%B",
"%B%B%B%B%B%B%B%B%B%B%B%B%B%B%B%B%B%B%B%B%B%B%B%B%B%B%B%B%B%B%B%B%B%B%B%B%B%B%B%B%B%B%B%B%B%B%B%B%B%>%P$g#R#k#f#f#h#h#i#i#i#i#i#j#j#t#t#t#u#u#u#u#v$$#T$m%2%O%:%B%B%B%B%B%B%B%B%B%B%B%B%B%B%B%B%B%B%B%B%B%B%B%B%B%B%B%B%B%B%B%B%B%B%B%B%B%B%B%B%B%B%B%B%B%B%B%B%B%B%B%B%B%B%B%B%B%B%B%B%B%B%B%B%B%B%B%B%B%B%B%B%B%B%B%B%B%B%B%B%B%B%B%B%B%B%B%B%B%B%B%B%B%B%B%B%B%B%:%K%5$q$'$W$Q$R$R$R$R$U$U$U$U$X$X$X$Z$Z$Z$Z$Z$]$]$a$J$r%K%>%B%B%B%B%B%B%B%B%B%B%B%B%B%B%B%B%B%B%B%B%B%B%B%B%B%B%B%B%B%B%B%B%B%B%B%B%B%B%B%B%B%B%B%B%B%B%B%B%B",
"%B%B%B%B%B%B%B%B%B%B%B%B%B%B%B%B%B%B%B%B%B%B%B%B%B%B%B%B%B%B%B%B%B%B%B%B%B%B%B%B%B%B%B%B%B%B%B%B%B%>%P$g#R#k#f#h#h#i#i#i#i#i#j#j#t#t#t#u#u#u#u#v#w#w$$#T$m%2%O%:%B%B%B%B%B%B%B%B%B%B%B%B%B%B%B%B%B%B%B%B%B%B%B%B%B%B%B%B%B%B%B%B%B%B%B%B%B%B%B%B%B%B%B%B%B%B%B%B%B%B%B%B%B%B%B%B%B%B%B%B%B%B%B%B%B%B%B%B%B%B%B%B%B%B%B%B%B%B%B%B%B%B%B%B%B%B%B%B%B%B%B%B%B%B%B%B%:%K%5$q$'$W$Q$R$R$R$R$U$U$U$U$X$X$X$Z$Z$Z$Z$Z$]$]$^$a$J$r%K%>%B%B%B%B%B%B%B%B%B%B%B%B%B%B%B%B%B%B%B%B%B%B%B%B%B%B%B%B%B%B%B%B%B%B%B%B%B%B%B%B%B%B%B%B%B%B%B%B%B",
"%B%B%B%B%B%B%B%B%B%B%B%B%B%B%B%B%B%B%B%B%B%B%B%B%B%B%B%B%B%B%B%B%B%B%B%B%B%B%B%B%B%B%B%B%B%B%B%B%B%>%P$g#W#k#h#h#i#i#i#i#i#j#j#t#t#t#u#u#u#u#v#w#w#w#z$*#T$m%2%O%:%B%B%B%B%B%B%B%B%B%B%B%B%B%B%B%B%B%B%B%B%B%B%B%B%B%B%B%B%B%B%B%B%B%B%B%B%B%B%B%B%B%B%B%B%B%B%B%B%B%B%B%B%B%B%B%B%B%B%B%B%B%B%B%B%B%B%B%B%B%B%B%B%B%B%B%B%B%B%B%B%B%B%B%B%B%B%B%B%B%B%B%B%B%B%:%K%5$q$'$W$Q$R$R$R$R$U$U$U$U$X$X$X$Z$Z$Z$Z$Z$]$]$^$^$a$J$r%K%>%B%B%B%B%B%B%B%B%B%B%B%B%B%B%B%B%B%B%B%B%B%B%B%B%B%B%B%B%B%B%B%B%B%B%B%B%B%B%B%B%B%B%B%B%B%B%B%B%B",
"%B%B%B%B%B%B%B%B%B%B%B%B%B%B%B%B%B%B%B%B%B%B%B%B%B%B%B%B%B%B%B%B%B%B%B%B%B%B%B%B%B%B%B%B%B%B%B%B%B%>%P$g#W#k#h#i#i#i#i#i#j#j#t#t#t#u#u#u#u#v#w#w#w#z#{#{$*#T$m%2%O%:%B%B%B%B%B%B%B%B%B%B%B%B%B%B%B%B%B%B%B%B%B%B%B%B%B%B%B%B%B%B%B%B%B%B%B%B%B%B%B%B%B%B%B%B%B%B%B%B%B%B%B%B%B%B%B%B%B%B%B%B%B%B%B%B%B%B%B%B%B%B%B%B%B%B%B%B%B%B%B%B%B%B%B%B%B%B%B%B%B%B%B%B%:%K%5$q$'$W$Q$R$R$R$R$U$U$U$U$X$X$X$Z$Z$Z$Z$Z$]$]$^$^$^$a$J$r%K%>%B%B%B%B%B%B%B%B%B%B%B%B%B%B%B%B%B%B%B%B%B%B%B%B%B%B%B%B%B%B%B%B%B%B%B%B%B%B%B%B%B%B%B%B%B%B%B%B%B",
"%B%B%B%B%B%B%B%B%B%B%B%B%B%B%B%B%B%B%B%B%B%B%B%B%B%B%B%B%B%B%B%B%B%B%B%B%B%B%B%B%B%B%B%B%B%B%B%B%B%>%P$g#W#y#i#i#i#i#i#j#j#t#t#t#u#u#u#u#v#w#w#w#z#{#{#{#{$,#T$m%2%O%:%B%B%B%B%B%B%B%B%B%B%B%B%B%B%B%B%B%B%B%B%B%B%B%B%B%B%B%B%B%B%B%B%B%B%B%B%B%B%B%B%B%B%B%B%B%B%B%B%B%B%B%B%B%B%B%B%B%B%B%B%B%B%B%B%B%B%B%B%B%B%B%B%B%B%B%B%B%B%B%B%B%B%B%B%B%B%B%B%B%B%:%K%5$q$'$W$Q$R$R$R$R$U$U$U$U$X$X$X$Z$Z$Z$Z$Z$]$]$^$^$^$^$a$J$s%K%>%B%B%B%B%B%B%B%B%B%B%B%B%B%B%B%B%B%B%B%B%B%B%B%B%B%B%B%B%B%B%B%B%B%B%B%B%B%B%B%B%B%B%B%B%B%B%B%B%B",
"%B%B%B%B%B%B%B%B%B%B%B%B%B%B%B%B%B%B%B%B%B%B%B%B%B%B%B%B%B%B%B%B%B%B%B%B%B%B%B%B%B%B%B%B%B%B%B%B%B%>%P$g#W#y#i#i#i#i#j#j#t#t#t#u#u#u#u#v#w#w#w#z#{#{#{#{#|#}$,#T$m%2%O%:%B%B%B%B%B%B%B%B%B%B%B%B%B%B%B%B%B%B%B%B%B%B%B%B%B%B%B%B%B%B%B%B%B%B%B%B%B%B%B%B%B%B%B%B%B%B%B%B%B%B%B%B%B%B%B%B%B%B%B%B%B%B%B%B%B%B%B%B%B%B%B%B%B%B%B%B%B%B%B%B%B%B%B%B%B%B%B%B%:%K%5$q$'$W$Q$R$R$R$R$U$U$U$U$X$X$X$Z$Z$Z$Z$Z$]$]$^$^$^$^$^$a$J$s%K%>%B%B%B%B%B%B%B%B%B%B%B%B%B%B%B%B%B%B%B%B%B%B%B%B%B%B%B%B%B%B%B%B%B%B%B%B%B%B%B%B%B%B%B%B%B%B%B%B%B",
"%B%B%B%B%B%B%B%B%B%B%B%B%B%B%B%B%B%B%B%B%B%B%B%B%B%B%B%B%B%B%B%B%B%B%B%B%B%B%B%B%B%B%B%B%B%B%B%B%B%>%P$g#W#y#i#i#i#j#j#t#t#t#u#u#u#u#v#w#w#w#z#{#{#{#{#|#}#}#}$,#S$n%2%O%:%B%B%B%B%B%B%B%B%B%B%B%B%B%B%B%B%B%B%B%B%B%B%B%B%B%B%B%B%B%B%B%B%B%B%B%B%B%B%B%B%B%B%B%B%B%B%B%B%B%B%B%B%B%B%B%B%B%B%B%B%B%B%B%B%B%B%B%B%B%B%B%B%B%B%B%B%B%B%B%B%B%B%B%B%B%B%:%K%5$q$'$W$Q$R$R$R$R$U$U$U$U$X$X$X$Z$Z$Z$Z$Z$]$]$^$^$^$^$^$^$b$K$s%K%>%B%B%B%B%B%B%B%B%B%B%B%B%B%B%B%B%B%B%B%B%B%B%B%B%B%B%B%B%B%B%B%B%B%B%B%B%B%B%B%B%B%B%B%B%B%B%B%B%B",
"%B%B%B%B%B%B%B%B%B%B%B%B%B%B%B%B%B%B%B%B%B%B%B%B%B%B%B%B%B%B%B%B%B%B%B%B%B%B%B%B%B%B%B%B%B%B%B%B%B%>%P$g#W#y#i#i#j#j#t#t#t#u#u#u#u#v#w#w#w#z#{#{#{#{#|#}#}#}#}#~$2#U$n%2%O%:%B%B%B%B%B%B%B%B%B%B%B%B%B%B%B%B%B%B%B%B%B%B%B%B%B%B%B%B%B%B%B%B%B%B%B%B%B%B%B%B%B%B%B%B%B%B%B%B%B%B%B%B%B%B%B%B%B%B%B%B%B%B%B%B%B%B%B%B%B%B%B%B%B%B%B%B%B%B%B%B%B%B%B%B%:%K%5$q$'$W$Q$R$R$R$R$U$U$U$U$X$X$X$Z$Z$Z$Z$Z$]$]$^$^$^$^$^$^$_$k$K$s%K%>%B%B%B%B%B%B%B%B%B%B%B%B%B%B%B%B%B%B%B%B%B%B%B%B%B%B%B%B%B%B%B%B%B%B%B%B%B%B%B%B%B%B%B%B%B%B%B%B%B",
"%B%B%B%B%B%B%B%B%B%B%B%B%B%B%B%B%B%B%B%B%B%B%B%B%B%B%B%B%B%B%B%B%B%B%B%B%B%B%B%B%B%B%B%B%B%B%B%B%B%>%P$g#W#y#i#j#j#t#t#t#u#u#u#u#v#w#w#w#z#{#{#{#{#|#}#}#}#}#}#~#~$2#U$n%2%O%:%B%B%B%B%B%B%B%B%B%B%B%B%B%B%B%B%B%B%B%B%B%B%B%B%B%B%B%B%B%B%B%B%B%B%B%B%B%B%B%B%B%B%B%B%B%B%B%B%B%B%B%B%B%B%B%B%B%B%B%B%B%B%B%B%B%B%B%B%B%B%B%B%B%B%B%B%B%B%B%B%B%B%:%K%5$q$'$W$Q$R$R$R$R$U$U$U$U$X$X$X$Z$Z$Z$Z$Z$]$]$^$^$^$^$^$^$_$`$k$K$s%K%>%B%B%B%B%B%B%B%B%B%B%B%B%B%B%B%B%B%B%B%B%B%B%B%B%B%B%B%B%B%B%B%B%B%B%B%B%B%B%B%B%B%B%B%B%B%B%B%B%B",
"%B%B%B%B%B%B%B%B%B%B%B%B%B%B%B%B%B%B%B%B%B%B%B%B%B%B%B%B%B%B%B%B%B%B%B%B%B%B%B%B%B%B%B%B%B%B%B%B%B%>%P$g#W#y#j#j#t#t#t#u#u#u#u#v#w#w#w#z#{#{#{#{#|#}#}#}#}#}#~#~$%$%$2#U$n%2%O%:%B%B%B%B%B%B%B%B%B%B%B%B%B%B%B%B%B%B%B%B%B%B%B%B%B%B%B%B%B%B%B%B%B%B%B%B%B%B%B%B%B%B%B%B%B%B%B%B%B%B%B%B%B%B%B%B%B%B%B%B%B%B%B%B%B%B%B%B%B%B%B%B%B%B%B%B%B%B%B%B%:%K%5$q$'$W$Q$R$R$R$R$U$U$U$U$X$X$X$Z$Z$Z$Z$Z$]$]$^$^$^$^$^$^$_$`$`$k$K$s%K%>%B%B%B%B%B%B%B%B%B%B%B%B%B%B%B%B%B%B%B%B%B%B%B%B%B%B%B%B%B%B%B%B%B%B%B%B%B%B%B%B%B%B%B%B%B%B%B%B%B",
"%B%B%B%B%B%B%B%B%B%B%B%B%B%B%B%B%B%B%B%B%B%B%B%B%B%B%B%B%B%B%B%B%B%B%B%B%B%B%B%B%B%B%B%B%B%B%B%B%B%>%P$g#W#y#j#t#t#t#u#u#u#u#v#w#w#w#z#{#{#{#{#|#}#}#}#}#}#~#~$%$%$&$&$2#U$n%2%O%:%B%B%B%B%B%B%B%B%B%B%B%B%B%B%B%B%B%B%B%B%B%B%B%B%B%B%B%B%B%B%B%B%B%B%B%B%B%B%B%B%B%B%B%B%B%B%B%B%B%B%B%B%B%B%B%B%B%B%B%B%B%B%B%B%B%B%B%B%B%B%B%B%B%B%B%B%B%B%:%K%5$q$'$W$Q$R$R$R$R$U$U$U$U$X$X$X$Z$Z$Z$Z$Z$]$]$^$^$^$^$^$^$_$`$`$`$k$K$s%K%>%B%B%B%B%B%B%B%B%B%B%B%B%B%B%B%B%B%B%B%B%B%B%B%B%B%B%B%B%B%B%B%B%B%B%B%B%B%B%B%B%B%B%B%B%B%B%B%B%B",
"%B%B%B%B%B%B%B%B%B%B%B%B%B%B%B%B%B%B%B%B%B%B%B%B%B%B%B%B%B%B%B%B%B%B%B%B%B%B%B%B%B%B%B%B%B%B%B%B%B%>%P$g#T#y#t#t#t#u#u#u#u#v#w#w#w#z#{#{#{#{#|#}#}#}#}#}#~#~$%$%$&$&$&$&$2#U$n%2%O%:%B%B%B%B%B%B%B%B%B%B%B%B%B%B%B%B%B%B%B%B%B%B%B%B%B%B%B%B%B%B%B%B%B%B%B%B%B%B%B%B%B%B%B%B%B%B%B%B%B%B%B%B%B%B%B%B%B%B%B%B%B%B%B%B%B%B%B%B%B%B%B%B%B%B%B%B%:%K%5$q$'$W$Q$R$R$R$R$U$U$U$U$X$X$X$Z$Z$Z$Z$Z$]$]$^$^$^$^$^$^$_$`$`$`$`$a$K$s%K%>%B%B%B%B%B%B%B%B%B%B%B%B%B%B%B%B%B%B%B%B%B%B%B%B%B%B%B%B%B%B%B%B%B%B%B%B%B%B%B%B%B%B%B%B%B%B%B%B%B",
"%B%B%B%B%B%B%B%B%B%B%B%B%B%B%B%B%B%B%B%B%B%B%B%B%B%B%B%B%B%B%B%B%B%B%B%B%B%B%B%B%B%B%B%B%B%B%B%B%B%>%P$g#W#y#t#t#u#u#u#u#v#w#w#w#z#{#{#{#{#|#}#}#}#}#}#~#~$%$%$&$&$&$&$&$&$4#l$n%2%O%:%B%B%B%B%B%B%B%B%B%B%B%B%B%B%B%B%B%B%B%B%B%B%B%B%B%B%B%B%B%B%B%B%B%B%B%B%B%B%B%B%B%B%B%B%B%B%B%B%B%B%B%B%B%B%B%B%B%B%B%B%B%B%B%B%B%B%B%B%B%B%B%B%B%B%:%K%5$q$'$W$Q$R$R$R$R$U$U$U$U$X$X$X$Z$Z$Z$Z$Z$]$]$^$^$^$^$^$^$_$`$`$`$`$`$a$K$s%K%>%B%B%B%B%B%B%B%B%B%B%B%B%B%B%B%B%B%B%B%B%B%B%B%B%B%B%B%B%B%B%B%B%B%B%B%B%B%B%B%B%B%B%B%B%B%B%B%B%B",
"%B%B%B%B%B%B%B%B%B%B%B%B%B%B%B%B%B%B%B%B%B%B%B%B%B%B%B%B%B%B%B%B%B%B%B%B%B%B%B%B%B%B%B%B%B%B%B%B%B%>%P$m#W#y#t#u#u#u#u#v#w#w#w#z#{#{#{#{#|#}#}#}#}#}#~#~$%$%$&$&$&$&$&$&$-$-$4#l$n%2%O%:%B%B%B%B%B%B%B%B%B%B%B%B%B%B%B%B%B%B%B%B%B%B%B%B%B%B%B%B%B%B%B%B%B%B%B%B%B%B%B%B%B%B%B%B%B%B%B%B%B%B%B%B%B%B%B%B%B%B%B%B%B%B%B%B%B%B%B%B%B%B%B%B%:%K%5$q$'$W$Q$R$R$R$R$U$U$U$U$X$X$X$Z$Z$Z$Z$Z$]$]$^$^$^$^$^$^$_$`$`$`$`$`$`$b$K$s%K%>%B%B%B%B%B%B%B%B%B%B%B%B%B%B%B%B%B%B%B%B%B%B%B%B%B%B%B%B%B%B%B%B%B%B%B%B%B%B%B%B%B%B%B%B%B%B%B%B%B",
"%B%B%B%B%B%B%B%B%B%B%B%B%B%B%B%B%B%B%B%B%B%B%B%B%B%B%B%B%B%B%B%B%B%B%B%B%B%B%B%B%B%B%B%B%B%B%B%B%B%>%P$m#W#y#u#u#u#u#v#w#w#w#z#{#{#{#{#|#}#}#}#}#}#~#~$%$%$&$&$&$&$&$&$+$-$-$-$4#l$n%2%O%:%B%B%B%B%B%B%B%B%B%B%B%B%B%B%B%B%B%B%B%B%B%B%B%B%B%B%B%B%B%B%B%B%B%B%B%B%B%B%B%B%B%B%B%B%B%B%B%B%B%B%B%B%B%B%B%B%B%B%B%B%B%B%B%B%B%B%B%B%B%B%:%K%5$q$'$W$Q$R$R$R$R$U$U$U$U$X$X$X$Z$Z$Z$Z$Z$]$]$^$^$^$^$^$^$_$`$`$`$`$`$`$b$k$S$s%K%>%B%B%B%B%B%B%B%B%B%B%B%B%B%B%B%B%B%B%B%B%B%B%B%B%B%B%B%B%B%B%B%B%B%B%B%B%B%B%B%B%B%B%B%B%B%B%B%B%B",
"%B%B%B%B%B%B%B%B%B%B%B%B%B%B%B%B%B%B%B%B%B%B%B%B%B%B%B%B%B%B%B%B%B%B%B%B%B%B%B%B%B%B%B%B%B%B%B%B%B%>%P$m#W#z#u#u#u#v#w#w#w#z#{#{#{#{#|#}#}#}#}#}#~#~$%$%$&$&$&$&$&$&$+$-$-$-$-$-$4#l$o%2%N%:%B%B%B%B%B%B%B%B%B%B%B%B%B%B%B%B%B%B%B%B%B%B%B%B%B%B%B%B%B%B%B%B%B%B%B%B%B%B%B%B%B%B%B%B%B%B%B%B%B%B%B%B%B%B%B%B%B%B%B%B%B%B%B%B%B%B%B%B%:%K%5$q$'$W$Q$R$R$R$R$U$U$U$U$X$X$X$Z$Z$Z$Z$Z$]$]$^$^$^$^$^$^$_$`$`$`$`$`$`$b$b$k$K$s%K%>%B%B%B%B%B%B%B%B%B%B%B%B%B%B%B%B%B%B%B%B%B%B%B%B%B%B%B%B%B%B%B%B%B%B%B%B%B%B%B%B%B%B%B%B%B%B%B%B%B",
"%H%B%B%B%B%B%B%B%B%B%B%B%B%B%B%B%B%B%B%B%B%B%B%B%B%B%B%B%B%B%B%B%B%B%B%B%B%B%B%B%B%B%B%B%B%B%B%B%B%>%P$m#W#z#u#u#v#w#w#w#z#{#{#{#{#|#}#}#}#}#}#~#~$%$%$&$&$&$&$&$&$+$-$-$-$-$-$-$0$4#n$o%2%N%:%B%B%B%B%B%B%B%B%B%B%B%B%B%B%B%B%B%B%B%B%B%B%B%B%B%B%B%B%B%B%B%B%B%B%B%B%B%B%B%B%B%B%B%B%B%B%B%B%B%B%B%B%B%B%B%B%B%B%B%B%B%B%B%B%B%B%:%K%5$q$'$W$Q$R$R$R$R$U$U$U$U$X$X$X$Z$Z$Z$Z$Z$]$]$^$^$^$^$^$^$_$`$`$`$`$`$`$b$b$b$k$K$s%K%>%B%B%B%B%B%B%B%B%B%B%B%B%B%B%B%B%B%B%B%B%B%B%B%B%B%B%B%B%B%B%B%B%B%B%B%B%B%B%B%B%B%B%B%B%B%B%B%B%I",
"%I%A%B%B%B%B%B%B%B%B%B%B%B%B%B%B%B%B%B%B%B%B%B%B%B%B%B%B%B%B%B%B%B%B%B%B%B%B%B%B%B%B%B%B%B%B%B%B%B%>%P$m#W#z#u#v#w#w#w#z#{#{#{#{#|#}#}#}#}#}#~#~$%$%$&$&$&$&$&$&$+$-$-$-$-$-$-$/$0$0$4#n$o%2%N%:%B%B%B%B%B%B%B%B%B%B%B%B%B%B%B%B%B%B%B%B%B%B%B%B%B%B%B%B%B%B%B%B%B%B%B%B%B%B%B%B%B%B%B%B%B%B%B%B%B%B%B%B%B%B%B%B%B%B%B%B%B%B%B%B%:%K%5$q$'$W$Q$R$R$R$R$U$U$U$U$X$X$X$Z$Z$Z$Z$Z$]$]$^$^$^$^$^$^$_$`$`$`$`$`$`$b$b$b$b$k$K$s%K%>%B%B%B%B%B%B%B%B%B%B%B%B%B%B%B%B%B%B%B%B%B%B%B%B%B%B%B%B%B%B%B%B%B%B%B%B%B%B%B%B%B%B%B%B%B%B%B%A%I",
"%`%@%B%B%B%B%B%B%B%B%B%B%B%B%B%B%B%B%B%B%B%B%B%B%B%B%B%B%B%B%B%B%B%B%B%B%B%B%B%B%B%B%B%B%B%B%B%B%B%>%P$m#W$$#z$$$$$$$$$$$$$$$$$*$*$*$*$*$*$*$,$,$.$/$/$/$/$/$/$1$1$1$1$1$1$1$2$3$3$3$3$:#n$o%:%Q%:%;%;%;%;%;%;%;%;%;%;%;%;%;%;%;%;%;%;%;%;%;%;%;%;%;%;%;%;%;%;%;%;%;%;%;%;%;%;%;%;%;%;%;%;%;%;%;%;%;%;%;%;%;%;%;%;%;%;%;%=%=%=%:%Q%=$q$A$i$V$V$Y$Y$Y$[$[$V$[$^$^$^$`$`$`$[$`$`$`$a$a$a$a$a$a$b$k$k$k$k$k$a$b$k$k$k$k$k$S$s%K%>%B%B%B%B%B%B%B%B%B%B%B%B%B%B%B%B%B%B%B%B%B%B%B%B%B%B%B%B%B%B%B%B%B%B%B%B%B%B%B%B%B%B%B%B%B%B%B%A%`",
"%a%?%E%B%B%B%B%B%B%B%B%B%B%B%B%B%B%B%B%B%B%B%B%B%B%B%B%B%B%B%B%B%B%B%B%B%B%B%B%B%B%B%B%B%B%B%B%B%B%>%P$f#R#W#W#W#W#W#W#W#W#W#W#X#X#X#X#X#X#m#m#m#m#m#m#m#m#m#o#o#o#o#o#o#o#q#q#q#q#q#q#q#s#S$l%/%U%U%R%S%S%R%R%R%R%R%R%R%R%R%R%R%R%R%R%R%R%R%R%R%R%R%R%R%R%R%R%R%R%R%R%R%R%R%R%R%R%R%R%R%R%R%R%R%R%R%R%R%R%R%R%R%R%R%R%R%R%Q%R%U%/$o$'$B$A$A$A$A$A$B$B$B$J$J$J$J$J$J$J$J$J$J$J$J$J$J$J$J$J$J$K$K$K$K$K$K$K$K$S$K$K$K$S$J$r%K%>%B%B%B%B%B%B%B%B%B%B%B%B%B%B%B%B%B%B%B%B%B%B%B%B%B%B%B%B%B%B%B%B%B%B%B%B%B%B%B%B%B%B%B%B%B%B%B%@%`",
"%a%?%H%B%B%B%B%B%B%B%B%B%B%B%B%B%B%B%B%B%B%B%B%B%B%B%B%B%B%B%B%B%B%B%B%B%B%B%B%B%B%B%B%B%B%B%B%B%B%>%L$t$f$m$m$m$m$m$m$m$m$m$m$m$m$m$n$n$n$n$n$n$n$n$n$n$n$n$o$o$o$o$o$o$o$o$o$o$o$o$o$o$o$p$l$u%.$y%*%&%&%&%&%&%&%&%&%&%&%&%&%&%&%&%&%&%&%&%&%(%(%(%(%(%(%(%(%(%(%(%(%(%(%(%(%(%(%(%(%(%(%(%(%(%(%(%(%*%+%+%+%+%+%)%+%+%)%-$y%.$u$o$s$q$q$q$q$q$q$q$q$r$r$r$r$r$r$r$r$r$r$r$r$r$r$r$r$r$s$s$s$s$s$s$s$s$s$s$s$s$s$s$s$r$u%K%>%B%B%B%B%B%B%B%B%B%B%B%B%B%B%B%B%B%B%B%B%B%B%B%B%B%B%B%B%B%B%B%B%B%B%B%B%B%B%B%B%B%B%B%B%B%B%H%?%a",
"%b%8%F%B%B%B%B%B%B%B%B%B%B%B%B%B%B%B%B%B%B%B%B%B%B%B%B%B%B%B%B%B%B%B%B%B%B%B%B%B%B%B%B%B%B%B%B%B%B%B%B%L%P%P%P%P%P%P%O%O%O%P%P%P%P%P%P%O%P%P%N%N%N%N%N%N%N%O%N%N%N%N%N%N%N%N%N%N%N%N%N%N%N%K%Q%K$y$@#s$:$3$3$3$3$3$7$7$7$7$7$7$7$7$7$7$7$7$7$9$9$9$9$9$9$9$<$<$<$<$<$<$<$C$C$C$C$C$C$C$D$E$E$E$E$E$E$G$G$L$M$M$M$M$M$M$P$U$B$j$y%J%N%K%K%K%K%K%K%K%K%K%K%K%K%K%K%K%K%K%K%K%K%K%K%K%K%K%K%K%K%K%K%K%K%K%K%K%K%K%K%K%K%K%K%J%B%B%B%B%B%B%B%B%B%B%B%B%B%B%B%B%B%B%B%B%B%B%B%B%B%B%B%B%B%B%B%B%B%B%B%B%B%B%B%B%B%B%B%B%B%B%B%B%H%?%a",
"##%9%F%B%B%B%B%B%B%B%B%B%B%B%B%B%B%B%B%B%B%B%B%B%B%B%B%B%B%B%B%B%B%B%B%B%B%B%B%B%B%B%B%B%B%B%B%B%B%B%B%>%>%>%>%>%>%>%>%>%>%>%>%>%>%>%>%>%>%>%>%>%>%>%>%>%>%>%>%>%>%>%>%>%>%>%>%>%>%>%>%>%>%>%>%<%Z%*$@#s$:$3$3$4$7$7$7$7$7$7$8$8$8$8$8$9$9$;$;$;$;$;$<$<$>$>$?$?$?$?$?$D$D$D$D$D$D$D$G$G$G$G$G$G$G$H$L$L$M$M$M$M$N$N$P$V$B$j%+%Z%>%>%>%>%>%>%>%>%>%>%>%>%>%>%>%>%>%>%>%>%>%>%>%>%>%>%>%>%>%>%>%>%>%>%>%>%>%>%>%>%>%>%>%>%>%B%B%B%B%B%B%B%B%B%B%B%B%B%B%B%B%B%B%B%B%B%B%B%B%B%B%B%B%B%B%B%B%B%B%B%B%B%B%B%B%B%B%B%B%B%B%B%B%F%8%b",
"##%@%B%B%B%B%B%B%B%B%B%B%B%B%B%B%B%B%B%B%B%B%B%B%B%B%B%B%B%B%B%B%B%B%B%B%B%B%B%B%B%B%B%B%B%B%B%B%B%B%B%B%B%B%B%B%B%B%B%B%B%B%B%B%B%B%B%B%B%B%B%B%B%B%B%B%B%B%B%B%B%B%B%B%B%B%B%B%B%B%B%B%B%B%B%B%4%Z%*$@#s$:$4$7$7$7$7$7$7$8$8$8$8$8$9$9$;$;$;$;$;$<$<$>$>$?$?$?$?$C$D$D$D$D$D$D$D$G$G$G$G$G$G$G$H$L$L$M$M$M$M$N$N$P$V$B$j%,%Z%:%B%B%B%B%B%B%B%B%B%B%B%B%B%B%B%B%B%B%B%B%B%B%B%B%B%B%B%B%B%B%B%B%B%B%B%B%B%B%B%B%B%B%B%B%B%B%B%B%B%B%B%B%B%B%B%B%B%B%B%B%B%B%B%B%B%B%B%B%B%B%B%B%B%B%B%B%B%B%B%B%B%B%B%B%B%B%B%B%B%B%B%B%B%F%8##",
"##%`%@%B%B%B%B%B%B%B%B%B%B%B%B%B%B%B%B%B%B%B%B%B%B%B%B%B%B%B%B%B%B%B%B%B%B%B%B%B%B%B%B%B%B%B%B%B%B%B%B%B%B%B%B%B%B%B%B%B%B%B%B%B%B%B%B%B%B%B%B%B%B%B%B%B%B%B%B%B%B%B%B%B%B%B%B%B%B%B%B%B%B%B%B%B%B%4%Y%*$@#s$=$7$7$7$7$7$8$8$8$8$8$9$9$;$;$;$;$;$;$<$>$>$?$?$?$?$?$D$D$D$D$D$D$D$G$G$G$G$G$G$G$H$L$L$M$M$M$M$N$N$P$V$B$j%+%X%4%B%B%B%B%B%B%B%B%B%B%B%B%B%B%B%B%B%B%B%B%B%B%B%B%B%B%B%B%B%B%B%B%B%B%B%B%B%B%B%B%B%B%B%B%B%B%B%B%B%B%B%B%B%B%B%B%B%B%B%B%B%B%B%B%B%B%B%B%B%B%B%B%B%B%B%B%B%B%B%B%B%B%B%B%B%B%B%B%B%B%B%B%B%B%H%?##",
"##%a%?%H%B%B%B%B%B%B%B%B%B%B%B%B%B%B%B%B%B%B%B%B%B%B%B%B%B%B%B%B%B%B%B%B%B%B%B%B%B%B%B%B%B%B%B%B%B%B%B%B%B%B%B%B%B%B%B%B%B%B%B%B%B%B%B%B%B%B%B%B%B%B%B%B%B%B%B%B%B%B%B%B%B%B%B%B%B%B%B%B%B%B%B%B%B%B%4%Y%*$@#s$=$7$7$7$8$8$8$8$8$9$9$;$;$;$;$;$;$<$>$>$?$?$?$?$?$D$D$D$D$D$D$D$G$G$G$G$G$G$G$H$L$L$M$M$M$M$N$N$P$V$B$j%+%X%4%B%B%B%B%B%B%B%B%B%B%B%B%B%B%B%B%B%B%B%B%B%B%B%B%B%B%B%B%B%B%B%B%B%B%B%B%B%B%B%B%B%B%B%B%B%B%B%B%B%B%B%B%B%B%B%B%B%B%B%B%B%B%B%B%B%B%B%B%B%B%B%B%B%B%B%B%B%B%B%B%B%B%B%B%B%B%B%B%B%B%B%B%B%B%B%A%I##",
"##%b%6%I%B%B%B%B%B%B%B%B%B%B%B%B%B%B%B%B%B%B%B%B%B%B%B%B%B%B%B%B%B%B%B%B%B%B%B%B%B%B%B%B%B%B%B%B%B%B%B%B%B%B%B%B%B%B%B%B%B%B%B%B%B%B%B%B%B%B%B%B%B%B%B%B%B%B%B%B%B%B%B%B%B%B%B%B%B%B%B%B%B%B%B%B%B%B%B%4%[%*$I$'$=$7$8$8$8$8$8$9$9$;$;$;$;$;$;$<$>$>$?$?$?$?$?$D$D$D$D$D$D$D$G$G$G$G$G$G$G$H$L$L$M$M$M$M$N$N$P$V$B$j%+%X%4%B%B%B%B%B%B%B%B%B%B%B%B%B%B%B%B%B%B%B%B%B%B%B%B%B%B%B%B%B%B%B%B%B%B%B%B%B%B%B%B%B%B%B%B%B%B%B%B%B%B%B%B%B%B%B%B%B%B%B%B%B%B%B%B%B%B%B%B%B%B%B%B%B%B%B%B%B%B%B%B%B%B%B%B%B%B%B%B%B%B%B%B%B%B%B%E%?%`##",
"####%8%F%B%B%B%B%B%B%B%B%B%B%B%B%B%B%B%B%B%B%B%B%B%B%B%B%B%B%B%B%B%B%B%B%B%B%B%B%B%B%B%B%B%B%B%B%B%B%B%B%B%B%B%B%B%B%B%B%B%B%B%B%B%B%B%B%B%B%B%B%B%B%B%B%B%B%B%B%B%B%B%B%B%B%B%B%B%B%B%B%B%B%B%B%B%B%B%B%4%[%*$I$'$=$8$8$8$8$9$9$;$;$;$;$;$;$<$>$>$?$?$?$?$?$D$D$D$D$D$D$D$G$G$G$G$G$G$G$H$L$L$M$M$M$M$N$N$P$V$B$j%+%X%4%B%B%B%B%B%B%B%B%B%B%B%B%B%B%B%B%B%B%B%B%B%B%B%B%B%B%B%B%B%B%B%B%B%B%B%B%B%B%B%B%B%B%B%B%B%B%B%B%B%B%B%B%B%B%B%B%B%B%B%B%B%B%B%B%B%B%B%B%B%B%B%B%B%B%B%B%B%B%B%B%B%B%B%B%B%B%B%B%B%B%B%B%B%B%B%B%F%8%a##",
"####%`%@%B%B%B%B%B%B%B%B%B%B%B%B%B%B%B%B%B%B%B%B%B%B%B%B%B%B%B%B%B%B%B%B%B%B%B%B%B%B%B%B%B%B%B%B%B%B%B%B%B%B%B%B%B%B%B%B%B%B%B%B%B%B%B%B%B%B%B%B%B%B%B%B%B%B%B%B%B%B%B%B%B%B%B%B%B%B%B%B%B%B%B%B%B%B%B%B%B%4%[%*$I$0$=$8$8$9$9$;$;$;$;$;$;$<$>$>$?$?$?$?$?$D$D$D$D$D$D$D$G$G$G$G$G$G$G$H$L$L$M$M$M$M$N$N$P$V$B$j%+%X%4%B%B%B%B%B%B%B%B%B%B%B%B%B%B%B%B%B%B%B%B%B%B%B%B%B%B%B%B%B%B%B%B%B%B%B%B%B%B%B%B%B%B%B%B%B%B%B%B%B%B%B%B%B%B%B%B%B%B%B%B%B%B%B%B%B%B%B%B%B%B%B%B%B%B%B%B%B%B%B%B%B%B%B%B%B%B%B%B%B%B%B%B%B%B%B%B%B%I%6%c##",
"####%b%7%I%B%B%B%B%B%B%B%B%B%B%B%B%B%B%B%B%B%B%B%B%B%B%B%B%B%B%B%B%B%B%B%B%B%B%B%B%B%B%B%B%B%B%B%B%B%B%B%B%B%B%B%B%B%B%B%B%B%B%B%B%B%B%B%B%B%B%B%B%B%B%B%B%B%B%B%B%B%B%B%B%B%B%B%B%B%B%B%B%B%B%B%B%B%B%B%B%B%4%[%*$I$0$=$9$9$;$;$;$;$;$;$<$>$>$?$?$?$?$?$D$D$D$D$D$D$D$G$G$G$G$G$G$G$H$L$L$M$M$M$M$N$N$P$V$B$j%+%X%4%B%B%B%B%B%B%B%B%B%B%B%B%B%B%B%B%B%B%B%B%B%B%B%B%B%B%B%B%B%B%B%B%B%B%B%B%B%B%B%B%B%B%B%B%B%B%B%B%B%B%B%B%B%B%B%B%B%B%B%B%B%B%B%B%B%B%B%B%B%B%B%B%B%B%B%B%B%B%B%B%B%B%B%B%B%B%B%B%B%B%B%B%B%B%B%B%B%B%H%8####",
"######%7%H%B%B%B%B%B%B%B%B%B%B%B%B%B%B%B%B%B%B%B%B%B%B%B%B%B%B%B%B%B%B%B%B%B%B%B%B%B%B%B%B%B%B%B%B%B%B%B%B%B%B%B%B%B%B%B%B%B%B%B%B%B%B%B%B%B%B%B%B%B%B%B%B%B%B%B%B%B%B%B%B%B%B%B%B%B%B%B%B%B%B%B%B%B%B%B%B%B%B%4%[%*$I$'$>$;$;$;$;$;$;$<$>$>$?$?$?$?$?$D$D$D$D$D$D$D$G$G$G$G$G$G$G$H$L$L$M$M$M$M$N$N$P$V$B$j%+%X%4%B%B%B%B%B%B%B%B%B%B%B%B%B%B%B%B%B%B%B%B%B%B%B%B%B%B%B%B%B%B%B%B%B%B%B%B%B%B%B%B%B%B%B%B%B%B%B%B%B%B%B%B%B%B%B%B%B%B%B%B%B%B%B%B%B%B%B%B%B%B%B%B%B%B%B%B%B%B%B%B%B%B%B%B%B%B%B%B%B%B%B%B%B%B%B%B%B%B%B%@%`####",
"######%`%@%B%B%B%B%B%B%B%B%B%B%B%B%B%B%B%B%B%B%B%B%B%B%B%B%B%B%B%B%B%B%B%B%B%B%B%B%B%B%B%B%B%B%B%B%B%B%B%B%B%B%B%B%B%B%B%B%B%B%B%B%B%B%B%B%B%B%B%B%B%B%B%B%B%B%B%B%B%B%B%B%B%B%B%B%B%B%B%B%B%B%B%B%B%B%B%B%B%B%B%4%[%*$I$6$F$;$;$;$;$<$>$>$?$?$?$?$?$D$D$D$D$D$D$D$G$G$G$G$G$G$G$H$L$L$M$M$M$M$N$N$P$V$B$j%+%X%4%B%B%B%B%B%B%B%B%B%B%B%B%B%B%B%B%B%B%B%B%B%B%B%B%B%B%B%B%B%B%B%B%B%B%B%B%B%B%B%B%B%B%B%B%B%B%B%B%B%B%B%B%B%B%B%B%B%B%B%B%B%B%B%B%B%B%B%B%B%B%B%B%B%B%B%B%B%B%B%B%B%B%B%B%B%B%B%B%B%B%B%B%B%B%B%B%B%B%B%F%8%a####",
"######%b%7%I%B%B%B%B%B%B%B%B%B%B%B%B%B%B%B%B%B%B%B%B%B%B%B%B%B%B%B%B%B%B%B%B%B%B%B%B%B%B%B%B%B%B%B%B%B%B%B%B%B%B%B%B%B%B%B%B%B%B%B%B%B%B%B%B%B%B%B%B%B%B%B%B%B%B%B%B%B%B%B%B%B%B%B%B%B%B%B%B%B%B%B%B%B%B%B%B%B%B%B%4%[%*$I$6$F$;$<$<$>$>$?$?$?$?$?$D$D$D$D$D$D$D$G$G$G$G$G$G$G$H$L$L$M$M$M$M$N$N$P$V$B$j%+%X%4%B%B%B%B%B%B%B%B%B%B%B%B%B%B%B%B%B%B%B%B%B%B%B%B%B%B%B%B%B%B%B%B%B%B%B%B%B%B%B%B%B%B%B%B%B%B%B%B%B%B%B%B%B%B%B%B%B%B%B%B%B%B%B%B%B%B%B%B%B%B%B%B%B%B%B%B%B%B%B%B%B%B%B%B%B%B%B%B%B%B%B%B%B%B%B%B%B%B%B%B%I%6######",
"########%9%G%B%B%B%B%B%B%B%B%B%B%B%B%B%B%B%B%B%B%B%B%B%B%B%B%B%B%B%B%B%B%B%B%B%B%B%B%B%B%B%B%B%B%B%B%B%B%B%B%B%B%B%B%B%B%B%B%B%B%B%B%B%B%B%B%B%B%B%B%B%B%B%B%B%B%B%B%B%B%B%B%B%B%B%B%B%B%B%B%B%B%B%B%B%B%B%B%B%B%B%B%4%[%*$I$6$F$<$>$>$?$?$?$?$?$D$D$D$D$D$D$D$G$G$G$G$G$G$G$H$L$L$M$M$M$M$N$N$P$V$B$j%+%X%4%B%B%B%B%B%B%B%B%B%B%B%B%B%B%B%B%B%B%B%B%B%B%B%B%B%B%B%B%B%B%B%B%B%B%B%B%B%B%B%B%B%B%B%B%B%B%B%B%B%B%B%B%B%B%B%B%B%B%B%B%B%B%B%B%B%B%B%B%B%B%B%B%B%B%B%B%B%B%B%B%B%B%B%B%B%B%B%B%B%B%B%B%B%B%B%B%B%B%B%B%B%B%I######",
"########%a%9%F%B%B%B%B%B%B%B%B%B%B%B%B%B%B%B%B%B%B%B%B%B%B%B%B%B%B%B%B%B%B%B%B%B%B%B%B%B%B%B%B%B%B%B%B%B%B%B%B%B%B%B%B%B%B%B%B%B%B%B%B%B%B%B%B%B%B%B%B%B%B%B%B%B%B%B%B%B%B%B%B%B%B%B%B%B%B%B%B%B%B%B%B%B%B%B%B%B%B%B%B%4%[%*$I$6$F$>$?$?$?$?$?$D$D$D$D$D$D$D$G$G$G$G$G$G$G$H$L$L$M$M$M$M$N$N$P$V$B$j%+%X%4%B%B%B%B%B%B%B%B%B%B%B%B%B%B%B%B%B%B%B%B%B%B%B%B%B%B%B%B%B%B%B%B%B%B%B%B%B%B%B%B%B%B%B%B%B%B%B%B%B%B%B%B%B%B%B%B%B%B%B%B%B%B%B%B%B%B%B%B%B%B%B%B%B%B%B%B%B%B%B%B%B%B%B%B%B%B%B%B%B%B%B%B%B%B%B%B%B%B%B%B%B%F%8%a######",
"##########%7%H%B%B%B%B%B%B%B%B%B%B%B%B%B%B%B%B%B%B%B%B%B%B%B%B%B%B%B%B%B%B%B%B%B%B%B%B%B%B%B%B%B%B%B%B%B%B%B%B%B%B%B%B%B%B%B%B%B%B%B%B%B%B%B%B%B%B%B%B%B%B%B%B%B%B%B%B%B%B%B%B%B%B%B%B%B%B%B%B%B%B%B%B%B%B%B%B%B%B%B%B%B%4%[%,$I$6$H$?$?$?$?$D$D$D$D$D$D$D$G$G$G$G$G$G$G$H$L$L$M$M$M$M$N$N$P$V$B$j%+%X%4%B%B%B%B%B%B%B%B%B%B%B%B%B%B%B%B%B%B%B%B%B%B%B%B%B%B%B%B%B%B%B%B%B%B%B%B%B%B%B%B%B%B%B%B%B%B%B%B%B%B%B%B%B%B%B%B%B%B%B%B%B%B%B%B%B%B%B%B%B%B%B%B%B%B%B%B%B%B%B%B%B%B%B%B%B%B%B%B%B%B%B%B%B%B%B%B%B%B%B%B%B%B%H%7########",
"##########%`%?%G%B%B%B%B%B%B%B%B%B%B%B%B%B%B%B%B%B%B%B%B%B%B%B%B%B%B%B%B%B%B%B%B%B%B%B%B%B%B%B%B%B%B%B%B%B%B%B%B%B%B%B%B%B%B%B%B%B%B%B%B%B%B%B%B%B%B%B%B%B%B%B%B%B%B%B%B%B%B%B%B%B%B%B%B%B%B%B%B%B%B%B%B%B%B%B%B%B%B%B%B%B%4%Y%,$W$6$H$?$C$D$D$D$D$D$D$D$G$G$G$G$G$G$G$H$L$L$M$M$M$M$N$N$P$V$B$j%+%X%4%B%B%B%B%B%B%B%B%B%B%B%B%B%B%B%B%B%B%B%B%B%B%B%B%B%B%B%B%B%B%B%B%B%B%B%B%B%B%B%B%B%B%B%B%B%B%B%B%B%B%B%B%B%B%B%B%B%B%B%B%B%B%B%B%B%B%B%B%B%B%B%B%B%B%B%B%B%B%B%B%B%B%B%B%B%B%B%B%B%B%B%B%B%B%B%B%B%B%B%B%B%B%B%@%`########",
"############%6%H%B%B%B%B%B%B%B%B%B%B%B%B%B%B%B%B%B%B%B%B%B%B%B%B%B%B%B%B%B%B%B%B%B%B%B%B%B%B%B%B%B%B%B%B%B%B%B%B%B%B%B%B%B%B%B%B%B%B%B%B%B%B%B%B%B%B%B%B%B%B%B%B%B%B%B%B%B%B%B%B%B%B%B%B%B%B%B%B%B%B%B%B%B%B%B%B%B%B%B%B%B%B%4%[%,$W$6$H$C$D$D$D$D$D$D$G$G$G$G$G$G$G$H$L$L$M$M$M$M$N$N$P$V$B$j%+%X%4%B%B%B%B%B%B%B%B%B%B%B%B%B%B%B%B%B%B%B%B%B%B%B%B%B%B%B%B%B%B%B%B%B%B%B%B%B%B%B%B%B%B%B%B%B%B%B%B%B%B%B%B%B%B%B%B%B%B%B%B%B%B%B%B%B%B%B%B%B%B%B%B%B%B%B%B%B%B%B%B%B%B%B%B%B%B%B%B%B%B%B%B%B%B%B%B%B%B%B%B%B%B%B%I%6%b########",
"############%`%?%H%B%B%B%B%B%B%B%B%B%B%B%B%B%B%B%B%B%B%B%B%B%B%B%B%B%B%B%B%B%B%B%B%B%B%B%B%B%B%B%B%B%B%B%B%B%B%B%B%B%B%B%B%B%B%B%B%B%B%B%B%B%B%B%B%B%B%B%B%B%B%B%B%B%B%B%B%B%B%B%B%B%B%B%B%B%B%B%B%B%B%B%B%B%B%B%B%B%B%B%B%B%B%4%Z%,$W$6$H$D$D$D$D$D$G$G$G$G$G$G$G$H$L$L$M$M$M$M$N$N$P$V$B$j%+%X%4%B%B%B%B%B%B%B%B%B%B%B%B%B%B%B%B%B%B%B%B%B%B%B%B%B%B%B%B%B%B%B%B%B%B%B%B%B%B%B%B%B%B%B%B%B%B%B%B%B%B%B%B%B%B%B%B%B%B%B%B%B%B%B%B%B%B%B%B%B%B%B%B%B%B%B%B%B%B%B%B%B%B%B%B%B%B%B%B%B%B%B%B%B%B%B%B%B%B%B%B%B%B%B%B%E%A##########",
"##############%6%H%B%B%B%B%B%B%B%B%B%B%B%B%B%B%B%B%B%B%B%B%B%B%B%B%B%B%B%B%B%B%B%B%B%B%B%B%B%B%B%B%B%B%B%B%B%B%B%B%B%B%B%B%B%B%B%B%B%B%B%B%B%B%B%B%B%B%B%B%B%B%B%B%B%B%B%B%B%B%B%B%B%B%B%B%B%B%B%B%B%B%B%B%B%B%B%B%B%B%B%B%B%B%B%4%Z%,$i$6$H$D$D$D$G$G$G$G$G$G$G$H$L$L$M$M$M$M$N$N$P$V$B$j%+%X%4%B%B%B%B%B%B%B%B%B%B%B%B%B%B%B%B%B%B%B%B%B%B%B%B%B%B%B%B%B%B%B%B%B%B%B%B%B%B%B%B%B%B%B%B%B%B%B%B%B%B%B%B%B%B%B%B%B%B%B%B%B%B%B%B%B%B%B%B%B%B%B%B%B%B%B%B%B%B%B%B%B%B%B%B%B%B%B%B%B%B%B%B%B%B%B%B%B%B%B%B%B%B%B%B%I%8%a##########",
"##############%a%9%F%B%B%B%B%B%B%B%B%B%B%B%B%B%B%B%B%B%B%B%B%B%B%B%B%B%B%B%B%B%B%B%B%B%B%B%B%B%B%B%B%B%B%B%B%B%B%B%B%B%B%B%B%B%B%B%B%B%B%B%B%B%B%B%B%B%B%B%B%B%B%B%B%B%B%B%B%B%B%B%B%B%B%B%B%B%B%B%B%B%B%B%B%B%B%B%B%B%B%B%B%B%B%B%4%X%,$i$6$H$D$G$G$G$G$G$G$G$H$L$L$M$M$M$M$N$N$P$V$B$j%+%X%4%B%B%B%B%B%B%B%B%B%B%B%B%B%B%B%B%B%B%B%B%B%B%B%B%B%B%B%B%B%B%B%B%B%B%B%B%B%B%B%B%B%B%B%B%B%B%B%B%B%B%B%B%B%B%B%B%B%B%B%B%B%B%B%B%B%B%B%B%B%B%B%B%B%B%B%B%B%B%B%B%B%B%B%B%B%B%B%B%B%B%B%B%B%B%B%B%B%B%B%B%B%B%B%B%B%H%9############",
"################%8%F%B%B%B%B%B%B%B%B%B%B%B%B%B%B%B%B%B%B%B%B%B%B%B%B%B%B%B%B%B%B%B%B%B%B%B%B%B%B%B%B%B%B%B%B%B%B%B%B%B%B%B%B%B%B%B%B%B%B%B%B%B%B%B%B%B%B%B%B%B%B%B%B%B%B%B%B%B%B%B%B%B%B%B%B%B%B%B%B%B%B%B%B%B%B%B%B%B%B%B%B%B%B%B%B%4%X%,$i$6$O$G$G$G$G$G$G$H$L$L$M$M$M$M$N$N$P$V$B$j%+%X%4%B%B%B%B%B%B%B%B%B%B%B%B%B%B%B%B%B%B%B%B%B%B%B%B%B%B%B%B%B%B%B%B%B%B%B%B%B%B%B%B%B%B%B%B%B%B%B%B%B%B%B%B%B%B%B%B%B%B%B%B%B%B%B%B%B%B%B%B%B%B%B%B%B%B%B%B%B%B%B%B%B%B%B%B%B%B%B%B%B%B%B%B%B%B%B%B%B%B%B%B%B%B%B%B%B%H%8%a############",
"################%b%7%H%B%B%B%B%B%B%B%B%B%B%B%B%B%B%B%B%B%B%B%B%B%B%B%B%B%B%B%B%B%B%B%B%B%B%B%B%B%B%B%B%B%B%B%B%B%B%B%B%B%B%B%B%B%B%B%B%B%B%B%B%B%B%B%B%B%B%B%B%B%B%B%B%B%B%B%B%B%B%B%B%B%B%B%B%B%B%B%B%B%B%B%B%B%B%B%B%B%B%B%B%B%B%B%B%4%X%,$i$A$O$G$G$G$G$H$L$L$M$M$M$M$N$N$P$V$B$j%+%X%4%B%B%B%B%B%B%B%B%B%B%B%B%B%B%B%B%B%B%B%B%B%B%B%B%B%B%B%B%B%B%B%B%B%B%B%B%B%B%B%B%B%B%B%B%B%B%B%B%B%B%B%B%B%B%B%B%B%B%B%B%B%B%B%B%B%B%B%B%B%B%B%B%B%B%B%B%B%B%B%B%B%B%B%B%B%B%B%B%B%B%B%B%B%B%B%B%B%B%B%B%B%B%B%B%B%B%F%?##############",
"##################%I%B%E%B%B%B%B%B%B%B%B%B%B%B%B%B%B%B%B%B%B%B%B%B%B%B%B%B%B%B%B%B%B%B%B%B%B%B%B%B%B%B%B%B%B%B%B%B%B%B%B%B%B%B%B%B%B%B%B%B%B%B%B%B%B%B%B%B%B%B%B%B%B%B%B%B%B%B%B%B%B%B%B%B%B%B%B%B%B%B%B%B%B%B%B%B%B%B%B%B%B%B%B%B%B%B%B%4%X%,$i$A$O$G$G$H$L$L$M$M$M$M$N$N$P$V$B$j%+%X%4%B%B%B%B%B%B%B%B%B%B%B%B%B%B%B%B%B%B%B%B%B%B%B%B%B%B%B%B%B%B%B%B%B%B%B%B%B%B%B%B%B%B%B%B%B%B%B%B%B%B%B%B%B%B%B%B%B%B%B%B%B%B%B%B%B%B%B%B%B%B%B%B%B%B%B%B%B%B%B%B%B%B%B%B%B%B%B%B%B%B%B%B%B%B%B%B%B%B%B%B%B%B%B%B%B%B%H%7%b##############",
"####################%6%I%B%B%B%B%B%B%B%B%B%B%B%B%B%B%B%B%B%B%B%B%B%B%B%B%B%B%B%B%B%B%B%B%B%B%B%B%B%B%B%B%B%B%B%B%B%B%B%B%B%B%B%B%B%B%B%B%B%B%B%B%B%B%B%B%B%B%B%B%B%B%B%B%B%B%B%B%B%B%B%B%B%B%B%B%B%B%B%B%B%B%B%B%B%B%B%B%B%B%B%B%B%B%B%B%B%4%X%,$i$A$O$G$L$L$M$M$M$M$N$N$P$V$B$j%+%X%4%B%B%B%B%B%B%B%B%B%B%B%B%B%B%B%B%B%B%B%B%B%B%B%B%B%B%B%B%B%B%B%B%B%B%B%B%B%B%B%B%B%B%B%B%B%B%B%B%B%B%B%B%B%B%B%B%B%B%B%B%B%B%B%B%B%B%B%B%B%B%B%B%B%B%B%B%B%B%B%B%B%B%B%B%B%B%B%B%B%B%B%B%B%B%B%B%B%B%B%B%B%B%B%B%B%B%B%B%I################",
"####################%a%7%H%B%B%B%B%B%B%B%B%B%B%B%B%B%B%B%B%B%B%B%B%B%B%B%B%B%B%B%B%B%B%B%B%B%B%B%B%B%B%B%B%B%B%B%B%B%B%B%B%B%B%B%B%B%B%B%B%B%B%B%B%B%B%B%B%B%B%B%B%B%B%B%B%B%B%B%B%B%B%B%B%B%B%B%B%B%B%B%B%B%B%B%B%B%B%B%B%B%B%B%B%B%B%B%B%B%4%X%,$i$A$T$L$M$M$M$M$N$N$P$V$B$j%+%X%4%B%B%B%B%B%B%B%B%B%B%B%B%B%B%B%B%B%B%B%B%B%B%B%B%B%B%B%B%B%B%B%B%B%B%B%B%B%B%B%B%B%B%B%B%B%B%B%B%B%B%B%B%B%B%B%B%B%B%B%B%B%B%B%B%B%B%B%B%B%B%B%B%B%B%B%B%B%B%B%B%B%B%B%B%B%B%B%B%B%B%B%B%B%B%B%B%B%B%B%B%B%B%B%B%B%B%B%H%6##################",
"######################%I%A%G%B%B%B%B%B%B%B%B%B%B%B%B%B%B%B%B%B%B%B%B%B%B%B%B%B%B%B%B%B%B%B%B%B%B%B%B%B%B%B%B%B%B%B%B%B%B%B%B%B%B%B%B%B%B%B%B%B%B%B%B%B%B%B%B%B%B%B%B%B%B%B%B%B%B%B%B%B%B%B%B%B%B%B%B%B%B%B%B%B%B%B%B%B%B%B%B%B%B%B%B%B%B%B%B%B%4%X%,$i$A$T$M$M$M$N$N$P$V$B$j%+%X%4%B%B%B%B%B%B%B%B%B%B%B%B%B%B%B%B%B%B%B%B%B%B%B%B%B%B%B%B%B%B%B%B%B%B%B%B%B%B%B%B%B%B%B%B%B%B%B%B%B%B%B%B%B%B%B%B%B%B%B%B%B%B%B%B%B%B%B%B%B%B%B%B%B%B%B%B%B%B%B%B%B%B%B%B%B%B%B%B%B%B%B%B%B%B%B%B%B%B%B%B%B%B%B%B%B%B%B%H%8%a##################",
"########################%8%G%B%B%B%B%B%B%B%B%B%B%B%B%B%B%B%B%B%B%B%B%B%B%B%B%B%B%B%B%B%B%B%B%B%B%B%B%B%B%B%B%B%B%B%B%B%B%B%B%B%B%B%B%B%B%B%B%B%B%B%B%B%B%B%B%B%B%B%B%B%B%B%B%B%B%B%B%B%B%B%B%B%B%B%B%B%B%B%B%B%B%B%B%B%B%B%B%B%B%B%B%B%B%B%B%B%B%4%X%,$i$A$T$M$N$N$P$V$B$j%+%X%4%B%B%B%B%B%B%B%B%B%B%B%B%B%B%B%B%B%B%B%B%B%B%B%B%B%B%B%B%B%B%B%B%B%B%B%B%B%B%B%B%B%B%B%B%B%B%B%B%B%B%B%B%B%B%B%B%B%B%B%B%B%B%B%B%B%B%B%B%B%B%B%B%B%B%B%B%B%B%B%B%B%B%B%B%B%B%B%B%B%B%B%B%B%B%B%B%B%B%B%B%B%B%B%B%B%B%B%B%C%B####################",
"########################%b%6%I%B%B%B%B%B%B%B%B%B%B%B%B%B%B%B%B%B%B%B%B%B%B%B%B%B%B%B%B%B%B%B%B%B%B%B%B%B%B%B%B%B%B%B%B%B%B%B%B%B%B%B%B%B%B%B%B%B%B%B%B%B%B%B%B%B%B%B%B%B%B%B%B%B%B%B%B%B%B%B%B%B%B%B%B%B%B%B%B%B%B%B%B%B%B%B%B%B%B%B%B%B%B%B%B%B%B%4%X%,$i$A$V$N$P$V$B$j%+%X%4%B%B%B%B%B%B%B%B%B%B%B%B%B%B%B%B%B%B%B%B%B%B%B%B%B%B%B%B%B%B%B%B%B%B%B%B%B%B%B%B%B%B%B%B%B%B%B%B%B%B%B%B%B%B%B%B%B%B%B%B%B%B%B%B%B%B%B%B%B%B%B%B%B%B%B%B%B%B%B%B%B%B%B%B%B%B%B%B%B%B%B%B%B%B%B%B%B%B%B%B%B%B%B%B%B%B%B%B%I%6######################",
"##########################%a%7%I%B%B%B%B%B%B%B%B%B%B%B%B%B%B%B%B%B%B%B%B%B%B%B%B%B%B%B%B%B%B%B%B%B%B%B%B%B%B%B%B%B%B%B%B%B%B%B%B%B%B%B%B%B%B%B%B%B%B%B%B%B%B%B%B%B%B%B%B%B%B%B%B%B%B%B%B%B%B%B%B%B%B%B%B%B%B%B%B%B%B%B%B%B%B%B%B%B%B%B%B%B%B%B%B%B%B%4%X%,$i$B$U$U$B$j%+%X%4%B%B%B%B%B%B%B%B%B%B%B%B%B%B%B%B%B%B%B%B%B%B%B%B%B%B%B%B%B%B%B%B%B%B%B%B%B%B%B%B%B%B%B%B%B%B%B%B%B%B%B%B%B%B%B%B%B%B%B%B%B%B%B%B%B%B%B%B%B%B%B%B%B%B%B%B%B%B%B%B%B%B%B%B%B%B%B%B%B%B%B%B%B%B%B%B%B%B%B%B%B%B%B%B%B%B%B%B%I%7%b######################",
"############################%`%?%H%B%B%B%B%B%B%B%B%B%B%B%B%B%B%B%B%B%B%B%B%B%B%B%B%B%B%B%B%B%B%B%B%B%B%B%B%B%B%B%B%B%B%B%B%B%B%B%B%B%B%B%B%B%B%B%B%B%B%B%B%B%B%B%B%B%B%B%B%B%B%B%B%B%B%B%B%B%B%B%B%B%B%B%B%B%B%B%B%B%B%B%B%B%B%B%B%B%B%B%B%B%B%B%B%B%B%4%X%,$j$B$B$j%+%X%4%B%B%B%B%B%B%B%B%B%B%B%B%B%B%B%B%B%B%B%B%B%B%B%B%B%B%B%B%B%B%B%B%B%B%B%B%B%B%B%B%B%B%B%B%B%B%B%B%B%B%B%B%B%B%B%B%B%B%B%B%B%B%B%B%B%B%B%B%B%B%B%B%B%B%B%B%B%B%B%B%B%B%B%B%B%B%B%B%B%B%B%B%B%B%B%B%B%B%B%B%B%B%B%B%B%B%B%B%H%?%`########################",
"##############################%I%@%H%B%B%B%B%B%B%B%B%B%B%B%B%B%B%B%B%B%B%B%B%B%B%B%B%B%B%B%B%B%B%B%B%B%B%B%B%B%B%B%B%B%B%B%B%B%B%B%B%B%B%B%B%B%B%B%B%B%B%B%B%B%B%B%B%B%B%B%B%B%B%B%B%B%B%B%B%B%B%B%B%B%B%B%B%B%B%B%B%B%B%B%B%B%B%B%B%B%B%B%B%B%B%B%B%B%B%4%X%-$i$[%,%X%4%B%B%B%B%B%B%B%B%B%B%B%B%B%B%B%B%B%B%B%B%B%B%B%B%B%B%B%B%B%B%B%B%B%B%B%B%B%B%B%B%B%B%B%B%B%B%B%B%B%B%B%B%B%B%B%B%B%B%B%B%B%B%B%B%B%B%B%B%B%B%B%B%B%B%B%B%B%B%B%B%B%B%B%B%B%B%B%B%B%B%B%B%B%B%B%B%B%B%B%B%B%B%B%B%B%B%B%B%E%A%I##########################",
"################################%@%B%H%B%B%B%B%B%B%B%B%B%B%B%B%B%B%B%B%B%B%B%B%B%B%B%B%B%B%B%B%B%B%B%B%B%B%B%B%B%B%B%B%B%B%B%B%B%B%B%B%B%B%B%B%B%B%B%B%B%B%B%B%B%B%B%B%B%B%B%B%B%B%B%B%B%B%B%B%B%B%B%B%B%B%B%B%B%B%B%B%B%B%B%B%B%B%B%B%B%B%B%B%B%B%B%B%B%B%:%Z$y$y%Z%:%B%B%B%B%B%B%B%B%B%B%B%B%B%B%B%B%B%B%B%B%B%B%B%B%B%B%B%B%B%B%B%B%B%B%B%B%B%B%B%B%B%B%B%B%B%B%B%B%B%B%B%B%B%B%B%B%B%B%B%B%B%B%B%B%B%B%B%B%B%B%B%B%B%B%B%B%B%B%B%B%B%B%B%B%B%B%B%B%B%B%B%B%B%B%B%B%B%B%B%B%B%B%B%B%B%B%B%B%E%C%?############################",
"##################################%?%E%E%B%B%B%B%B%B%B%B%B%B%B%B%B%B%B%B%B%B%B%B%B%B%B%B%B%B%B%B%B%B%B%B%B%B%B%B%B%B%B%B%B%B%B%B%B%B%B%B%B%B%B%B%B%B%B%B%B%B%B%B%B%B%B%B%B%B%B%B%B%B%B%B%B%B%B%B%B%B%B%B%B%B%B%B%B%B%B%B%B%B%B%B%B%B%B%B%B%B%B%B%B%B%B%B%B%B%;%Q%Q%;%B%B%B%B%B%B%B%B%B%B%B%B%B%B%B%B%B%B%B%B%B%B%B%B%B%B%B%B%B%B%B%B%B%B%B%B%B%B%B%B%B%B%B%B%B%B%B%B%B%B%B%B%B%B%B%B%B%B%B%B%B%B%B%B%B%B%B%B%B%B%B%B%B%B%B%B%B%B%B%B%B%B%B%B%B%B%B%B%B%B%B%B%B%B%B%B%B%B%B%B%B%B%B%B%B%B%B%B%B%G%7##############################",
"####################################%9%C%E%B%B%B%B%B%B%B%B%B%B%B%B%B%B%B%B%B%B%B%B%B%B%B%B%B%B%B%B%B%B%B%B%B%B%B%B%B%B%B%B%B%B%B%B%B%B%B%B%B%B%B%B%B%B%B%B%B%B%B%B%B%B%B%B%B%B%B%B%B%B%B%B%B%B%B%B%B%B%B%B%B%B%B%B%B%B%B%B%B%B%B%B%B%B%B%B%B%B%B%B%B%B%B%B%B%B%=%=%B%B%B%B%B%B%B%B%B%B%B%B%B%B%B%B%B%B%B%B%B%B%B%B%B%B%B%B%B%B%B%B%B%B%B%B%B%B%B%B%B%B%B%B%B%B%B%B%B%B%B%B%B%B%B%B%B%B%B%B%B%B%B%B%B%B%B%B%B%B%B%B%B%B%B%B%B%B%B%B%B%B%B%B%B%B%B%B%B%B%B%B%B%B%B%B%B%B%B%B%B%B%B%B%B%B%B%B%B%G%7################################",
"######################################%?%A%H%B%B%B%B%B%B%B%B%B%B%B%B%B%B%B%B%B%B%B%B%B%B%B%B%B%B%B%B%B%B%B%B%B%B%B%B%B%B%B%B%B%B%B%B%B%B%B%B%B%B%B%B%B%B%B%B%B%B%B%B%B%B%B%B%B%B%B%B%B%B%B%B%B%B%B%B%B%B%B%B%B%B%B%B%B%B%B%B%B%B%B%B%B%B%B%B%B%B%B%B%B%B%B%B%B%B%B%B%B%B%B%B%B%B%B%B%B%B%B%B%B%B%B%B%B%B%B%B%B%B%B%B%B%B%B%B%B%B%B%B%B%B%B%B%B%B%B%B%B%B%B%B%B%B%B%B%B%B%B%B%B%B%B%B%B%B%B%B%B%B%B%B%B%B%B%B%B%B%B%B%B%B%B%B%B%B%B%B%B%B%B%B%B%B%B%B%B%B%B%B%B%B%B%B%B%B%B%B%B%B%B%B%B%B%E%F%6##################################",
"########################################%A%@%H%B%B%B%B%B%B%B%B%B%B%B%B%B%B%B%B%B%B%B%B%B%B%B%B%B%B%B%B%B%B%B%B%B%B%B%B%B%B%B%B%B%B%B%B%B%B%B%B%B%B%B%B%B%B%B%B%B%B%B%B%B%B%B%B%B%B%B%B%B%B%B%B%B%B%B%B%B%B%B%B%B%B%B%B%B%B%B%B%B%B%B%B%B%B%B%B%B%B%B%B%B%B%B%B%B%B%B%B%B%B%B%B%B%B%B%B%B%B%B%B%B%B%B%B%B%B%B%B%B%B%B%B%B%B%B%B%B%B%B%B%B%B%B%B%B%B%B%B%B%B%B%B%B%B%B%B%B%B%B%B%B%B%B%B%B%B%B%B%B%B%B%B%B%B%B%B%B%B%B%B%B%B%B%B%B%B%B%B%B%B%B%B%B%B%B%B%B%B%B%B%B%B%B%B%B%B%B%B%B%B%B%B%H%E%8####################################",
"##########################################%I%9%I%B%B%B%B%B%B%B%B%B%B%B%B%B%B%B%B%B%B%B%B%B%B%B%B%B%B%B%B%B%B%B%B%B%B%B%B%B%B%B%B%B%B%B%B%B%B%B%B%B%B%B%B%B%B%B%B%B%B%B%B%B%B%B%B%B%B%B%B%B%B%B%B%B%B%B%B%B%B%B%B%B%B%B%B%B%B%B%B%B%B%B%B%B%B%B%B%B%B%B%B%B%B%B%B%B%B%B%B%B%B%B%B%B%B%B%B%B%B%B%B%B%B%B%B%B%B%B%B%B%B%B%B%B%B%B%B%B%B%B%B%B%B%B%B%B%B%B%B%B%B%B%B%B%B%B%B%B%B%B%B%B%B%B%B%B%B%B%B%B%B%B%B%B%B%B%B%B%B%B%B%B%B%B%B%B%B%B%B%B%B%B%B%B%B%B%B%B%B%B%B%B%B%B%B%B%B%B%B%B%B%H%@%?######################################",
"############################################%`%7%I%B%B%B%B%B%B%B%B%B%B%B%B%B%B%B%B%B%B%B%B%B%B%B%B%B%B%B%B%B%B%B%B%B%B%B%B%B%B%B%B%B%B%B%B%B%B%B%B%B%B%B%B%B%B%B%B%B%B%B%B%B%B%B%B%B%B%B%B%B%B%B%B%B%B%B%B%B%B%B%B%B%B%B%B%B%B%B%B%B%B%B%B%B%B%B%B%B%B%B%B%B%B%B%B%B%B%B%B%B%B%B%B%B%B%B%B%B%B%B%B%B%B%B%B%B%B%B%B%B%B%B%B%B%B%B%B%B%B%B%B%B%B%B%B%B%B%B%B%B%B%B%B%B%B%B%B%B%B%B%B%B%B%B%B%B%B%B%B%B%B%B%B%B%B%B%B%B%B%B%B%B%B%B%B%B%B%B%B%B%B%B%B%B%B%B%B%B%B%B%B%B%B%B%B%B%B%B%B%I%9%H########################################",
"##############################################%a%6%F%E%B%B%B%B%B%B%B%B%B%B%B%B%B%B%B%B%B%B%B%B%B%B%B%B%B%B%B%B%B%B%B%B%B%B%B%B%B%B%B%B%B%B%B%B%B%B%B%B%B%B%B%B%B%B%B%B%B%B%B%B%B%B%B%B%B%B%B%B%B%B%B%B%B%B%B%B%B%B%B%B%B%B%B%B%B%B%B%B%B%B%B%B%B%B%B%B%B%B%B%B%B%B%B%B%B%B%B%B%B%B%B%B%B%B%B%B%B%B%B%B%B%B%B%B%B%B%B%B%B%B%B%B%B%B%B%B%B%B%B%B%B%B%B%B%B%B%B%B%B%B%B%B%B%B%B%B%B%B%B%B%B%B%B%B%B%B%B%B%B%B%B%B%B%B%B%B%B%B%B%B%B%B%B%B%B%B%B%B%B%B%B%B%B%B%B%B%B%B%B%B%B%B%B%B%B%I%7%`##########################################",
"################################################%b%8%@%H%B%B%B%B%B%B%B%B%B%B%B%B%B%B%B%B%B%B%B%B%B%B%B%B%B%B%B%B%B%B%B%B%B%B%B%B%B%B%B%B%B%B%B%B%B%B%B%B%B%B%B%B%B%B%B%B%B%B%B%B%B%B%B%B%B%B%B%B%B%B%B%B%B%B%B%B%B%B%B%B%B%B%B%B%B%B%B%B%B%B%B%B%B%B%B%B%B%B%B%B%B%B%B%B%B%B%B%B%B%B%B%B%B%B%B%B%B%B%B%B%B%B%B%B%B%B%B%B%B%B%B%B%B%B%B%B%B%B%B%B%B%B%B%B%B%B%B%B%B%B%B%B%B%B%B%B%B%B%B%B%B%B%B%B%B%B%B%B%B%B%B%B%B%B%B%B%B%B%B%B%B%B%B%B%B%B%B%B%B%B%B%B%B%B%B%B%B%B%B%B%B%B%H%B%6%b############################################",
"####################################################%`%7%F%E%B%B%B%B%B%B%B%B%B%B%B%B%B%B%B%B%B%B%B%B%B%B%B%B%B%B%B%B%B%B%B%B%B%B%B%B%B%B%B%B%B%B%B%B%B%B%B%B%B%B%B%B%B%B%B%B%B%B%B%B%B%B%B%B%B%B%B%B%B%B%B%B%B%B%B%B%B%B%B%B%B%B%B%B%B%B%B%B%B%B%B%B%B%B%B%B%B%B%B%B%B%B%B%B%B%B%B%B%B%B%B%B%B%B%B%B%B%B%B%B%B%B%B%B%B%B%B%B%B%B%B%B%B%B%B%B%B%B%B%B%B%B%B%B%B%B%B%B%B%B%B%B%B%B%B%B%B%B%B%B%B%B%B%B%B%B%B%B%B%B%B%B%B%B%B%B%B%B%B%B%B%B%B%B%B%B%B%B%B%B%B%B%B%B%B%B%B%B%E%I%9%E################################################",
"######################################################%a%7%@%I%B%B%B%B%B%B%B%B%B%B%B%B%B%B%B%B%B%B%B%B%B%B%B%B%B%B%B%B%B%B%B%B%B%B%B%B%B%B%B%B%B%B%B%B%B%B%B%B%B%B%B%B%B%B%B%B%B%B%B%B%B%B%B%B%B%B%B%B%B%B%B%B%B%B%B%B%B%B%B%B%B%B%B%B%B%B%B%B%B%B%B%B%B%B%B%B%B%B%B%B%B%B%B%B%B%B%B%B%B%B%B%B%B%B%B%B%B%B%B%B%B%B%B%B%B%B%B%B%B%B%B%B%B%B%B%B%B%B%B%B%B%B%B%B%B%B%B%B%B%B%B%B%B%B%B%B%B%B%B%B%B%B%B%B%B%B%B%B%B%B%B%B%B%B%B%B%B%B%B%B%B%B%B%B%B%B%B%B%B%B%B%B%B%B%B%B%H%A%6%a##################################################",
"##########################################################%`%7%B%F%B%B%B%B%B%B%B%B%B%B%B%B%B%B%B%B%B%B%B%B%B%B%B%B%B%B%B%B%B%B%B%B%B%B%B%B%B%B%B%B%B%B%B%B%B%B%B%B%B%B%B%B%B%B%B%B%B%B%B%B%B%B%B%B%B%B%B%B%B%B%B%B%B%B%B%B%B%B%B%B%B%B%B%B%B%B%B%B%B%B%B%B%B%B%B%B%B%B%B%B%B%B%B%B%B%B%B%B%B%B%B%B%B%B%B%B%B%B%B%B%B%B%B%B%B%B%B%B%B%B%B%B%B%B%B%B%B%B%B%B%B%B%B%B%B%B%B%B%B%B%B%B%B%B%B%B%B%B%B%B%B%B%B%B%B%B%B%B%B%B%B%B%B%B%B%B%B%B%B%B%B%B%B%B%B%B%B%B%B%B%B%B%H%B%7%I######################################################",
"############################################################%b%@%8%H%F%B%B%B%B%B%B%B%B%B%B%B%B%B%B%B%B%B%B%B%B%B%B%B%B%B%B%B%B%B%B%B%B%B%B%B%B%B%B%B%B%B%B%B%B%B%B%B%B%B%B%B%B%B%B%B%B%B%B%B%B%B%B%B%B%B%B%B%B%B%B%B%B%B%B%B%B%B%B%B%B%B%B%B%B%B%B%B%B%B%B%B%B%B%B%B%B%B%B%B%B%B%B%B%B%B%B%B%B%B%B%B%B%B%B%B%B%B%B%B%B%B%B%B%B%B%B%B%B%B%B%B%B%B%B%B%B%B%B%B%B%B%B%B%B%B%B%B%B%B%B%B%B%B%B%B%B%B%B%B%B%B%B%B%B%B%B%B%B%B%B%B%B%B%B%B%B%B%B%B%B%B%B%B%B%B%B%B%B%F%H%8%?%b########################################################",
"################################################################%a%9%9%H%F%B%B%B%B%B%B%B%B%B%B%B%B%B%B%B%B%B%B%B%B%B%B%B%B%B%B%B%B%B%B%B%B%B%B%B%B%B%B%B%B%B%B%B%B%B%B%B%B%B%B%B%B%B%B%B%B%B%B%B%B%B%B%B%B%B%B%B%B%B%B%B%B%B%B%B%B%B%B%B%B%B%B%B%B%B%B%B%B%B%B%B%B%B%B%B%B%B%B%B%B%B%B%B%B%B%B%B%B%B%B%B%B%B%B%B%B%B%B%B%B%B%B%B%B%B%B%B%B%B%B%B%B%B%B%B%B%B%B%B%B%B%B%B%B%B%B%B%B%B%B%B%B%B%B%B%B%B%B%B%B%B%B%B%B%B%B%B%B%B%B%B%B%B%B%B%B%B%B%B%B%B%B%B%B%I%B%8%9%a############################################################",
"####################################################################%a%?%8%B%I%H%B%B%B%B%B%B%B%B%B%B%B%B%B%B%B%B%B%B%B%B%B%B%B%B%B%B%B%B%B%B%B%B%B%B%B%B%B%B%B%B%B%B%B%B%B%B%B%B%B%B%B%B%B%B%B%B%B%B%B%B%B%B%B%B%B%B%B%B%B%B%B%B%B%B%B%B%B%B%B%B%B%B%B%B%B%B%B%B%B%B%B%B%B%B%B%B%B%B%B%B%B%B%B%B%B%B%B%B%B%B%B%B%B%B%B%B%B%B%B%B%B%B%B%B%B%B%B%B%B%B%B%B%B%B%B%B%B%B%B%B%B%B%B%B%B%B%B%B%B%B%B%B%B%B%B%B%B%B%B%B%B%B%B%B%B%B%B%B%B%B%B%B%B%B%B%B%B%B%F%H%@%7%@%a################################################################",
"########################################################################%b%C%6%?%H%I%G%B%B%B%B%B%B%B%B%B%B%B%B%B%B%B%B%B%B%B%B%B%B%B%B%B%B%B%B%B%B%B%B%B%B%B%B%B%B%B%B%B%B%B%B%B%B%B%B%B%B%B%B%B%B%B%B%B%B%B%B%B%B%B%B%B%B%B%B%B%B%B%B%B%B%B%B%B%B%B%B%B%B%B%B%B%B%B%B%B%B%B%B%B%B%B%B%B%B%B%B%B%B%B%B%B%B%B%B%B%B%B%B%B%B%B%B%B%B%B%B%B%B%B%B%B%B%B%B%B%B%B%B%B%B%B%B%B%B%B%B%B%B%B%B%B%B%B%B%B%B%B%B%B%B%B%B%B%B%B%B%B%B%B%B%B%B%B%B%B%B%B%B%F%I%B%9%7%`%b####################################################################",
"############################################################################%b%`%9%7%?%E%I%F%E%B%B%B%B%B%B%B%B%B%B%B%B%B%B%B%B%B%B%B%B%B%B%B%B%B%B%B%B%B%B%B%B%B%B%B%B%B%B%B%B%B%B%B%B%B%B%B%B%B%B%B%B%B%B%B%B%B%B%B%B%B%B%B%B%B%B%B%B%B%B%B%B%B%B%B%B%B%B%B%B%B%B%B%B%B%B%B%B%B%B%B%B%B%B%B%B%B%B%B%B%B%B%B%B%B%B%B%B%B%B%B%B%B%B%B%B%B%B%B%B%B%B%B%B%B%B%B%B%B%B%B%B%B%B%B%B%B%B%B%B%B%B%B%B%B%B%B%B%B%B%B%B%B%B%B%B%B%B%B%B%B%B%B%G%F%I%H%@%8%7%F%a##########################################################################",
"##################################################################################%b%`%9%6%8%?%B%H%F%F%H%E%B%B%B%B%B%B%B%B%B%B%B%B%B%B%B%B%B%B%B%B%B%B%B%B%B%B%B%B%B%B%B%B%B%B%B%B%B%B%B%B%B%B%B%B%B%B%B%B%B%B%B%B%B%B%B%B%B%B%B%B%B%B%B%B%B%B%B%B%B%B%B%B%B%B%B%B%B%B%B%B%B%B%B%B%B%B%B%B%B%B%B%B%B%B%B%B%B%B%B%B%B%B%B%B%B%B%B%B%B%B%B%B%B%B%B%B%B%B%B%B%B%B%B%B%B%B%B%B%B%B%B%B%B%B%B%B%B%B%B%B%B%B%B%B%B%B%B%B%B%B%B%H%H%F%F%H%A%?%8%6%8%`%a################################################################################",
"##########################################################################################%a%`%F%?%8%9%?%?%A%A%B%B%B%B%B%B%B%B%B%B%B%B%B%B%B%B%B%B%B%B%B%B%B%B%B%B%B%B%B%B%B%B%B%B%B%B%B%B%B%B%B%B%B%B%B%B%B%B%B%B%B%B%B%B%B%B%B%B%B%B%B%B%B%B%B%B%B%B%B%B%B%B%B%B%B%B%B%B%B%B%B%B%B%B%B%B%B%B%B%B%B%B%B%B%B%B%B%B%B%B%B%B%B%B%B%B%B%B%B%B%B%B%B%B%B%B%B%B%B%B%B%B%B%B%B%B%B%B%B%B%B%B%B%B%B%B%B%B%B%B%B%B%B%B%B%B%A%A%@%?%?%8%8%?%H%`%a%c######################################################################################",
"##################################################################################################%b%b%a%`%`%I%H%B%B%B%B%B%B%B%B%B%B%B%B%B%B%B%B%B%B%B%B%B%B%B%B%B%B%B%B%B%B%B%B%B%B%B%B%B%B%B%B%B%B%B%B%B%B%B%B%B%B%B%B%B%B%B%B%B%B%B%B%B%B%B%B%B%B%B%B%B%B%B%B%B%B%B%B%B%B%B%B%B%B%B%B%B%B%B%B%B%B%B%B%B%B%B%B%B%B%B%B%B%B%B%B%B%B%B%B%B%B%B%B%B%B%B%B%B%B%B%B%B%B%B%B%B%B%B%B%B%B%B%B%B%B%B%B%B%B%B%B%B%B%B%B%I%I%`%`%a%a%b##################################################################################################"
};
