/* XPM */
static const char * firstislamiccoin128_xpm[] = {
"128 128 246 2",
"## c None",
"#$ c #F3C95A",
"#% c #F0C757",
"#& c #EFC655",
"#' c #EEC452",
"#( c #EEC451",
"#) c #ECC454",
"#* c #ECC351",
"#+ c #EEC24E",
"#, c #ECC14E",
"#- c #EBBF4B",
"#. c #E6C152",
"#/ c #E2C258",
"#0 c #E1C157",
"#1 c #E1C156",
"#2 c #DFC159",
"#3 c #E1C055",
"#4 c #E0C055",
"#5 c #E0C054",
"#6 c #DEC057",
"#7 c #DDBF55",
"#8 c #EABD46",
"#9 c #DFBE51",
"#: c #DEBD50",
"#; c #DEBD4F",
"#< c #DEBC4F",
"#= c #DEBC4E",
"#> c #DDBE54",
"#? c #DCBE53",
"#@ c #DCBD51",
"#A c #DDBC4E",
"#B c #DDBC4D",
"#C c #DBBD51",
"#D c #DBBC52",
"#E c #DBBC50",
"#F c #DABD52",
"#G c #E7BA40",
"#H c #E5B93E",
"#I c #E6B637",
"#J c #E2B63B",
"#K c #E3B436",
"#L c #E2B435",
"#M c #E3B335",
"#N c #E1B335",
"#O c #E0B335",
"#P c #DFB336",
"#Q c #DEB236",
"#R c #DDBB4D",
"#S c #DDBB4C",
"#T c #DCBB4B",
"#U c #DCBA4A",
"#V c #DABB4E",
"#W c #D9BA4D",
"#X c #DAB948",
"#Y c #DCB63F",
"#Z c #DBB338",
"#[ c #D9B136",
"#] c #D7B748",
"#^ c #D8B43F",
"#_ c #D5B442",
"#` c #D7B33F",
"#a c #D7B33E",
"#b c #D7B33D",
"#c c #D4B340",
"#d c #D6B23D",
"#e c #D6B23C",
"#f c #D4B23E",
"#g c #D6B13B",
"#h c #D5B13A",
"#i c #D3B13D",
"#j c #D9B036",
"#k c #D7B037",
"#l c #D6B037",
"#m c #D5B03A",
"#n c #D5B039",
"#o c #D5B037",
"#p c #D5AF37",
"#q c #D4B038",
"#r c #D4AF38",
"#s c #D4AF37",
"#t c #D3B03B",
"#u c #D3AF37",
"#v c #D2AF39",
"#w c #D1AF3A",
"#x c #DDAE33",
"#y c #DBAD33",
"#z c #DAAC33",
"#{ c #D9AC33",
"#| c #D4AE37",
"#} c #D2AE37",
"#~ c #D7AA32",
"$# c #D1AE38",
"$$ c #D1AE37",
"$% c #D0AE37",
"$& c #D0AD37",
"$' c #CDAD38",
"$( c #CCAC37",
"$) c #D7A931",
"$* c #D5A831",
"$+ c #D3A731",
"$, c #D1A530",
"$- c #D0A330",
"$. c #CDA935",
"$/ c #CCA935",
"$0 c #CCA835",
"$1 c #CCA834",
"$2 c #CCA532",
"$3 c #CBA935",
"$4 c #CBA734",
"$5 c #CBA230",
"$6 c #CAAA36",
"$7 c #C9A735",
"$8 c #CAA634",
"$9 c #C9A634",
"$: c #C9A534",
"$; c #C9A533",
"$< c #C8A735",
"$= c #BBAA42",
"$> c #C3A535",
"$? c #ABAC52",
"$@ c #ACAB51",
"$A c #ABAB52",
"$B c #ABAA50",
"$C c #A8AA52",
"$D c #A9A84C",
"$E c #C7A333",
"$F c #C6A333",
"$G c #C6A232",
"$H c #C5A434",
"$I c #C5A233",
"$J c #C5A232",
"$K c #C4A433",
"$L c #C4A333",
"$M c #C5A132",
"$N c #C4A132",
"$O c #C4A032",
"$P c #C2A233",
"$Q c #C2A032",
"$R c #C09F32",
"$S c #ADA13B",
"$T c #A59F3C",
"$U c #A09C3B",
"$V c #9C9B3C",
"$W c #8F9C48",
"$X c #859B4E",
"$Y c #839B4F",
"$Z c #849A4D",
"$[ c #9C993A",
"$] c #9B973A",
"$^ c #8C973F",
"$_ c #849849",
"$` c #839747",
"$a c #7E9443",
"$b c #7C9140",
"$c c #7B9040",
"$d c #7A8F3F",
"$e c #788E3F",
"$f c #6A914E",
"$g c #619053",
"$h c #618F52",
"$i c #698D44",
"$j c #628A45",
"$k c #5F8D4F",
"$l c #5E8A4A",
"$m c #5D8A49",
"$n c #5B8A4B",
"$o c #5C8947",
"$p c #5C8846",
"$q c #5B8845",
"$r c #598846",
"$s c #5A8745",
"$t c #578343",
"$u c #558444",
"$v c #558243",
"$w c #4F854B",
"$x c #508245",
"$y c #478148",
"$z c #407F48",
"${ c #3A804F",
"$| c #387D4B",
"$} c #387C4A",
"$~ c #367C4B",
"%# c #347A49",
"%$ c #2B784B",
"%% c #21754C",
"%& c #1D744D",
"%' c #18724E",
"%( c #13704E",
"%) c #11704E",
"%* c #0F704F",
"%+ c #0F6F4F",
"%, c #0F6F4E",
"%- c #0E6F4F",
"%. c #0C7755",
"%/ c #0C7655",
"%0 c #0C7554",
"%1 c #0C7453",
"%2 c #0C7353",
"%3 c #0D6F4F",
"%4 c #0C6F4F",
"%5 c #0D6E4F",
"%6 c #0C6E4F",
"%7 c #0B7252",
"%8 c #0B7151",
"%9 c #0B7050",
"%: c #0B6F50",
"%; c #0B6E4F",
"%< c #0A6E4F",
"%= c #0B6D4F",
"%> c #0B6D4D",
"%? c #0A6D4F",
"%@ c #096D4F",
"%A c #086D4F",
"%B c #076D50",
"%C c #076D4F",
"%D c #0B6C4E",
"%E c #0B6C4D",
"%F c #0B6C4C",
"%G c #076C50",
"%H c #076C4F",
"%I c #0B6B4E",
"%J c #0B6B4D",
"%K c #0A694B",
"%L c #066D50",
"%M c #066C50",
"%N c #066C4F",
"%O c #056C50",
"%P c #046C50",
"%Q c #036B50",
"%R c #016B50",
"%S c #016950",
"%T c #006B51",
"%U c #006A51",
"%V c #006A50",
"%W c #006951",
"%X c #006950",
"%Y c #00694F",
"%Z c #006851",
"%[ c #00684F",
"%] c #00684E",
"%^ c #07654A",
"%_ c #095F44",
"%` c #095A41",
"%a c #08513A",
"%b c #06422F",
"%c c #053426",
"##############################################%b%`%^%J%>%;%;%;%;%;%;%;%;%;%;%;%;%;%;%;%;%;%;%;%;%;%;%;%;%;%;%;%;%;%;%;%;%;%;%;%;%;%;%;%;%;%;%;%;%;%;%;%;%;%;%;%;%;%;%;%;%;%;%;%;%;%;%;%;%;%;%;%;%;%;%;%;%E%K%_%a%b##############################################",
"######################################%b%_%:%1%2%7%9%:%;%;%;%;%;%;%;%;%;%;%;%;%;%;%;%;%;%;%;%;%;%;%;%;%;%;%;%;%;%;%;%;%;%;%;%;%;%;%;%;%;%;%;%;%;%;%;%;%;%;%;%;%;%;%;%;%;%;%;%;%;%;%;%;%;%;%;%;%;%;%;%;%;%;%:%9%7%1%7%^%a########################################",
"##################################%_%1%/%8%;%>%>%E%;%;%;%;%;%;%;%;%;%;%;%;%;%;%;%;%;%;%;%;%;%;%;%;%;%;%;%;%;%;%;%;%;%;%;%;%;%;%;%;%;%;%;%;%;%;%;%;%;%;%;%;%;%;%;%;%;%;%;%;%;%;%;%;%;%;%;%;%;%;%;%;%;%;%;%;%;%;%E%>%E%9%1%0%^%c##################################",
"##############################%^%/%8%E%E%D%;%;%;%;%;%;%;%;%;%;%;%;%;%;%;%;%;%;%;%;%;%;%;%;%;%;%;%;%;%;%;%;%;%;%;%;%;%;%;%;%;%;%;%;%;%;%;%;%;%;%;%;%;%;%;%;%;%;%;%;%;%;%;%;%;%;%;%;%;%;%;%;%;%;%;%;%;%;%;%;%;%;%;%;%;%;%>%E%9%/%K################################",
"##########################%`%/%9%I%E%;%;%;%;%;%;%;%;%;%;%;%;%;%;%;%;%;%;%;%;%;%;%;%;%;%;%;%;%;%;%;%;%;%;%;%;%;%;%;%;%;%;%;%;%;%;%;%;%;%;%;%;%;%;%;%;%;%;%;%;%;%;%;%;%;%;%;%;%;%;%;%;%;%;%;%;%;%;%;%;%;%;%;%;%;%;%;%;%;%;%;%=%I%9%/%`############################",
"######################%b%7%7%I%=%;%;%;%;%;%;%;%;%;%;%;%;%;%;%;%;%;%;%;%;%;%;%;%;%;%;%;%;%;%;%;%;%;%;%;%;%;%;%;%;%;%;%;%;%;%;%;%;%;%;%;%;%;%;%;%;%;%;%;%;%;%;%;%;%;%;%;%;%;%;%;%;%;%;%;%;%;%;%;%;%;%;%;%;%;%;%;%;%;%;%;%;%;%;%;%=%I%2%9##########################",
"####################%a%.%D%E%;%;%;%;%;%;%;%;%;%;%;%;%;%;%;%;%;%;%;%;%;%;%;%;%;%;%;%;%;%;%;%;%;%;%;%;%;%;%;%;%;%;%;%;%;%;%;%;%;%;%;%;%;%;%;%;%;%;%;%;%;%;%;%;%;%;%;%;%;%;%;%;%;%;%;%;%;%;%;%;%;%;%;%;%;%;%;%;%;%;%;%;%;%;%;%;%;%;%;%E%;%.%a######################",
"##################%_%0%F%;%;%;%;%;%;%;%;%;%;%;%;%;%;%;%;%;%;%;%;%;%;%;%;%;%;%;%;%;%;%;%;%;%;%;%;%;%;%;%;%;%;%;%;%;%;%;%;%;%;%;%6%6%;%;%;%;%;%;%;%;%;%;%;%;%;%;%;%;%;%;%;%;%;%;%;%;%;%;%;%;%;%;%;%;%;%;%;%;%;%;%;%;%;%;%;%;%;%;%;%;%;%;%E%/%`####################",
"################%_%1%J%;%;%;%;%;%;%;%;%;%;%;%;%;%;%;%;%;%;%;%;%;%;%;%;%;%;%;%;%;%;%;%;%;%;%;%;%;%;%;%;%;%;%;%;%;%;%;%;%;%;%;%4%@%@%4%;%;%;%;%;%;%;%;%;%;%;%;%;%;%;%;%;%;%;%;%;%;%;%;%;%;%;%;%;%;%;%;%;%;%;%;%;%;%;%;%;%;%;%;%;%;%;%;%;%;%F%0%`##################",
"##############%_%1%J%;%;%;%;%;%;%;%;%;%;%;%;%;%;%;%;%;%;%;%;%;%;%;%;%;%;%;%;%;%;%;%;%;%;%;%;%;%;%;%;%;%;%;%;%;%;%;%;%;%;%;%3%N%(%(%N%3%;%;%;%;%;%;%;%;%;%;%;%;%;%;%;%;%;%;%;%;%;%;%;%;%;%;%;%;%;%;%;%;%;%;%;%;%;%;%;%;%;%;%;%;%;%;%;%;%;%;%J%0%`################",
"############%a%0%J%;%;%;%;%;%;%;%;%;%;%;%;%;%;%;%;%;%;%;%;%;%;%;%;%;%;%;%;%;%;%;%;%;%;%;%;%;%;%;%;%;%;%;%;%;%;%;%;%;%;%;%3%H%6$@$@%5%H%3%;%;%;%;%;%;%;%;%;%;%;%;%;%;%;%;%;%;%;%;%;%;%;%;%;%;%;%;%;%;%;%;%;%;%;%;%;%;%;%;%;%;%;%;%;%;%;%;%;%;%J%/%a##############",
"##########%c%.%F%;%;%;%;%;%;%;%;%;%;%;%;%;%;%;%;%;%;%;%;%;%;%;%;%;%;%;%;%;%;%;%;%;%;%;%;%;%;%;%;%;%;%;%;%;%;%;%;%;%;%;%3%H%5$?#*#*$@%3%H%3%;%;%;%;%;%;%;%;%;%;%;%;%;%;%;%;%;%;%;%;%;%;%;%;%;%;%;%;%;%;%;%;%;%;%;%;%;%;%;%;%;%;%;%;%;%;%;%;%;%;%F%.%b############",
"##########%2%D%;%;%;%;%;%;%;%;%;%;%;%;%;%;%;%;%;%;%;%;%;%;%;%;%;%;%;%;%;%;%;%;%;%;%;%;%;%;%;%;%;%;%;%;%;%;%;%;%;%;%;%3%H%5$A#'#D#C#($B%5%H%3%;%;%;%;%;%;%;%;%;%;%;%;%;%;%;%;%;%;%;%;%;%;%;%;%;%;%;%;%;%;%;%;%;%;%;%;%;%;%;%;%;%;%;%;%;%;%;%;%;%;%I%0############",
"########%`%7%E%;%;%;%;%;%;%;%;%;%;%;%;%;%;%;%;%;%;%;%;%;%;%;%;%;%;%;%;%;%;%;%;%;%;%;%;%;%;%;%;%;%;%;%;%;%;%;%;%;%;%3%H%5$A#'#D#9#9#E#*$B%5%H%3%;%;%;%;%;%;%;%;%;%;%;%;%;%;%;%;%;%;%;%;%;%;%;%;%;%;%;%;%;%;%;%;%;%;%;%;%;%;%;%;%;%;%;%;%;%;%;%;%;%E%:%K##########",
"########%/%I%;%;%;%;%;%;%;%;%;%;%;%;%;%;%;%;%;%;%;%;%;%;%;%;%;%;%;%;%;%;%;%;%;%;%;%;%;%;%;%;%;%;%;%;%;%;%;%;%;%;%3%H%5$A#'#D#9#9#:#:#E#+$B%5%H%3%;%;%;%;%;%;%;%;%;%;%;%;%;%;%;%;%;%;%;%;%;%;%;%;%;%;%;%;%;%;%;%;%;%;%;%;%;%;%;%;%;%;%;%;%;%;%;%;%;%E%0%a########",
"######%^%:%;%;%;%;%;%;%;%;%;%;%;%;%;%;%;%;%;%;%;%;%;%;%;%;%;%;%;%;%;%;%;%;%;%;%;%;%;%;%;%;%;%;%;%;%;%;%;%;%;%;%3%H%5$A#'#D#9#9#:#:#:#;#V#,$B%5%H%3%;%;%;%;%;%;%;%;%;%;%;%;%;%;%;%;%;%;%;%;%;%;%;%;%;%;%;%;%;%;%;%;%;%;%;%;%;%;%;%;%;%;%;%;%;%;%;%;%;%E%1########",
"######%/%I%;%;%;%;%;%;%;%;%;%;%;%;%;%;%;%;%;%;%;%;%;%;%;%;%;%;%;%;%;%;%;%;%;%;%;%;%;%;%;%;%;%;%;%;%;%;%;%;%;%3%H%5$A#'#D#9#9#:#:#:#;#<#=#W#,$D%5%H%3%;%;%;%;%;%;%;%;%;%;%;%;%;%;%;%;%;%;%;%;%;%;%;%;%;%;%;%;%;%;%;%;%;%;%;%;%;%;%;%;%;%;%;%;%;%;%;%;%>%7%`######",
"####%_%8%E%;%;%;%;%;%;%;%;%;%;%;%;%;%;%;%;%;%;%;%;%;%;%;%;%;%;%;%;%;%;%;%;%;%;%;%;%;%;%;%;%;%;%;%;%;%;%;%;%3%H%5$A#'#D#9#9#:#:#:#;#<#=#A#B#W#,$D%5%H%3%;%;%;%;%;%;%;%;%;%;%;%;%;%;%;%;%;%;%;%;%;%;%;%;%;%;%;%;%;%;%;%;%;%;%;%;%;%;%;%;%;%;%;%;%;%;%;%;%E%0######",
"####%1%>%;%;%;%;%;%;%;%;%;%;%;%;%;%;%;%;%;%;%;%;%;%;%;%;%;%;%;%;%;%;%;%;%;%;%;%;%;%;%;%;%;%;%;%;%;%;%;%;%3%H%5$A#'#D#9#9#:#:#:#;#<#=#A#B#B#R#W#-$D%5%H%3%;%;%;%;%;%;%;%;%;%;%;%;%;%;%;%;%;%;%;%;%;%;%;%;%;%;%;%;%;%;%;%;%;%;%;%;%;%;%;%;%;%;%;%;%;%;%;%>%2%`####",
"##%b%/%I%;%;%;%;%;%;%;%;%;%;%;%;%;%;%;%;%;%;%;%;%;%;%;%;%;%;%;%;%;%;%;%;%;%;%;%;%;%;%;%;%;%;%;%;%;%;%;%3%H%5$A#'#D#9#9#:#:#:#;#<#=#A#B#B#R#S#S#W#-$D%5%C%3%;%;%;%;%;%;%;%;%;%;%;%;%;%;%;%;%;%;%;%;%;%;%;%;%;%;%;%;%;%;%;%;%;%;%;%;%;%;%;%;%;%;%;%;%;%;%;%E%7####",
"##%_%8%D%;%;%;%;%;%;%;%;%;%;%;%;%;%;%;%;%;%;%;%;%;%;%;%;%;%;%;%;%;%;%;%;%;%;%;%;%;%;%;%;%;%;%;%;%;%;%3%H%5$A#'#D#9#9#:#:#:#;#<#=#A#B#B#R#S#S#T#U#W#-$D%5%H%3%;%;%;%;%;%;%;%;%;%;%;%;%;%;%;%;%;%;%;%;%;%;%;%;%;%;%;%;%;%;%;%;%;%;%;%;%;%;%;%;%;%;%;%;%;%;%I%/%b##",
"##%:%;%;%;%;%;%;%;%;%;%;%;%;%;%;%;%;%;%;%;%;%;%;%;%;%;%;%;%;%;%;%;%;%;%;%;%;%;%;%;%;%;%;%;%;%;%;%;%3%H%5$A#'#D#9#9#:#:#:#;#<#=#A#B#B#R#S#S#T#U#U#U#]#-$D%5%C%3%;%;%;%;%;%;%;%;%;%;%;%;%;%;%;%;%;%;%;%;%;%;%;%;%;%;%;%;%;%;%;%;%;%;%;%;%;%;%;%;%;%;%;%;%;%D%7%_##",
"##%1%>%;%;%;%;%;%;%;%;%;%;%;%;%;%;%;%;%;%;%;%;%;%;%;%;%;%;%;%;%;%;%;%;%;%;%;%;%;%;%;%;%;%;%;%;%;%3%H%5$A#'#D#9#9#:#:#:#;#<#=#A#B#B#R#S#S#T#U#U#U#U#U#]#8$D%5%H%3%;%;%;%;%;%;%;%;%;%;%;%;%;%;%;%;%;%;%;%;%;%;%;%;%;%;%;%;%;%;%;%;%;%;%;%;%;%;%;%;%;%;%;%;%;%;%:##",
"%b%1%>%;%;%;%;%;%;%;%;%;%;%;%;%;%;%;%;%;%;%;%;%;%;%4%+%-%-%-%-%-%-%-%-%-%-%-%-%-%-%-%-%-%-%-%-%*%Q%@$C#*#F#@#@#E#E#E#E#V#V#V#V#W#W#W#W#W#W#W#X#X#]#]#]#]#8$D%?%Q%+%-%-%-%-%-%-%-%-%-%-%-%-%-%-%-%-%-%-%-%-%-%6%;%;%;%;%;%;%;%;%;%;%;%;%;%;%;%;%;%;%;%;%;%;%>%1##",
"%`%7%E%;%;%;%;%;%;%;%;%;%;%;%;%;%;%;%;%;%;%;%;%;%6%O%]%]%]%]%]%]%]%]%]%]%]%]%]%[%[%[%[%[%[%Y%[%[%&$@#$#.#(#(#*#*#*#+#+#,#,#,#,#,#-#-#-#-#-#-#-#-#-#8#8#8#8#+$=%&%X%X%X%X%X%X%X%X%X%X%X%X%X%X%X%X%X%X%X%X%X%X%O%6%;%;%;%;%;%;%;%;%;%;%;%;%;%;%;%;%;%;%;%;%;%>%2%a",
"%_%9%;%;%;%;%;%;%;%;%;%;%;%;%;%;%;%;%;%;%;%;%;%6%N%$$g$g$g$g$g$g$g$g$g$g$h$h$h$h$h$h$h$h$h$k$f$w$w$W$Y$X$X$X$X$X$X$X$X$X$X$X$X$X$X$Z$Z$Z$Z$Z$_$Z$_$_$_$_$_$`$W$w$w$f$n$l$l$l$l$m$m$m$m$m$m$m$m$m$m$m$o$o$o$j%$%N%6%;%;%;%;%;%;%;%;%;%;%;%;%;%;%;%;%;%;%;%;%=%8%_",
"%J%:%;%;%;%;%;%;%;%;%;%;%;%;%;%;%;%;%;%;%;%;%;%-%]$g#$#$#$#$#$#$#$#$#$#%#%#%#%#%#&#&#&#&#)#%#)$w%Y%[%Y%[%[%[%Y%Y%Y%Y%Y%Y%Y%Y%Y%Y%Y%Y%Y%Y%Y%Y%Y%Y%Y%Y%Y%X%X%X%X%X$y#G#8#G#G#G#G#G#G#G#H#H#H#H#H#H#H#H#J#J#J#G$j%X%-%;%;%;%;%;%;%;%;%;%;%;%;%;%;%;%;%;%;%;%;%;%:%K",
"%>%;%;%;%;%;%;%;%;%;%;%;%;%;%;%;%;%;%;%;%;%;%;%-%]$g#$#2#2#2#2#2#2#2#6#6#6#6#6#7#7#7#7#F#3#F${%[%+%-%-%-%-%-%-%-%-%-%-%-%-%-%-%-%-%-%-%-%-%-%-%-%-%-%-%-%-%-%-%+%Z$~#_#Y#_#_#_#_#_#c#c#c#c#f#f#f#f#i#i#i#w#J$o%X%-%;%;%;%;%;%;%;%;%;%;%;%;%;%;%;%;%;%;%;%;%;%;%D",
"%;%;%;%;%;%;%;%;%;%;%;%;%;%;%;%;%;%;%;%;%;%;%;%-%]$g#$#2#/#/#/#/#/#/#0#0#1#1#3#4#4#5#>#.#?${%Y%*%;%;%;%;%;%;%;%;%;%;%;%;%;%;%;%;%;%;%;%;%;%;%;%;%;%;%;%;%;%;%;%;%*%X$|#_#Y#_#^#^#^#^#^#^#`#a#a#b#d#e#e#e#t#J$o%X%-%;%;%;%;%;%;%;%;%;%;%;%;%;%;%;%;%;%;%;%;%;%;%;",
"%;%;%;%;%;%;%;%;%;%;%;%;%;%;%;%;%;%;%;%;%;%;%;%-%]$g#$#2#/#/#/#/#/#0#0#1#1#3#4#4#5#>#.#?${%Y%*%;%;%;%;%;%;%;%;%;%;%;%;%;%;%;%;%;%;%;%;%;%;%;%;%;%;%;%;%;%;%;%;%;%;%*%X$|#_#Y#_#^#^#^#^#`#a#a#b#d#e#e#e#g#t#J$o%X%-%;%;%;%;%;%;%;%;%;%;%;%;%;%;%;%;%;%;%;%;%;%;%;",
"%;%;%;%;%;%;%;%;%;%;%;%;%;%;%;%;%;%;%;%;%;%;%;%-%]$g#$#2#/#/#/#/#0#0#1#1#3#4#4#5#>#.#?${%Y%*%;%;%;%;%;%;%;%;%;%;%;%;%;%;%;%;%;%;%;%;%;%;%;%;%;%;%;%;%;%;%;%;%;%;%;%;%*%X$|#_#Y#c#^#^#`#a#a#b#d#e#e#e#g#g#v#J$o%X%-%;%;%;%;%;%;%;%;%;%;%;%;%;%;%;%;%;%;%;%;%;%;%;",
"%;%;%;%;%;%;%;%;%;%;%;%;%;%;%;%;%;%;%;%;%;%;%;%-%]$g#$#2#/#/#/#0#0#1#1#3#4#4#5#>#.#?${%Y%*%;%;%;%;%;%;%;%;%;%;%;%;%;%;%;%;%;%;%;%;%;%;%;%;%;%;%;%;%;%;%;%;%;%;%;%;%;%;%*%X$|#c#Y#c#`#a#a#b#d#e#e#e#g#g#h#v#K$p%W%-%;%;%;%;%;%;%;%;%;%;%;%;%;%;%;%;%;%;%;%;%;%;%;",
"%;%;%;%;%;%;%;%;%;%;%;%;%;%;%;%;%;%;%;%;%;%;%;%-%]$g#$#2#/#/#0#0#1#1#3#4#4#5#>#.#?${%Y%*%;%;%;%;%;%;%;%;%;%;%;%;%;%;%;%;%;%;%;%;%;%;%;%;%;%;%;%;%;%;%;%;%;%;%;%;%;%;%;%;%*%X$|#c#Y#f#a#b#d#e#e#e#g#g#h#h#v#K$p%W%-%;%;%;%;%;%;%;%;%;%;%;%;%;%;%;%;%;%;%;%;%;%;%;",
"%;%;%;%;%;%;%;%;%;%;%;%;%;%;%;%;%;%;%;%;%;%;%;%-%]$g#$#2#/#0#0#1#1#3#4#4#5#>#.#?${%Y%*%;%;%;%;%;%;%;%;%;%;%;%;%;%;%;%;%;%;%;%;%;%;%;%;%;%;%;%;%;%;%;%;%;%;%;%;%;%;%;%;%;%;%+%V$|#f#Y#f#d#e#e#e#g#g#h#h#m#v#K$p%W%-%;%;%;%;%;%;%;%;%;%;%;%;%;%;%;%;%;%;%;%;%;%;%;",
"%;%;%;%;%;%;%;%;%;%;%;%;%;%;%;%;%;%;%;%;%;%;%;%-%]$g#$#6#0#0#1#1#3#4#4#5#>#.#?${%Y%*%;%;%;%;%;%;%;%;%;%;%;%;%;%;%;%;%;%;%;%;%;%;%;%;%;%;%;%;%;%;%;%;%;%;%;%;%;%;%;%;%;%;%;%;%+%V$|#f#Y#i#e#e#g#g#h#h#n#n#v#L$q%W%-%;%;%;%;%;%;%;%;%;%;%;%;%;%;%;%;%;%;%;%;%;%;%;",
"%;%;%;%;%;%;%;%;%;%;%;%;%;%;%;%;%;%;%;%;%;%;%;%-%]$g#%#6#0#1#1#3#4#4#5#>#.#?${%Y%*%;%;%;%;%;%;%;%;%;%;%;%;%;%;%;%;%;%;%;%;%;%;%;%;%;%;%;%;%;%;%;%;%;%;%;%;%;%;%;%;%;%;%;%;%;%;%+%V$|#i#Z#i#g#g#h#h#n#n#n$##L$q%U%-%;%;%;%;%;%;%;%;%;%;%;%;%;%;%;%;%;%;%;%;%;%;%;",
"%;%;%;%;%;%;%;%;%;%;%;%;%;%;%;%;%;%;%;%;%;%;%;%-%]$h#%#6#1#1#3#4#4#5#>#.#?${%Y%*%;%;%;%;%;%;%;%;%;%;%;%;%;%;%;%;%;%;%;%;%;%;%;%;%;%;%;%;%;%;%;%;%;%;%;%;%;%;%;%;%;%;%;%;%;%;%;%;%+%V$|#i#Z#t#h#h#n#n#n#q$##M$q%U%-%;%;%;%;%;%;%;%;%;%;%;%;%;%;%;%;%;%;%;%;%;%;%;",
"%;%;%;%;%;%;%;%;%;%;%;%;%;%;%;%;%;%;%;%;%;%;%;%-%]$h#%#6#1#3#4#4#5#>#.#?${%Y%*%;%;%;%;%;%;%;%;%;%;%;%;%;%;%;%;%;%;%;%;%;%;%;%;%;%;%;%;%;%;%;%;%;%;%;%;%;%;%;%;%;%;%;%;%;%;%;%;%;%;%+%V$|#t#Z#v#n#n#n#q#r$##M$q%U%-%;%;%;%;%;%;%;%;%;%;%;%;%;%;%;%;%;%;%;%;%;%;%;",
"%;%;%;%;%;%;%;%;%;%;%;%;%;%;%;%;%;%;%;%;%;%;%;%-%]$h#%#6#3#4#4#5#>#.#?${%Y%*%;%;%;%;%;%;%;%;%;%;%;%;%;%;%;%;%;%;%;%;%;%;%;%;%;%;%;%;%;%;%;%;%;%;%;%;%;%;%;%;%;%;%;%;%;%;%;%;%;%;%;%;%+%V$|#v#Z#v#n#q#r#s$$#M$q%U%-%;%;%;%;%;%;%;%;%;%;%;%;%;%;%;%;%;%;%;%;%;%;%;",
"%;%;%;%;%;%;%;%;%;%;%;%;%;%;%;%;%;%;%;%;%;%;%;%-%[$h#%#7#4#4#5#>#.#?${%Y%*%;%;%;%;%;%;%;%;%;%;%;%;%;%;%;%;%;%;%;%;%;%;%;%;%;%;%;%;%;%;%;%;%;%;%;%;%;%;%;%;%;%;%;%;%;%;%;%;%;%;%;%;%;%;%+%V$}#v#Z#v#r#s#s$$#N$q%U%-%;%;%;%;%;%;%;%;%;%;%;%;%;%;%;%;%;%;%;%;%;%;%;",
"%;%;%;%;%;%;%;%;%;%;%;%;%;%;%;%;%;%;%;%;%;%;%;%-%[$h#&#7#4#5#>#.#?${%Y%*%;%;%;%;%;%;%;%;%;%;%;%;%;%;%;%;%;%;%;%;%;%;%6%-%-%-%;%;%;%;%;%;%;%;%;%;%;%;%;%;%;%;%;%;%;%;%;%;%;%;%;%;%;%;%;%;%+%V$}$##[$$#s#s$&#N$q%U%-%;%;%;%;%;%;%;%;%;%;%;%;%;%;%;%;%;%;%;%;%;%;%;",
"%;%;%;%;%;%;%;%;%;%;%;%;%;%;%;%;%;%;%;%;%;%;%;%-%[$h#&#7#5#>#.#?${%Y%*%;%;%;%;%;%;%;%;%;%;%;%;%;%;%;%;%;%;%;%;%6%-%6%M%V%W%W%;%;%;%;%;%;%;%;%;%;%;%;%;%;%;%;%;%;%;%;%;%;%;%;%;%;%;%;%;%;%;%+%U$}$%#[$$#|$&#N$q%U%-%;%;%;%;%;%;%;%;%;%;%;%;%;%;%;%;%;%;%;%;%;%;%;",
"%;%;%;%;%;%;%;%;%;%;%;%;%;%;%;%;%;%;%;%;%;%;%;%-%[$h#&#7#>#.#?${%Y%*%;%;%;%;%;%;%;%;%;%;%;%;%;%;%;%;%;%;%;%6%-%B%W%P%%$y$i$^$z%O%6%;%;%;%;%;%;%;%;%;%;%;%;%;%;%;%;%;%;%;%;%;%;%;%;%;%;%;%;%;%+%U$}$$#j$&$&#O$q%U%-%;%;%;%;%;%;%;%;%;%;%;%;%;%;%;%;%;%;%;%;%;%;%;",
"%;%;%;%;%;%;%;%;%;%;%;%;%;%;%;%;%;%;%;%;%;%;%;%-%[$h#&#F#.#?${%Y%*%;%;%;%;%;%;%;%;%;%;%;%;%;%;%;%;%;%;%;%-%M%U%&$j$T$(#Q#I$b%A%6%;%;%;%;%;%;%;%;%;%;%;%;%;%;%;%;%;%;%;%;%;%;%;%;%;%;%;%;%;%;%;%+%U$}$&#j$(#O$s%U%-%;%;%;%;%;%;%;%;%;%;%;%;%;%;%;%;%;%;%;%;%;%;%;",
"%;%;%;%;%;%;%;%;%;%;%;%;%;%;%;%;%;%;%;%;%;%;%;%-%[$h#)#3#?${%Y%*%;%;%;%;%;%;%;%;%;%;%;%;%;%;%;%;%;%;%3%;%W%%$a$(#L#Q#u#O$e%Z%;%6%;%;%;%;%;%;%;%;%;%;%;%;%;%;%;%;%;%;%;%;%;%;%;%;%;%;%;%;%;%;%;%;%+%U$}$&#|#x$s%U%-%;%;%;%;%;%;%;%;%;%;%;%;%;%;%;%;%;%;%;%;%;%;%;",
"%;%;%;%;%;%;%;%;%;%;%;%;%;%;%;%;%;%;%;%;%;%;%;%-%[$k#&#F${%Y%*%;%;%;%;%;%;%;%;%;%;%;%;%;%;%;%;%;%;%-%O%A$i$'#K#k$$$&#O$V%Q%5%6%;%;%;%;%;%;%;%;%;%;%;%;%;%;%;%;%;%;%;%;%;%;%;%;%;%;%;%;%;%;%;%;%;%;%+%U$}$(#M$s%U%-%;%;%;%;%;%;%;%;%;%;%;%;%;%;%;%;%;%;%;%;%;%;%;",
"%;%;%;%;%;%;%;%;%;%;%;%;%;%;%;%;%;%;%;%;%;%;%;%-%[$f#)${%Y%*%;%;%;%;%;%;%;%;%;%;%;%;%;%;%;%;%;%;%+%U%%$S#K#l$%#u#u#j$6%'%G%3%;%;%;%;%;%;%;%;%;%;%;%;%;%;%;%;%;%;%;%;%;%;%;%;%;%;%;%;%;%;%;%;%;%;%;%;%+%U%##j$j%U%-%;%;%;%;%;%;%;%;%;%;%;%;%;%;%;%;%;%;%;%;%;%;%;",
"%;%;%;%;%;%;%;%;%;%;%;%;%;%;%;%;%;%;%;%;%;%;%;%*%[$w$w%[%*%;%;%;%;%;%;%;%;%;%;%;%;%;%;%;%;%;%;%-%U$z$(#Q$%#u#s#s$$#N$r%W%+%;%;%;%;%;%;%;%;%;%;%;%;%;%;%;%;%;%;%;%;%;%;%;%;%;%;%;%;%;%;%;%;%;%;%;%;%;%;%+%W$y$y%W%+%;%;%;%;%;%;%;%;%;%;%;%;%;%;%;%;%;%;%;%;%;%;%;",
"%;%;%;%;%;%;%;%;%;%;%;%;%;%;%;%;%;%;%;%;%;%;%3%O%&$w%Y%*%;%;%;%;%;%;%;%;%;%;%;%;%;%;%;%;%;%;%-%U$y#k#[$%#s#s#s#}#Q$S%<%;%;%;%;%;%;%;%;%;%;%;%;%6%6%;%;%;%6%;%;%;%;%;%;%;%;%;%;%;%;%;%;%;%;%;%;%;%;%;%;%;%-%U$x%'%O%3%;%;%;%;%;%;%;%;%;%;%;%;%;%;%;%;%;%;%;%;%;%;",
"%;%;%;%;%;%;%;%;%;%;%;%;%;%;%;%;%;%;%;%;%;%3%H%=$@$W%[%-%;%;%;%;%;%;%;%;%;%;%;%;%;%;%;%;%;%-%U$z#k#k$$#s#s#s#s$$#L$q%W%-%;%;%;%;%;%;%;%;%;%;%6%A%@%6%;%6%B%;%;%;%;%;%;%;%;%;%;%;%;%;%;%;%;%;%;%;%;%;%;%;%-%U$^$S%=%B%3%;%;%;%;%;%;%;%;%;%;%;%;%;%;%;%;%;%;%;%;%;",
"%;%;%;%;%;%;%;%;%;%;%;%;%;%;%;%;%;%;%;%;%3%H%5$C#$$Y%[%-%;%;%;%;%;%;%;%;%;%;%;%;%;%;%;%;%3%O%%$(#[#}#s#s#s#s#u#k$6%'%C%6%;%;%;%;%;%;%;%;%;%6%C%&%(%C%3%M%%%;%;%;%;%;%;%;%;%;%;%;%;%;%;%;%;%;%;%;%;%;%;%;%-%U$c#I$V%5%B%3%;%;%;%;%;%;%;%;%;%;%;%;%;%;%;%;%;%;%;%;",
"%;%;%;%;%;%;%;%;%;%;%;%;%;%;%;%;%;%;%;%3%H%5$A#*#.$X%[%-%;%;%;%;%;%;%;%;%;%;%;%;%;%;%;%;%;%A$S#P$$#s#s#s#s#s$$#N$^%S%-%;%;%;%;%;%;%;%;%;%6%-%Q%#$^%P%W$y$a%S%-%6%;%;%;%;%;%;%;%;%;%;%;%;%;%;%;%;%;%;%;%;%-%U$b#j#{$U%5%B%3%;%;%;%;%;%;%;%;%;%;%;%;%;%;%;%;%;%;%;",
"%;%;%;%;%;%;%;%;%;%;%;%;%;%;%;%;%;%;%3%H%5$A#'#F#($X%[%-%;%;%;%;%;%;%;%;%;%;%;%;%;%;%;%-%W$i#K$%#s#s#s#s#s#s$$#L$p%W%-%;%;%;%;%;%;%;%;%6%C%M%C%'#o$i%(#s$e%W%;%P%;%;%;%;%;%;%;%;%;%;%;%;%;%;%;%;%;%;%;%;%-%U$b#x$<#x$U%5%B%3%;%;%;%;%;%;%;%;%;%;%;%;%;%;%;%;%;%;",
"%;%;%;%;%;%;%;%;%;%;%;%;%;%;%;%;%;%3%H%5$A#'#D#@#($X%[%-%;%;%;%;%;%;%;%;%;%;%;%;%;%;%6%M%%$'#l#u#s#s#s#s#s#s#u#[$|%R%3%;%;%;%;%;%;%;%6%@%&%%%<%O$S#k$S#I$y%Z%'%$%3%<%;%;%;%;%;%;%;%;%;%;%;%;%;%;%;%;%;%;%-%U$b#x$/$3#x$U%5%B%3%;%;%;%;%;%;%;%;%;%;%;%;%;%;%;%;%;",
"%;%;%;%;%;%;%;%;%;%;%;%;%;%;%;%;%3%H%5$A#'#D#9#@#*$X%Y%-%;%;%;%;%;%;%;%;%;%;%;%;%;%;%-%W$a#K$%#s#s#s#s#s#s#u#l$'%%%M%6%;%;%;%;%;%;%;%6%A%&$V$($T$6#k#j#p$S$S$<$u%B%6%;%;%;%;%;%;%;%;%;%;%;%;%;%;%;%;%;%;%-%U$b#x$3$.$3#y$U%5%B%3%;%;%;%;%;%;%;%;%;%;%;%;%;%;%;%;",
"%;%;%;%;%;%;%;%;%;%;%;%;%;%;%;%3%H%5$A#'#D#9#9#E#*$X%Y%-%;%;%;%;%;%;%;%;%;%;%;%;%;%6%L%&$(#k#u#s#s#s#s#s#s#u#j$>%(%A%6%;%;%;%;%;%;%;%;%6%O%+$^#Q#l#u#u#u#Q$>$z%U%6%;%;%;%;%;%;%;%;%;%;%;%;%;%;%;%;%;%;%;%-%U$b#x$3$.$.$7#y$V%5%B%3%;%;%;%;%;%;%;%;%;%;%;%;%;%;%;",
"%;%;%;%;%;%;%;%;%;%;%;%;%;%;%3%H%5$A#'#D#9#9#:#E#*$X%Y%-%;%;%;%;%;%;%;%;%;%;%;%;%;%-%W$j#L$$#s#s#s#s#s#s#s#u#[$=%)%@%6%;%;%;%;%;%;%;%;%;%+%Z%)$=#k#u#s#}#[$i%Z%;%6%;%;%;%;%;%;%;%;%;%;%;%;%;%;%;%;%;%;%;%-%U$b#x$3$.$.$.$7#{$[%5%B%3%;%;%;%;%;%;%;%;%;%;%;%;%;%;",
"%;%;%;%;%;%;%;%;%;%;%;%;%;%3%H%5$A#'#D#9#9#:#:#E#+$X%Y%-%;%;%;%;%;%;%;%;%;%;%;%;%;%4%P$T#Q#}#s#s#s#s#s#s#s#u#[$>%)%@%6%;%;%;%;%;%;%;%;%6%M$z$$#I#p#u#}#u#Q#I$^%)%?%6%;%;%;%;%;%;%;%;%;%;%;%;%;%;%;%;%;%;%-%U$b#y$3$.$.$.$0$<#{$[%5%B%3%;%;%;%;%;%;%;%;%;%;%;%;%;",
"%;%;%;%;%;%;%;%;%;%;%;%;%3%H%5$A#'#D#9#9#:#:#:#E#+$X%Y%-%;%;%;%;%;%;%;%;%;%;%;%;%6%M%%$'#l#u#s#s#s#s#s#s#s#u#k$6%'%C%6%;%;%;%;%;%;%;%6%M%$$^$a$p$=#Q#Q#[$a$j$^$j%?%;%;%;%;%;%;%;%;%;%;%;%;%;%;%;%;%;%;%;%-%U$c#y$3$.$.$0$1$1$9#~$[%5%B%3%;%;%;%;%;%;%;%;%;%;%;%;",
"%;%;%;%;%;%;%;%;%;%;%;%3%H%5$A#'#D#9#9#:#:#:#;#V#,$X%Y%-%;%;%;%;%;%;%;%;%;%;%;%;%-%V$y#Q#}#s#s#s#s#s#s#s#s#s#s#s%$%P%3%;%;%;%;%;%;%;%;%;%-%R%Z%V$>$>$b#I$x%Z%U%@%3%;%;%;%;%;%;%;%;%;%;%;%;%;%;%;%;%;%;%;%-%U$c#y$3$.$0$1$1$4$4$<#~$[%5%B%3%;%;%;%;%;%;%;%;%;%;%;",
"%;%;%;%;%;%;%;%;%;%;%3%H%5$A#'#D#9#9#:#:#:#;#<#V#,$X%Y%-%;%;%;%;%;%;%;%;%;%;%;%;%-%W$i#K$$#s#s#s#s#s#s#s#s#s#}#P$y%V%-%;%;%;%;%;%;%;%;%;%<%-%@%%$'$}%Z$T$a%S%)%;%;%;%;%;%;%;%;%;%;%;%;%;%;%;%;%;%;%;%;%;%-%U$c#y$7$0$1$1$4$4$4$4$H#~$[%6%B%3%;%;%;%;%;%;%;%;%;%;",
"%;%;%;%;%;%;%;%;%;%3%H%5$A#'#D#9#9#:#:#:#;#<#=#V#,$X%Y%-%;%;%;%;%;%;%;%;%;%;%;%;%-%U$^#M$$#s#s#s#s#s#s#s#s#s$$#K$c%W%-%;%;%;%;%;%;%;%;%;%;%5%Q%#$r%U%@%&$j%O%4%;%;%;%;%;%;%;%;%;%;%;%;%;%;%;%;%;%;%;%;%;%-%U$c#z$7$1$1$4$4$4$4$8$8$H#~$]%5%B%3%;%;%;%;%;%;%;%;%;",
"%;%;%;%;%;%;%;%;%3%N%;$A#'#D#9#9#:#:#:#;#<#=#A#V#,$X%Y%-%;%;%;%;%;%;%;%;%;%;%;%;%3%R$V#O$$#s#s#s#s#s#s#s#s#s#}#Q$S%@%;%;%;%;%;%;%;%;%;%;%;%;%<%,%C%;%6%A%6%6%;%;%;%;%;%;%;%;%;%;%;%;%;%;%;%;%;%;%;%;%;%;%-%U$c#z$7$1$4$4$4$4$8$8$8$8$H$)$]%;%M%6%;%;%;%;%;%;%;%;",
"%;%;%;%;%;%;%;%6%@%($@#*#D#9#9#:#:#:#;#<#=#A#B#W#,$X%Y%-%;%;%;%;%;%;%;%;%;%;%;%;%3%Q$U#Q#}#s#s#s#s#s#s#s#s#s#s#u#[$~%Q%3%;%;%;%;%;%;%;%;%;%;%;%<%6%;%;%6%;%;%;%;%;%;%;%;%;%;%;%;%;%;%;%;%;%;%;%;%;%;%;%;%-%U$c#{$7$4$4$4$4$8$8$8$9$:$;$H$+$U%(%@%6%;%;%;%;%;%;%;",
"%;%;%;%;%;%;%;%6%@%($@#*#C#9#:#:#:#;#<#=#A#B#B#W#-$X%Y%-%;%;%;%;%;%;%;%;%;%;%;%;%3%Q$U#Q#}#s#s#s#s#s#s#s#s#s#s$$#N$^%U%-%;%;%;%;%;%;%;%;%;%;%;%;%;%;%;%;%;%;%;%;%;%;%;%;%;%;%;%;%;%;%;%;%;%;%;%;%;%;%;%;%-%U$c#z$9$4$4$4$8$8$8$9$:$;$;$K$+$U%(%@%6%;%;%;%;%;%;%;",
"%;%;%;%;%;%;%;%;%3%N%;$@#(#E#:#:#;#<#=#A#B#B#R#W#-$Z%Y%-%;%;%;%;%;%;%;%;%;%;%;%;%3%R$V#O$$#s#s#s#s#s#s#s#s#s#s#s#p#u%$%P%3%;%;%;%;%;%;%;%;%;%;%;%;%;%;%;%;%;%;%;%;%;%;%;%;%;%;%;%;%;%;%;%;%;%;%;%;%;%;%;%-%U$d#{$9$4$4$8$8$8$9$:$;$;$K$*$]%;%M%6%;%;%;%;%;%;%;%;",
"%;%;%;%;%;%;%;%;%;%3%H%5$B#*#E#;#<#=#A#B#B#R#S#W#-$Z%Y%-%;%;%;%;%;%;%;%;%;%;%;%;%-%U$^#M$$#s#s#s#s#s#s#s#s#s#s#s$$#O$V%S%-%;%;%;%;%;%;%;%;%;%;%;%;%;%;%;%;%;%;%;%;%;%;%;%;%;%;%;%;%;%;%;%;%;%;%;%;%;%;%;%-%U$d#~$9$4$8$8$8$9$:$;$;$K$*$]%6%B%3%;%;%;%;%;%;%;%;%;",
"%;%;%;%;%;%;%;%;%;%;%3%H%5$B#+#V#=#A#B#B#R#S#S#W#-$Z%Y%-%;%;%;%;%;%;%;%;%;%;%;%;%-%W$i#K$$#s#s#s#s#s#s#s#s#s#s#s#s#}#O$u%W%+%;%;%;%;%;%;%;%;%;%;%;%;%;%;%;%;%;%;%;%;%;%;%;%;%;%;%;%;%;%;%;%;%;%;%;%;%;%;%-%U$d#~$9$8$8$8$9$:$;$;$K$*$]%6%B%3%;%;%;%;%;%;%;%;%;%;",
"%;%;%;%;%;%;%;%;%;%;%;%3%H%5$B#,#W#B#B#R#S#S#T#W#-$Z%Y%-%;%;%;%;%;%;%;%;%;%;%;%;%-%V$y#Q#}#s#s#s#s#s#s#s#s#s#s#s#s#u#l$$%$%V%+%;%;%;%;%;%;%;%;%;%;%;%;%;%;%;%;%;%;%;%;%;%;%;%;%;%;%;%;%;%;%;%;%;%;%;%;%;%-%U$d#~$:$8$8$9$:$;$;$K$*$]%6%B%3%;%;%;%;%;%;%;%;%;%;%;",
"%;%;%;%;%;%;%;%;%;%;%;%;%3%H%5$D#,#W#R#S#S#T#U#W#-$Z%Y%-%;%;%;%;%;%;%;%;%;%;%;%;%6%M%%$'#l#u#s#s#s#s#s#s#s#s#s#s#s#s#}#[$>%%%S%+%;%;%;%;%;%;%;%;%;%;%;%;%;%;%;%;%;%;%;%;%;%;%;%;%;%;%;%;%;%;%;%;%;%;%;%;%-%U$d#~$:$8$9$:$;$;$K$*$]%6%B%3%;%;%;%;%;%;%;%;%;%;%;%;",
"%;%;%;%;%;%;%;%;%;%;%;%;%;%3%H%5$D#,#W#S#T#U#U#X#-$_%Y%-%;%;%;%;%;%;%;%;%;%;%;%;%;%4%P$T#Q#}#s#s#s#s#s#s#s#s#s#s#s#s#s$$#Q$>%$%W%-%6%;%;%;%;%;%;%;%;%;%;%;%;%;%;%;%;%;%6%;%;%;%;%;%;%;%;%;%;%;%;%;%;%;%;%-%U$d#~$:$9$:$;$;$K$*$]%6%B%3%;%;%;%;%;%;%;%;%;%;%;%;%;",
"%;%;%;%;%;%;%;%;%;%;%;%;%;%;%3%H%5$D#-#W#U#U#U#X#-$_%Y%-%;%;%;%;%;%;%;%;%;%;%;%;%;%-%W$j#L$$#s#s#s#s#s#s#s#s#s#s#s#s#s#s$$#[$'$y%W%B%+%6%;%;%;%;%;%;%;%;%;%;%;%;%;%6%-%C%<%;%;%;%;%;%;%;%;%;%;%;%;%;%;%;%-%U$d#~$H$:$;$;$K$*$]%6%B%3%;%;%;%;%;%;%;%;%;%;%;%;%;%;",
"%;%;%;%;%;%;%;%;%;%;%;%;%;%;%;%3%H%5$D#-#W#U#U#]#-$_%Y%-%;%;%;%;%;%;%;%;%;%;%;%;%;%6%L%&$(#k#u#s#s#s#s#s#s#s#s#s#s#s#s#s#s$$#k#Q$^%&%W%M%-%-%3%6%;%;%;%;%;%6%3%-%3%O%W%&%-%<%;%;%;%;%;%;%;%;%;%;%;%;%;%;%-%U$d#~$H$;$;$K$*$]%6%B%3%;%;%;%;%;%;%;%;%;%;%;%;%;%;%;",
"%;%;%;%;%;%;%;%;%;%;%;%;%;%;%;%;%3%C%5$D#-#]#U#]#8$_%Y%-%;%;%;%;%;%;%;%;%;%;%;%;%;%;%-%W$a#K$%#s#s#s#s#s#s#s#s#s#s#s#s#s#s#s#u#}#M$6$e%%%V%U%P%@%6%3%3%3%6%@%P%U%R%%$a$e%Q%3%;%;%;%;%;%;%;%;%;%;%;%;%;%;%-%U$e$)$F$;$K$*$]%6%B%3%;%;%;%;%;%;%;%;%;%;%;%;%;%;%;%;",
"%;%;%;%;%;%;%;%;%;%;%;%;%;%;%;%;%;%3%C%5$D#-#]#]#8$_%Y%-%;%;%;%;%;%;%;%;%;%;%;%;%;%;%6%M%%$'#l#u#s#s#s#s#s#s#s#s#s#s#s#s#s#s#s#s$$#k#L$'$V$r%$%(%L%Q%R%Q%B%(%$$s$V$$#Q%%%O%5%;%;%;%;%;%;%;%;%;%;%;%;%;%;%-%U$e$)$F$K$*$]%6%B%3%;%;%;%;%;%;%;%;%;%;%;%;%;%;%;%;%;",
"%;%;%;%;%;%;%;%;%;%;%;%;%;%;%;%;%;%;%3%C%5$D#8#]#8$_%X%-%;%;%;%;%;%;%;%;%;%;%;%;%;%;%;%-%W$i#K$%#s#s#s#s#s#s#s#s#s#s#s#s#s#s#s#s#s#u$$#l#O#N#s$>$S$V$V$V$S$>#p#M#Q#I$i%W%-%;%;%;%;%;%;%;%;%;%;%;%;%;%;%;%-%U$e$)$P$*$]%6%B%3%;%;%;%;%;%;%;%;%;%;%;%;%;%;%;%;%;%;",
"%;%;%;%;%;%;%;%;%;%;%;%;%;%;%;%;%;%;%;%3%C%5$D#8#8$_%X%-%;%;%;%;%;%;%;%;%;%;%;%;%;%;%;%;%;%A$S#P$$#s#s#s#s#s#s#s#s#s#s#s#s#s#s#s#s#s#s#u$$$$#s#[#Q#P#O#P#Q#[#s$'#Q$T%A%;%;%;%;%;%;%;%;%;%;%;%;%;%;%;%;%;%-%U$e$+$+$]%6%B%3%;%;%;%;%;%;%;%;%;%;%;%;%;%;%;%;%;%;%;",
"%;%;%;%;%;%;%;%;%;%;%;%;%;%;%;%;%;%;%;%;%3%C%5$D#+$`%X%-%;%;%;%;%;%;%;%;%;%;%;%;%;%;%;%;%3%O%%$(#[#}#s#s#s#s#s#s#s#s#s#s#s#s#s#s#s#s#s#s#s#s#s#u#}$$$$$$#}#u$$#[$(%%%O%3%;%;%;%;%;%;%;%;%;%;%;%;%;%;%;%;%-%U$e#x$]%6%B%3%;%;%;%;%;%;%;%;%;%;%;%;%;%;%;%;%;%;%;%;",
"%;%;%;%;%;%;%;%;%;%;%;%;%;%;%;%;%;%;%;%;%;%3%C%=$=$W%S%-%;%;%;%;%;%;%;%;%;%;%;%;%;%;%;%;%;%-%V$z#k#k$$#s#s#s#s#s#s#s#s#s#s#s#s#s#s#s#s#s#s#s#s#s#s#s#s#s#s$$#k#k$z%U%-%;%;%;%;%;%;%;%;%;%;%;%;%;%;%;%;%;%-%U$^$T%?%B%3%;%;%;%;%;%;%;%;%;%;%;%;%;%;%;%;%;%;%;%;%;",
"%;%;%;%;%;%;%;%;%;%;%;%;%;%;%;%;%;%;%;%;%;%;%3%O%'$w%X%-%;%;%;%;%;%;%;%;%;%;%;%;%;%;%;%;%;%;%-%U$y#k#[$%#s#s#s#s#s#s#s#s#s#s#s#s#s#s#s#s#s#s#s#s#s#s#s#s$%#[#k$y%U%-%;%;%;%;%;%;%;%;%;%;%;%;%;%;%;%;%;%;%-%U$y%'%O%3%;%;%;%;%;%;%;%;%;%;%;%;%;%;%;%;%;%;%;%;%;%;",
"%;%;%;%;%;%;%;%;%;%;%;%;%;%;%;%;%;%;%;%;%;%;%;%+%X$w$y%Z%*%;%;%;%;%;%;%;%;%;%;%;%;%;%;%;%;%;%;%-%U$z$(#Q$%#u#s#s#s#s#s#s#s#s#s#s#s#s#s#s#s#s#s#s#s#s#u$%#Q$($z%U%-%;%;%;%;%;%;%;%;%;%;%;%;%;%;%;%;%;%;%+%W$z$y%U%+%;%;%;%;%;%;%;%;%;%;%;%;%;%;%;%;%;%;%;%;%;%;%;",
"%;%;%;%;%;%;%;%;%;%;%;%;%;%;%;%;%;%;%;%;%;%;%;%-%S$j#G$~%X%*%;%;%;%;%;%;%;%;%;%;%;%;%;%;%;%;%;%;%+%U%%$S#K#l$%#u#s#s#s#s#s#s#s#s#s#s#s#s#s#s#s#s#u$%#l#K$S%%%U%+%;%;%;%;%;%;%;%;%;%;%;%;%;%;%;%;%;%;%+%U%#$+$q%U%-%;%;%;%;%;%;%;%;%;%;%;%;%;%;%;%;%;%;%;%;%;%;%;",
"%;%;%;%;%;%;%;%;%;%;%;%;%;%;%;%;%;%;%;%;%;%;%;%-%X$n#8#_$|%X%*%;%;%;%;%;%;%;%;%;%;%;%;%;%;%;%;%;%;%-%O%A$i$'#K#l$$#}#u#s#s#s#s#s#s#s#s#s#s#u#}$$#l#K$'$i%A%O%-%;%;%;%;%;%;%;%;%;%;%;%;%;%;%;%;%;%;%+%U%#$P$)$u%U%-%;%;%;%;%;%;%;%;%;%;%;%;%;%;%;%;%;%;%;%;%;%;%;",
"%;%;%;%;%;%;%;%;%;%;%;%;%;%;%;%;%;%;%;%;%;%;%;%-%X$l#G#Y#_$|%X%+%;%;%;%;%;%;%;%;%;%;%;%;%;%;%;%;%;%;%3%;%W%%$a$(#L#Q#l#}$$$$$$#}#}$$$$$$#}#l#Q#L$($a%%%W%;%3%;%;%;%;%;%;%;%;%;%;%;%;%;%;%;%;%;%;%+%U%#$L$;$,$t%U%-%;%;%;%;%;%;%;%;%;%;%;%;%;%;%;%;%;%;%;%;%;%;%;",
"%;%;%;%;%;%;%;%;%;%;%;%;%;%;%;%;%;%;%;%;%;%;%;%-%X$l#G#_#Y#_$|%X%+%;%;%;%;%;%;%;%;%;%;%;%;%;%;%;%;%;%;%;%-%M%U%&$j$T$'#Q#K#M#O#Q#Q#O#M#K#Q$'$T$j%&%U%M%-%;%;%;%;%;%;%;%;%;%;%;%;%;%;%;%;%;%;%;%+%U%#$L$2$P$+$t%U%-%;%;%;%;%;%;%;%;%;%;%;%;%;%;%;%;%;%;%;%;%;%;%;",
"%;%;%;%;%;%;%;%;%;%;%;%;%;%;%;%;%;%;%;%;%;%;%;%-%X$l#G#_#_#Y#c$|%X%+%;%;%;%;%;%;%;%;%;%;%;%;%;%;%;%;%;%;%;%6%-%B%W%P%%$y$i$^$V$U$U$V$^$i$y%%%P%W%B%-%6%;%;%;%;%;%;%;%;%;%;%;%;%;%;%;%;%;%;%;%+%U%#$L$2$I$L$+$t%U%-%;%;%;%;%;%;%;%;%;%;%;%;%;%;%;%;%;%;%;%;%;%;%;",
"%;%;%;%;%;%;%;%;%;%;%;%;%;%;%;%;%;%;%;%;%;%;%;%-%X$l#G#_#^#_#Y#c$|%X%+%;%;%;%;%;%;%;%;%;%;%;%;%;%;%;%;%;%;%;%;%6%-%6%M%V%W%U%R%Q%Q%R%U%W%V%M%6%-%6%;%;%;%;%;%;%;%;%;%;%;%;%;%;%;%;%;%;%;%;%+%U%#$L$2$I$E$P$+$t%U%-%;%;%;%;%;%;%;%;%;%;%;%;%;%;%;%;%;%;%;%;%;%;%;",
"%;%;%;%;%;%;%;%;%;%;%;%;%;%;%;%;%;%;%;%;%;%;%;%-%X$m#G#_#^#^#c#Y#c$|%V%+%;%;%;%;%;%;%;%;%;%;%;%;%;%;%;%;%;%;%;%;%;%;%6%-%-%-%3%3%3%3%-%-%-%6%;%;%;%;%;%;%;%;%;%;%;%;%;%;%;%;%;%;%;%;%;%;%+%U%#$L$2$I$E$F$P$,$t%U%-%;%;%;%;%;%;%;%;%;%;%;%;%;%;%;%;%;%;%;%;%;%;%;",
"%;%;%;%;%;%;%;%;%;%;%;%;%;%;%;%;%;%;%;%;%;%;%;%-%X$m#G#_#^#^#^#c#Y#f$|%X%+%;%;%;%;%;%;%;%;%;%;%;%;%;%;%;%;%;%;%;%;%;%;%;%;%;%;%;%;%;%;%;%;%;%;%;%;%;%;%;%;%;%;%;%;%;%;%;%;%;%;%;%;%;%;%+%U%#$L$2$I$E$F$G$N$,$v%U%-%;%;%;%;%;%;%;%;%;%;%;%;%;%;%;%;%;%;%;%;%;%;%;",
"%;%;%;%;%;%;%;%;%;%;%;%;%;%;%;%;%;%;%;%;%;%;%;%-%X$m#G#c#^#^#^#`#f#Y#f$|%V%+%;%;%;%;%;%;%;%;%;%;%;%;%;%;%;%;%;%;%;%;%;%;%;%;%;%;%;%;%;%;%;%;%;%;%;%;%;%;%;%;%;%;%;%;%;%;%;%;%;%;%;%;%+%U%#$L$2$I$E$F$G$G$Q$,$v%U%-%;%;%;%;%;%;%;%;%;%;%;%;%;%;%;%;%;%;%;%;%;%;%;",
"%;%;%;%;%;%;%;%;%;%;%;%;%;%;%;%;%;%;%;%;%;%;%;%-%X$m#H#c#^#^#`#a#a#f#Y#i$|%V%+%;%;%;%;%;%;%;%;%;%;%;%;%;%;%;%;%;%;%;%;%;%;%;%;%;%;%;%;%;%;%;%;%;%;%;%;%;%;%;%;%;%;%;%;%;%;%;%;%;%;%+%U%#$L$2$I$E$F$G$G$J$Q$,$v%U%-%;%;%;%;%;%;%;%;%;%;%;%;%;%;%;%;%;%;%;%;%;%;%;",
"%;%;%;%;%;%;%;%;%;%;%;%;%;%;%;%;%;%;%;%;%;%;%;%-%X$m#H#c#^#`#a#a#b#d#i#Z#i$|%V%+%;%;%;%;%;%;%;%;%;%;%;%;%;%;%;%;%;%;%;%;%;%;%;%;%;%;%;%;%;%;%;%;%;%;%;%;%;%;%;%;%;%;%;%;%;%;%;%;%+%U%#$L$2$I$E$F$G$G$J$J$Q$,$v%U%-%;%;%;%;%;%;%;%;%;%;%;%;%;%;%;%;%;%;%;%;%;%;%;",
"%;%;%;%;%;%;%;%;%;%;%;%;%;%;%;%;%;%;%;%;%;%;%;%-%X$m#H#c#`#a#a#b#d#e#e#i#Z#t$|%V%+%;%;%;%;%;%;%;%;%;%;%;%;%;%;%;%;%;%;%;%;%;%;%;%;%;%;%;%;%;%;%;%;%;%;%;%;%;%;%;%;%;%;%;%;%;%;%+%U%#$L$2$I$E$F$G$G$J$J$M$Q$,$v%U%-%;%;%;%;%;%;%;%;%;%;%;%;%;%;%;%;%;%;%;%;%;%;%;",
"%;%;%;%;%;%;%;%;%;%;%;%;%;%;%;%;%;%;%;%;%;%;%;%-%X$m#H#f#a#a#b#d#e#e#e#g#t#Z#v$|%V%+%;%;%;%;%;%;%;%;%;%;%;%;%;%;%;%;%;%;%;%;%;%;%;%;%;%;%;%;%;%;%;%;%;%;%;%;%;%;%;%;%;%;%;%;%+%U%#$L$2$I$E$F$G$G$J$J$M$M$Q$,$v%U%-%;%;%;%;%;%;%;%;%;%;%;%;%;%;%;%;%;%;%;%;%;%;%;",
"%;%;%;%;%;%;%;%;%;%;%;%;%;%;%;%;%;%;%;%;%;%;%;%-%X$m#H#f#a#b#d#e#e#e#g#g#h#v#Z#v$|%V%+%;%;%;%;%;%;%;%;%;%;%;%;%;%;%;%;%;%;%;%;%;%;%;%;%;%;%;%;%;%;%;%;%;%;%;%;%;%;%;%;%;%;%+%U%#$L$2$I$E$F$G$G$J$J$M$M$N$Q$,$v%T%-%;%;%;%;%;%;%;%;%;%;%;%;%;%;%;%;%;%;%;%;%;%;%;",
"%;%;%;%;%;%;%;%;%;%;%;%;%;%;%;%;%;%;%;%;%;%;%;%-%X$m#H#f#b#d#e#e#e#g#g#h#h#n#v#Z#v$}%U%+%;%;%;%;%;%;%;%;%;%;%;%;%;%;%;%;%;%;%;%;%;%;%;%;%;%;%;%;%;%;%;%;%;%;%;%;%;%;%;%;%+%U%#$L$2$I$E$F$G$G$J$J$M$M$N$N$Q$-$v%T%-%;%;%;%;%;%;%;%;%;%;%;%;%;%;%;%;%;%;%;%;%;%;%;",
"%;%;%;%;%;%;%;%;%;%;%;%;%;%;%;%;%;%;%;%;%;%;%;%-%X$m#H#f#d#e#e#e#g#g#h#h#n#n#n#v#[$#$}%U%+%;%;%;%;%;%;%;%;%;%;%;%;%;%;%;%;%;%;%;%;%;%;%;%;%;%;%;%;%;%;%;%;%;%;%;%;%;%;%+%U%#$L$2$I$E$F$G$G$J$J$M$M$N$N$O$R$-$v%T%-%;%;%;%;%;%;%;%;%;%;%;%;%;%;%;%;%;%;%;%;%;%;%;",
"%;%;%;%;%;%;%;%;%;%;%;%;%;%;%;%;%;%;%;%;%;%;%;%-%X$m#H#i#e#e#e#g#g#h#h#n#n#n#q#r$##[$$$}%U%+%;%;%;%;%;%;%;%;%;%;%;%;%;%;%;%;%;%;%;%;%;%;%;%;%;%;%;%;%;%;%;%;%;%;%;%;%+%U%#$L$2$I$E$F$G$G$J$J$M$M$N$N$O$Q$R$-$v%T%-%;%;%;%;%;%;%;%;%;%;%;%;%;%;%;%;%;%;%;%;%;%;%;",
"%;%;%;%;%;%;%;%;%;%;%;%;%;%;%;%;%;%;%;%;%;%;%;%-%X$o#J#i#e#e#g#g#h#h#n#n#n#q#r#s#s$$#j$&$}%U%+%;%;%;%;%;%;%;%;%;%;%;%;%;%;%;%;%;%;%;%;%;%;%;%;%;%;%;%;%;%;%;%;%;%;%+%U%#$L$2$I$E$F$G$G$J$J$M$M$N$N$O$Q$Q$R$-$v%T%-%;%;%;%;%;%;%;%;%;%;%;%;%;%;%;%;%;%;%;%;%;%;%;",
"%;%;%;%;%;%;%;%;%;%;%;%;%;%;%;%;%;%;%;%;%;%;%;%-%X$o#J#i#e#g#g#h#h#m#n#n#q#r#s#s#s#|$&#j$&$}%U%+%;%;%;%;%;%;%;%;%;%;%;%;%;%;%;%;%;%;%;%;%;%;%;%;%;%;%;%;%;%;%;%;%+%U%#$L$2$I$E$F$G$G$J$J$M$M$N$N$O$Q$Q$Q$R$-$v%T%-%;%;%;%;%;%;%;%;%;%;%;%;%;%;%;%;%;%;%;%;%;%;%;",
"%>%;%;%;%;%;%;%;%;%;%;%;%;%;%;%;%;%;%;%;%;%;%;%-%X$o#J#w#t#t#v#v#v#v#v$#$#$#$$$$$&$&$&$(#|$(%#%W%-%-%-%-%-%-%-%-%-%-%-%-%-%-%-%-%-%-%-%-%-%-%-%-%-%-%-%-%-%-%-%-%W%#$P$;$P$L$P$P$N$Q$Q$Q$Q$Q$Q$Q$R$R$R$R$R$5$v%T%-%;%;%;%;%;%;%;%;%;%;%;%;%;%;%;%;%;%;%;%;%;%;%>",
"%K%:%;%;%;%;%;%;%;%;%;%;%;%;%;%;%;%;%;%;%;%;%;%-%X$j#G#J#J#J#J#K#K#K#L#L#M#M#M#N#N#N#O#O#x#M#j$y%U%W%U%U%U%U%U%U%U%U%U%U%U%U%U%U%U%U%U%U%U%U%U%U%U%U%U%U%U%U%U%U$z$+$)$,$+$+$+$,$,$,$,$,$,$,$,$-$-$-$-$-$5$)$t%T%-%;%;%;%;%;%;%;%;%;%;%;%;%;%;%;%;%;%;%;%;%;%:%J",
"%_%8%=%;%;%;%;%;%;%;%;%;%;%;%;%;%;%;%;%;%;%;%;%6%N%$$j$p$o$o$o$p$p$p$q$q$q$q$q$q$q$q$q$s$s$r$j$y$x$^$c$b$b$b$b$b$b$b$c$c$c$c$c$c$c$d$d$d$d$d$d$d$d$e$e$e$e$e$^$y$y$q$u$t$t$t$t$t$v$v$v$v$v$v$v$v$v$v$v$v$v$t%$%L%6%;%;%;%;%;%;%;%;%;%;%;%;%;%;%;%;%;%;%;%;%;%9%_",
"%a%2%>%;%;%;%;%;%;%;%;%;%;%;%;%;%;%;%;%;%;%;%;%;%6%O%X%X%X%X%X%W%W%W%W%U%U%U%U%U%U%U%U%U%U%U%W%U%&$S#I#j#x#x#x#x#x#y#y#y#y#z#z#{#z#{#~#~#~#~#~#~#~$)$)$)$+#x$T%'%U%U%U%U%U%U%U%U%U%U%T%U%U%U%T%T%T%T%T%T%T%U%L%6%;%;%;%;%;%;%;%;%;%;%;%;%;%;%;%;%;%;%;%;%;%E%7%`",
"##%1%>%;%;%;%;%;%;%;%;%;%;%;%;%;%;%;%;%;%;%;%;%;%;%6%-%-%-%-%-%-%-%-%-%-%-%-%-%-%-%-%-%-%-%-%-%+%P%@$V#{$<$/$3$3$3$3$3$3$7$7$7$7$9$9$9$9$:$:$:$H$H$F$F$P$+$]%@%P%+%-%-%-%-%-%-%-%-%-%-%-%-%-%-%-%-%-%-%-%-%-%6%;%;%;%;%;%;%;%;%;%;%;%;%;%;%;%;%;%;%;%;%;%;%>%1%b",
"##%9%;%;%;%;%;%;%;%;%;%;%;%;%;%;%;%;%;%;%;%;%;%;%;%;%;%;%;%;%;%;%;%;%;%;%;%;%;%;%;%;%;%;%;%;%;%;%3%B%6$U#x$3$.$.$.$.$.$.$0$1$1$4$4$4$4$8$8$8$9$:$;$;$K$*$]%6%B%3%;%;%;%;%;%;%;%;%;%;%;%;%;%;%;%;%;%;%;%;%;%;%;%;%;%;%;%;%;%;%;%;%;%;%;%;%;%;%;%;%;%;%;%;%;%>%1##",
"##%_%7%D%;%;%;%;%;%;%;%;%;%;%;%;%;%;%;%;%;%;%;%;%;%;%;%;%;%;%;%;%;%;%;%;%;%;%;%;%;%;%;%;%;%;%;%;%;%3%B%6$V#x$3$.$.$.$.$0$1$1$4$4$4$4$8$8$8$9$:$;$;$K$*$]%6%B%3%;%;%;%;%;%;%;%;%;%;%;%;%;%;%;%;%;%;%;%;%;%;%;%;%;%;%;%;%;%;%;%;%;%;%;%;%;%;%;%;%;%;%;%;%;%;%;%:##",
"##%b%/%I%;%;%;%;%;%;%;%;%;%;%;%;%;%;%;%;%;%;%;%;%;%;%;%;%;%;%;%;%;%;%;%;%;%;%;%;%;%;%;%;%;%;%;%;%;%;%3%B%6$V#y$7$.$.$0$1$1$4$4$4$4$8$8$8$9$:$;$;$K$*$]%6%B%3%;%;%;%;%;%;%;%;%;%;%;%;%;%;%;%;%;%;%;%;%;%;%;%;%;%;%;%;%;%;%;%;%;%;%;%;%;%;%;%;%;%;%;%;%;%;%D%8%_##",
"####%7%E%;%;%;%;%;%;%;%;%;%;%;%;%;%;%;%;%;%;%;%;%;%;%;%;%;%;%;%;%;%;%;%;%;%;%;%;%;%;%;%;%;%;%;%;%;%;%;%3%B%6$V#y$7$0$1$1$4$4$4$4$8$8$8$9$:$;$;$K$*$]%6%B%3%;%;%;%;%;%;%;%;%;%;%;%;%;%;%;%;%;%;%;%;%;%;%;%;%;%;%;%;%;%;%;%;%;%;%;%;%;%;%;%;%;%;%;%;%;%;%;%I%/%b##",
"####%`%2%>%;%;%;%;%;%;%;%;%;%;%;%;%;%;%;%;%;%;%;%;%;%;%;%;%;%;%;%;%;%;%;%;%;%;%;%;%;%;%;%;%;%;%;%;%;%;%;%3%B%6$V#{$<$1$4$4$4$4$8$8$8$9$:$;$;$K$*$]%6%B%3%;%;%;%;%;%;%;%;%;%;%;%;%;%;%;%;%;%;%;%;%;%;%;%;%;%;%;%;%;%;%;%;%;%;%;%;%;%;%;%;%;%;%;%;%;%;%;%;%>%1####",
"######%0%E%;%;%;%;%;%;%;%;%;%;%;%;%;%;%;%;%;%;%;%;%;%;%;%;%;%;%;%;%;%;%;%;%;%;%;%;%;%;%;%;%;%;%;%;%;%;%;%;%3%B%6$[#z$9$4$4$4$8$8$8$9$:$;$;$K$*$]%6%B%3%;%;%;%;%;%;%;%;%;%;%;%;%;%;%;%;%;%;%;%;%;%;%;%;%;%;%;%;%;%;%;%;%;%;%;%;%;%;%;%;%;%;%;%;%;%;%;%;%E%8%_####",
"######%`%7%>%;%;%;%;%;%;%;%;%;%;%;%;%;%;%;%;%;%;%;%;%;%;%;%;%;%;%;%;%;%;%;%;%;%;%;%;%;%;%;%;%;%;%;%;%;%;%;%;%3%B%6$[#~$<$4$8$8$8$9$:$;$;$K$*$]%6%B%3%;%;%;%;%;%;%;%;%;%;%;%;%;%;%;%;%;%;%;%;%;%;%;%;%;%;%;%;%;%;%;%;%;%;%;%;%;%;%;%;%;%;%;%;%;%;%;%;%;%I%/######",
"########%1%E%;%;%;%;%;%;%;%;%;%;%;%;%;%;%;%;%;%;%;%;%;%;%;%;%;%;%;%;%;%;%;%;%;%;%;%;%;%;%;%;%;%;%;%;%;%;%;%;%;%3%B%6$[#~$H$8$8$9$:$;$;$K$*$]%6%B%3%;%;%;%;%;%;%;%;%;%;%;%;%;%;%;%;%;%;%;%;%;%;%;%;%;%;%;%;%;%;%;%;%;%;%;%;%;%;%;%;%;%;%;%;%;%;%;%;%;%;%:%^######",
"########%a%0%E%;%;%;%;%;%;%;%;%;%;%;%;%;%;%;%;%;%;%;%;%;%;%;%;%;%;%;%;%;%;%;%;%;%;%;%;%;%;%;%;%;%;%;%;%;%;%;%;%;%3%B%6$[#~$H$9$:$;$;$K$*$]%6%B%3%;%;%;%;%;%;%;%;%;%;%;%;%;%;%;%;%;%;%;%;%;%;%;%;%;%;%;%;%;%;%;%;%;%;%;%;%;%;%;%;%;%;%;%;%;%;%;%;%;%;%I%/########",
"##########%K%:%E%;%;%;%;%;%;%;%;%;%;%;%;%;%;%;%;%;%;%;%;%;%;%;%;%;%;%;%;%;%;%;%;%;%;%;%;%;%;%;%;%;%;%;%;%;%;%;%;%;%3%A%6$[#~$H$;$;$K$*$]%6%B%3%;%;%;%;%;%;%;%;%;%;%;%;%;%;%;%;%;%;%;%;%;%;%;%;%;%;%;%;%;%;%;%;%;%;%;%;%;%;%;%;%;%;%;%;%;%;%;%;%;%;%E%7%`########",
"############%0%I%;%;%;%;%;%;%;%;%;%;%;%;%;%;%;%;%;%;%;%;%;%;%;%;%;%;%;%;%;%;%;%;%;%;%;%;%;%;%;%;%;%;%;%;%;%;%;%;%;%;%3%A%6$]$)$H$K$*$]%6%B%3%;%;%;%;%;%;%;%;%;%;%;%;%;%;%;%;%;%;%;%;%;%;%;%;%;%;%;%;%;%;%;%;%;%;%;%;%;%;%;%;%;%;%;%;%;%;%;%;%;%;%;%D%2##########",
"############%b%.%F%;%;%;%;%;%;%;%;%;%;%;%;%;%;%;%;%;%;%;%;%;%;%;%;%;%;%;%;%;%;%;%;%;%;%;%;%;%;%;%;%;%;%;%;%;%;%;%;%;%;%3%A%6$]$+$+$]%6%B%3%;%;%;%;%;%;%;%;%;%;%;%;%;%;%;%;%;%;%;%;%;%;%;%;%;%;%;%;%;%;%;%;%;%;%;%;%;%;%;%;%;%;%;%;%;%;%;%;%;%;%;%F%.%c##########",
"##############%a%/%J%;%;%;%;%;%;%;%;%;%;%;%;%;%;%;%;%;%;%;%;%;%;%;%;%;%;%;%;%;%;%;%;%;%;%;%;%;%;%;%;%;%;%;%;%;%;%;%;%;%;%3%A%6$[$U%6%B%3%;%;%;%;%;%;%;%;%;%;%;%;%;%;%;%;%;%;%;%;%;%;%;%;%;%;%;%;%;%;%;%;%;%;%;%;%;%;%;%;%;%;%;%;%;%;%;%;%;%;%;%J%0%a############",
"################%`%0%J%;%;%;%;%;%;%;%;%;%;%;%;%;%;%;%;%;%;%;%;%;%;%;%;%;%;%;%;%;%;%;%;%;%;%;%;%;%;%;%;%;%;%;%;%;%;%;%;%;%;%3%L%(%(%L%3%;%;%;%;%;%;%;%;%;%;%;%;%;%;%;%;%;%;%;%;%;%;%;%;%;%;%;%;%;%;%;%;%;%;%;%;%;%;%;%;%;%;%;%;%;%;%;%;%;%;%;%J%1%_##############",
"##################%`%0%F%;%;%;%;%;%;%;%;%;%;%;%;%;%;%;%;%;%;%;%;%;%;%;%;%;%;%;%;%;%;%;%;%;%;%;%;%;%;%;%;%;%;%;%;%;%;%;%;%;%;%6%@%@%6%;%;%;%;%;%;%;%;%;%;%;%;%;%;%;%;%;%;%;%;%;%;%;%;%;%;%;%;%;%;%;%;%;%;%;%;%;%;%;%;%;%;%;%;%;%;%;%;%;%;%;%J%1%_################",
"####################%`%/%E%;%;%;%;%;%;%;%;%;%;%;%;%;%;%;%;%;%;%;%;%;%;%;%;%;%;%;%;%;%;%;%;%;%;%;%;%;%;%;%;%;%;%;%;%;%;%;%;%;%;%6%6%;%;%;%;%;%;%;%;%;%;%;%;%;%;%;%;%;%;%;%;%;%;%;%;%;%;%;%;%;%;%;%;%;%;%;%;%;%;%;%;%;%;%;%;%;%;%;%;%;%;%;%F%0%_##################",
"######################%a%/%;%E%;%;%;%;%;%;%;%;%;%;%;%;%;%;%;%;%;%;%;%;%;%;%;%;%;%;%;%;%;%;%;%;%;%;%;%;%;%;%;%;%;%;%;%;%;%;%;%;%;%;%;%;%;%;%;%;%;%;%;%;%;%;%;%;%;%;%;%;%;%;%;%;%;%;%;%;%;%;%;%;%;%;%;%;%;%;%;%;%;%;%;%;%;%;%;%;%;%;%;%E%E%.%a####################",
"##########################%9%2%I%=%;%;%;%;%;%;%;%;%;%;%;%;%;%;%;%;%;%;%;%;%;%;%;%;%;%;%;%;%;%;%;%;%;%;%;%;%;%;%;%;%;%;%;%;%;%;%;%;%;%;%;%;%;%;%;%;%;%;%;%;%;%;%;%;%;%;%;%;%;%;%;%;%;%;%;%;%;%;%;%;%;%;%;%;%;%;%;%;%;%;%;%;%;%;%;%=%I%7%7%b######################",
"############################%`%/%9%I%=%;%;%;%;%;%;%;%;%;%;%;%;%;%;%;%;%;%;%;%;%;%;%;%;%;%;%;%;%;%;%;%;%;%;%;%;%;%;%;%;%;%;%;%;%;%;%;%;%;%;%;%;%;%;%;%;%;%;%;%;%;%;%;%;%;%;%;%;%;%;%;%;%;%;%;%;%;%;%;%;%;%;%;%;%;%;%;%;%;%;%;%E%I%9%/%`##########################",
"################################%^%/%9%E%>%;%;%;%;%;%;%;%;%;%;%;%;%;%;%;%;%;%;%;%;%;%;%;%;%;%;%;%;%;%;%;%;%;%;%;%;%;%;%;%;%;%;%;%;%;%;%;%;%;%;%;%;%;%;%;%;%;%;%;%;%;%;%;%;%;%;%;%;%;%;%;%;%;%;%;%;%;%;%;%;%;%;%;%;%;%;%D%E%E%8%/%^##############################",
"##################################%c%^%0%0%9%=%>%E%;%;%;%;%;%;%;%;%;%;%;%;%;%;%;%;%;%;%;%;%;%;%;%;%;%;%;%;%;%;%;%;%;%;%;%;%;%;%;%;%;%;%;%;%;%;%;%;%;%;%;%;%;%;%;%;%;%;%;%;%;%;%;%;%;%;%;%;%;%;%;%;%;%;%;%;%;%;%E%>%>%;%8%/%1%_##################################",
"########################################%a%^%7%1%7%9%:%;%;%;%;%;%;%;%;%;%;%;%;%;%;%;%;%;%;%;%;%;%;%;%;%;%;%;%;%;%;%;%;%;%;%;%;%;%;%;%;%;%;%;%;%;%;%;%;%;%;%;%;%;%;%;%;%;%;%;%;%;%;%;%;%;%;%;%;%;%;%;%;%;%;%:%9%7%2%1%:%_%b######################################",
"##############################################%b%a%_%K%E%;%;%;%;%;%;%;%;%;%;%;%;%;%;%;%;%;%;%;%;%;%;%;%;%;%;%;%;%;%;%;%;%;%;%;%;%;%;%;%;%;%;%;%;%;%;%;%;%;%;%;%;%;%;%;%;%;%;%;%;%;%;%;%;%;%;%;%;%;%;%;%;%>%K%^%`%b##############################################"
};
