/* XPM */
static const char * firstislamiccoin32_xpm[] = {
"32 32 243 2",
"## c None",
"#$ c #FDCD58",
"#% c #FBCA56",
"#& c #F4C550",
"#' c #F2C24A",
"#( c #E8C457",
"#) c #F1BD3D",
"#* c #F3BB39",
"#+ c #E9C04E",
"#, c #E8BF4C",
"#- c #E6C255",
"#. c #E0BF52",
"#/ c #E1BE50",
"#0 c #E0BD4E",
"#1 c #DDBA49",
"#2 c #D6BB52",
"#3 c #D5BA50",
"#4 c #EEB835",
"#5 c #EAB634",
"#6 c #E3B435",
"#7 c #E2B435",
"#8 c #E2B335",
"#9 c #E1B335",
"#: c #DDB53D",
"#; c #DFB336",
"#< c #DFB335",
"#= c #DCB339",
"#> c #DBB33B",
"#? c #CFB852",
"#@ c #CDB853",
"#A c #CDB64D",
"#B c #DDB236",
"#C c #DCB236",
"#D c #E1AF32",
"#E c #DCB136",
"#F c #DBB136",
"#G c #DAB136",
"#H c #D7B037",
"#I c #D4AF37",
"#J c #D3AF37",
"#K c #D2AE37",
"#L c #D1AE37",
"#M c #D0AE37",
"#N c #CFAD38",
"#O c #CFAD37",
"#P c #CEAD38",
"#Q c #C6AE42",
"#R c #DDAB31",
"#S c #DEA92F",
"#T c #DEA82E",
"#U c #D6AB33",
"#V c #D5AA33",
"#W c #CFAA35",
"#X c #CDA734",
"#Y c #C5AA39",
"#Z c #CBA634",
"#[ c #CAA533",
"#] c #CBA432",
"#^ c #CBA331",
"#_ c #BBB153",
"#` c #C2A939",
"#a c #C1A939",
"#b c #B3A740",
"#c c #B8A63A",
"#d c #B6A53B",
"#e c #B2A53E",
"#f c #C1A335",
"#g c #BDA336",
"#h c #AEA33C",
"#i c #AEA33B",
"#j c #ADA33C",
"#k c #C0A234",
"#l c #BAA135",
"#m c #B69F36",
"#n c #ADA23C",
"#o c #A79A38",
"#p c #99A453",
"#q c #95A456",
"#r c #8AA054",
"#s c #879E53",
"#t c #979B3E",
"#u c #939D47",
"#v c #8D9A43",
"#w c #8D9942",
"#x c #90983F",
"#y c #849745",
"#z c #879640",
"#{ c #87913C",
"#| c #829747",
"#} c #829542",
"#~ c #809441",
"$# c #818E3C",
"$$ c #798C3E",
"$% c #778C3E",
"$& c #689150",
"$' c #678F4C",
"$( c #698C44",
"$) c #628F51",
"$* c #608B4A",
"$+ c #5F8B4A",
"$, c #618A45",
"$- c #618944",
"$. c #5F8945",
"$/ c #5F8643",
"$0 c #5E8D4E",
"$1 c #5E8C4E",
"$2 c #5B8C4F",
"$3 c #598D53",
"$4 c #5A8B4D",
"$5 c #5D8945",
"$6 c #5D8845",
"$7 c #5A8845",
"$8 c #588545",
"$9 c #578544",
"$: c #588444",
"$; c #548648",
"$< c #548646",
"$= c #558545",
"$> c #4A8550",
"$? c #498550",
"$@ c #48844D",
"$A c #548345",
"$B c #4D7F44",
"$C c #4A8248",
"$D c #4A8247",
"$E c #488248",
"$F c #458148",
"$G c #458048",
"$H c #448048",
"$I c #437E47",
"$J c #427E47",
"$K c #3E7E49",
"$L c #3C8150",
"$M c #3B7F4D",
"$N c #3B7E49",
"$O c #3A7F4D",
"$P c #347D50",
"$Q c #397C49",
"$R c #377B49",
"$S c #367A49",
"$T c #317A4B",
"$U c #307A4B",
"$V c #30784A",
"$W c #2F794B",
"$X c #2F784A",
"$Y c #2B7A50",
"$Z c #2B794F",
"$[ c #2A794F",
"$] c #297950",
"$^ c #29784F",
"$_ c #28794F",
"$` c #27794F",
"$a c #27784D",
"$b c #27774C",
"$c c #28764B",
"$d c #27764B",
"$e c #26784D",
"$f c #26764C",
"$g c #25764C",
"$h c #26754B",
"$i c #24754B",
"$j c #1C744D",
"$k c #18724F",
"$l c #18724E",
"$m c #17724E",
"$n c #16714E",
"$o c #15714E",
"$p c #14714F",
"$q c #14714E",
"$r c #14704E",
"$s c #11704F",
"$t c #11704E",
"$u c #10704F",
"$v c #10704E",
"$w c #0F704F",
"$x c #0F6F4F",
"$y c #0E6F4F",
"$z c #0C7554",
"${ c #0C7454",
"$| c #0B7151",
"$} c #0B7051",
"$~ c #0D6F4F",
"%# c #0C6F4F",
"%$ c #0D6E4F",
"%% c #0C6E4F",
"%& c #0B6E4F",
"%' c #0A6E4F",
"%( c #096E4F",
"%) c #0B6D4F",
"%* c #0B6D4D",
"%+ c #0B6C4E",
"%, c #0B6C4D",
"%- c #0B6C4C",
"%. c #0B6B4E",
"%/ c #0B6B4D",
"%0 c #0B6B4C",
"%1 c #0A6D4F",
"%2 c #096D4F",
"%3 c #086D4F",
"%4 c #076D4F",
"%5 c #076C50",
"%6 c #066C50",
"%7 c #056C50",
"%8 c #056B4F",
"%9 c #046C50",
"%: c #036C50",
"%; c #046B50",
"%< c #046B4F",
"%= c #036B50",
"%> c #046A4E",
"%? c #026B51",
"%@ c #026B50",
"%A c #026B4F",
"%B c #016B51",
"%C c #016B50",
"%D c #026A50",
"%E c #016A51",
"%F c #016A50",
"%G c #006B51",
"%H c #006A51",
"%I c #006A50",
"%J c #006A4F",
"%K c #0A694B",
"%L c #09674B",
"%M c #096749",
"%N c #016951",
"%O c #01694F",
"%P c #01684F",
"%Q c #006951",
"%R c #006950",
"%S c #00694F",
"%T c #006851",
"%U c #006850",
"%V c #00684F",
"%W c #00684E",
"%X c #0A6045",
"%Y c #096044",
"%Z c #085C43",
"%[ c #095B42",
"%] c #085941",
"%^ c #09583F",
"%_ c #063F2D",
"%` c #063E2C",
"########%_%Y%/%&%&%&%&%&%&%&%&$~$~%&%&%&%&%&%&%&%&%+%Z##########",
"######%L${$}%&%&%&%&%&%&%&%&$~%<%<$~%&%&%&%&%&%&%&%&$|${%[######",
"####$z$}%,%&%&%&%&%&%&%&%&$x%S$P$P%S$x%&%&%&%&%&%&%&%)%.${%K####",
"##%L$|%*%&%&%&%&%&%&%&%&$w%S$Y#2#3$Z%J$x%&%&%&%&%&%&%&%&%0$z%^##",
"%`${%-%&%&%&$~$x$y$y$y$w%V$]#?#/#0#A$_%V$x$y$y$y$y$~%&%&%&%,${##",
"%X$}%&%&%&%%%A%W%W%W%V%V$L#.#&#+#,#'#1$M%R%R%R%R%R%=%%%&%&%,$|%]",
"%.%&%&%&$~%>$3#q#r#s#p$)$>$&$2$0$1$4$'$@$*#u#|#y#v$;%;$~%&%&%&%-",
"%&%&%&%&$y%W#q#$#(#%#@$_%V%V%S%S%S%S%U%R$a#Q#)#:#*#w%R$y%&%&%&%&",
"%&%&%&%&$y%W#r#(#-#_$p%F$w$x$s$w$y$y$y$x%F$q#b#>#=#}%Q$y%&%&%&%&",
"%&%&%&%&$y%W#s#%#_$k%<$y$~%%%I%7%%%&%&%&$y%9$m#e#4#~%H$y%&%&%&%&",
"%&%&%&%&$y%P#p#@$n%<$y$~%=%6$F$U%5%%%%%&%&$y%9$o#`#x%N$y%&%&%&%&",
"%&%&%&%&$w%V$)$`%D$y$~%C$W#d#c$l%2%%%2%&%&%&$y%@$g$6%H$x%&%&%&%&",
"%&%&%&$w%V$L$?%V$w$~%;$T#M#5$F%Q$y%1$o%&%'%&%&$x%H$H$Q%H$x%&%&%&",
"%&%&$x%S$]#.$&%P$x%&%2#n#7#Y$j%2%7$E#a$7%7%%%&$y%E$-#W$d%B$y%&%&",
"%&$~%S$Y#?#&$2%S$u%C$N#F#I#Y$l%'%;$<#F$(%;%$%&$y%H$=#D#g$c%H$~%&",
"$~%8$P#2#/#+$0%S$s%Q$.#9#M#H$U%;$~$y$b$t%(%&%&$y%H$8#U#X#f$V%7$~",
"$~%8$P#3#0#,$1%S$s%Q$.#7#P#9#z%T$y$y%4$~$~%&%&$y%H$9#V#Z#k$V%7$~",
"%&$~%S$[#A#'$4%S$u%C$N#C#L#J#E$,%Q%H%9%H%@%#%&$y%H$A#R#l$d%G$~%&",
"%&%&$x%J$^#1$'%O$y%&%2#i#;#O#I#B#t$C$W$D$5%1%&$y%E$/#[$h%B$y%&%&",
"%&%&%&$x%V$O$@%R$x$~%;$T#K#<#L#N#C#B#6#F$K%;$~$x%H$J$S%H$x%&%&%&",
"%&%&%&%&$w%R$+$e%D$y$~%C$T#h#C#8#;#G#j$W%H$~$y%@$i$:%H$x%&%&%&%&",
"%&%&%&%&$y%N#u#Q$o%9$y$~%=%3$N$.$.$N%3%=$~$y%7$r#m#{%E$y%&%&%&%&",
"%&%&%&%&$y%R#|#)#b$m%9$y$~%&%C%Q%Q%C%&$~$y%7$n#o#S$%%H$y%&%&%&%&",
"%&%&%&%&$y%R#y#:#>#e$q%C$x$y$v$t$t$v$y$x%?$r#o#]#^$$%G$y%&%&%&%&",
"%&%&%&%&$y%R#v#*#=#4#`$f%Q%H%H%H%H%H%H%H$i#m#S#^#T$#%G$y%&%&%&%&",
"%-%&%&%&$~%;$;#w#}#~#x$6$G$-$=$8$9$A$/$I$:#{$%$$$#$B%9$~%&%&%&%.",
"%]$|%,%&%&%%%=%Q%H%H%Q%H$Q#W#D#U#V#R#[$R%H%H%G%G%H%:%%%&%&%&$}%X",
"##${%,%&%&%&$~$y$y$y$y$x%H$f#g#X#Z#l$h%H$x$y$y$y$y%$%&%&%&%-$z%`",
"##%^$z%0%&%&%&%&%&%&%&%&$x%B$c#f#k$c%B$x%&%&%&%&%&%&%&%&%*$|%M##",
"####%K${%.%)%&%&%&%&%&%&%&$x%H$X$X%H$y%&%&%&%&%&%&%&%&%,$}$z####",
"######%[${$|%&%&%&%&%&%&%&%&$~%7%7$~%&%&%&%&%&%&%&%&$}${%L######",
"##########%Z%+%&%&%&%&%&%&%&%&%$%$%&%&%&%&%&%&%&%&%/%Y%_########"
};
