/* XPM */
static const char * firstislamiccoin16_xpm[] = {
"16 16 122 2",
"## c None",
"#$ c #ECC250",
"#% c #EAC04C",
"#& c #EBB734",
"#' c #E8B535",
"#( c #DDB236",
"#) c #CBB856",
"#* c #D9B037",
"#+ c #D8B037",
"#, c #B0AD53",
"#- c #D8AB33",
"#. c #D6A932",
"#/ c #C3AC40",
"#0 c #C0A93B",
"#1 c #B39D35",
"#2 c #B29D35",
"#3 c #AEA33C",
"#4 c #A9A240",
"#5 c #A8A340",
"#6 c #A09E3D",
"#7 c #989C3E",
"#8 c #949A3F",
"#9 c #9D9739",
"#: c #8CA156",
"#; c #939A3F",
"#< c #8C9840",
"#= c #849643",
"#> c #798C3D",
"#? c #6E8E43",
"#@ c #6A9251",
"#A c #678E49",
"#B c #658B44",
"#C c #648B44",
"#D c #5F8642",
"#E c #588746",
"#F c #568A50",
"#G c #558A50",
"#H c #548A50",
"#I c #548950",
"#J c #54884D",
"#K c #518547",
"#L c #508447",
"#M c #508346",
"#N c #4F8346",
"#O c #4E8145",
"#P c #4D8145",
"#Q c #4C8146",
"#R c #4C8145",
"#S c #4B8348",
"#T c #438049",
"#U c #418049",
"#V c #417F49",
"#W c #3E814E",
"#X c #3E804D",
"#Y c #3C804F",
"#Z c #3B7F4E",
"#[ c #3A7D49",
"#] c #3A7C49",
"#^ c #387C49",
"#_ c #347D4F",
"#` c #377B49",
"#a c #337D4F",
"#b c #327C4E",
"#c c #317B4E",
"#d c #31794A",
"#e c #30784A",
"#f c #2E794A",
"#g c #2E784A",
"#h c #2C784B",
"#i c #27774C",
"#j c #26774C",
"#k c #1F744D",
"#l c #116F4F",
"#m c #10704F",
"#n c #106F4E",
"#o c #0E6F4F",
"#p c #0D6F4F",
"#q c #0C7252",
"#r c #0C6E4F",
"#s c #0B7252",
"#t c #0B7151",
"#u c #0B6E4F",
"#v c #0B6E4E",
"#w c #0A6E4F",
"#x c #0B6D4F",
"#y c #0B6D4D",
"#z c #0B6C4D",
"#{ c #086D4F",
"#| c #076D50",
"#} c #076D4F",
"#~ c #076C4F",
"$# c #066D50",
"$$ c #066C50",
"$% c #066C4F",
"$& c #056C50",
"$' c #056C4F",
"$( c #056B4F",
"$) c #036C50",
"$* c #036B50",
"$+ c #036B4F",
"$, c #026B50",
"$- c #026B4F",
"$. c #036A4F",
"$/ c #006A4F",
"$0 c #016951",
"$1 c #006951",
"$2 c #006950",
"$3 c #006852",
"$4 c #006850",
"$5 c #006752",
"$6 c #006751",
"$7 c #006750",
"$8 c #00674F",
"$9 c #006652",
"$: c #006651",
"$; c #006650",
"$< c #0A6347",
"$= c #0A6346",
"$> c #0A6246",
"$? c #096045",
"$@ c #095F44",
"$A c #095E42",
"####$=#v#u#u#p$/$/#p#u#u#x$?####",
"###q#t#r#r#r$8#H#I$8#r#r#r#s#u##",
"$>#t#y#~$(#~#F#$#%#J#~$&#|#z#s$A",
"#u#r#}#:#)#@#_#Y#Z#c#A#/#=#}#r#u",
"#u#r$'#)#,#l$;$2$+$-#o#5#0$&#r#u",
"#u#r$%#@#p$4#S#K$*$)$$#r#B$##r#u",
"#p$8#G#a$7#T#*#i#k#E#w$,#f#N$1#p",
"$.#H#$#W$:#7#+#u#j#B#{$*#^#-#Q$*",
"$.#I#%#X$:#;#&#?$9$9#m$,#`#.#R$*",
"#p$8#J#b$6#U#(#'#3#<#h$0#g#P$1#p",
"#u#r$%#A#p$1#V#8#6#L$,#p#D#|#r#u",
"#u#r$&#/#4#n$3$5$5$5#o#9#2$&#r#u",
"#u#r#|#=#0#C#d#[#]#e#D#1#>#|#r#u",
"$A#s#z#}$&#|#M#-#.#O#|$&#|#y#t$<",
"###u#s#r#r#r$1#Q#R$1#r#r#r#t#q##",
"####$@#x#u#u#p$,$,#p#u#u#v$=####"
};
