/* XPM */
static const char * firstislamiccoin64_xpm[] = {
"64 64 241 2",
"## c None",
"#$ c #FAC852",
"#% c #F0C452",
"#& c #EFC553",
"#' c #EEC452",
"#( c #F0C24B",
"#) c #EABF4A",
"#* c #E9C254",
"#+ c #E8C55A",
"#, c #E8C459",
"#- c #E7C356",
"#. c #E8C150",
"#/ c #E8C04E",
"#0 c #E7BF4C",
"#1 c #E5C153",
"#2 c #E1C157",
"#3 c #E1C054",
"#4 c #E0C158",
"#5 c #E0C055",
"#6 c #DEBF55",
"#7 c #E8BC45",
"#8 c #E2BB49",
"#9 c #E0B73F",
"#: c #E0B53B",
"#; c #DFB73F",
"#< c #DEBD50",
"#= c #DEBD4F",
"#> c #DEBC4E",
"#? c #DDB640",
"#@ c #DCBC50",
"#A c #DBBC51",
"#B c #DCBB4E",
"#C c #DABB50",
"#D c #DABA4D",
"#E c #D6B84B",
"#F c #DBB540",
"#G c #E4B435",
"#H c #E7B232",
"#I c #E3B435",
"#J c #E2B435",
"#K c #E1B335",
"#L c #DFB337",
"#M c #DEB236",
"#N c #DDB236",
"#O c #DBB43C",
"#P c #DCB236",
"#Q c #DAB238",
"#R c #D8B33E",
"#S c #D7B23C",
"#T c #D6B33F",
"#U c #D6B23D",
"#V c #D5B23D",
"#W c #DFB134",
"#X c #DBB136",
"#Y c #DAB136",
"#Z c #D9B136",
"#[ c #D7B037",
"#] c #D6B038",
"#^ c #D5B13A",
"#_ c #DDAC32",
"#` c #DAAC32",
"#a c #D7AD34",
"#b c #D5AC35",
"#c c #D7A931",
"#d c #D6A931",
"#e c #D6A831",
"#f c #D4B23D",
"#g c #D4B13C",
"#h c #D4B13A",
"#i c #D4B039",
"#j c #D4AF37",
"#k c #D3AF39",
"#l c #D3AF37",
"#m c #D2AF37",
"#n c #D2AE37",
"#o c #D1AE38",
"#p c #D1AE37",
"#q c #D0AE37",
"#r c #D4AA33",
"#s c #D3A833",
"#t c #CEAD38",
"#u c #CBA734",
"#v c #CAA735",
"#w c #CFA632",
"#x c #CEA632",
"#y c #CAA634",
"#z c #C9A634",
"#{ c #CBA532",
"#| c #CAA331",
"#} c #CAA231",
"#~ c #C1AE46",
"$# c #C2A939",
"$$ c #C1A738",
"$% c #C7A534",
"$& c #C7A333",
"$' c #C5A434",
"$( c #C3A434",
"$) c #AFAB4F",
"$* c #AEAB4E",
"$+ c #AEAA4D",
"$, c #B6A53B",
"$- c #AFA33B",
"$. c #ADAA4D",
"$/ c #ADA84A",
"$0 c #98A451",
"$1 c #C7A131",
"$2 c #C5A232",
"$3 c #C4A233",
"$4 c #BEA134",
"$5 c #AC9F3A",
"$6 c #A59F3D",
"$7 c #9E9E3D",
"$8 c #A19C3B",
"$9 c #999D41",
"$: c #A19B3A",
"$; c #A09A3A",
"$< c #9E993A",
"$= c #91A151",
"$> c #91A050",
"$? c #90A050",
"$@ c #8F9D4A",
"$A c #8C973F",
"$B c #89933D",
"$C c #85923E",
"$D c #83913E",
"$E c #83903D",
"$F c #829340",
"$G c #749043",
"$H c #668D48",
"$I c #5E8C4D",
"$J c #5B8644",
"$K c #568B50",
"$L c #568A50",
"$M c #578747",
"$N c #568545",
"$O c #53874B",
"$P c #538648",
"$Q c #528547",
"$R c #508446",
"$S c #4E8145",
"$T c #4B8247",
"$U c #478248",
"$V c #3D804E",
"$W c #3A7E4C",
"$X c #398052",
"$Y c #398051",
"$Z c #398050",
"$[ c #377F50",
"$] c #387D4B",
"$^ c #377D4C",
"$_ c #377D4B",
"$` c #377C4A",
"$a c #367D4D",
"$b c #367C4B",
"$c c #367C4A",
"$d c #337D50",
"$e c #347B4A",
"$f c #337949",
"$g c #337948",
"$h c #317B4C",
"$i c #30794A",
"$j c #2E784A",
"$k c #27774C",
"$l c #19734D",
"$m c #16714E",
"$n c #14714E",
"$o c #12704E",
"$p c #10704F",
"$q c #0F6F4F",
"$r c #0E6F4F",
"$s c #0C7756",
"$t c #0C7655",
"$u c #0C7454",
"$v c #0C7453",
"$w c #0C7352",
"$x c #0D6F4F",
"$y c #0C6F4F",
"$z c #0D6E4F",
"${ c #0C6E4F",
"$| c #0B7352",
"$} c #0B7252",
"$~ c #0B7151",
"%# c #0B7051",
"%$ c #0B7050",
"%% c #0B6F50",
"%& c #0B6E4F",
"%' c #0A6E4F",
"%( c #096E4F",
"%) c #0B6D4F",
"%* c #0B6D4D",
"%+ c #0A6D4F",
"%, c #096D50",
"%- c #096D4F",
"%. c #086D50",
"%/ c #086D4F",
"%0 c #0B6C4E",
"%1 c #0B6C4D",
"%2 c #0A6C4D",
"%3 c #0B6B4E",
"%4 c #0B6B4C",
"%5 c #0A6B4E",
"%6 c #0A6A4C",
"%7 c #076D50",
"%8 c #076C50",
"%9 c #066C50",
"%: c #066C4F",
"%; c #056C50",
"%< c #056C4F",
"%= c #046C50",
"%> c #046B50",
"%? c #036C50",
"%@ c #026C50",
"%A c #036B50",
"%B c #036B4F",
"%C c #026B51",
"%D c #026B50",
"%E c #026B4F",
"%F c #016B51",
"%G c #016B50",
"%H c #036A4F",
"%I c #026A4F",
"%J c #016A50",
"%K c #016A4F",
"%L c #016A4E",
"%M c #006A51",
"%N c #006A50",
"%O c #006951",
"%P c #006950",
"%Q c #006851",
"%R c #006850",
"%S c #00684F",
"%T c #096749",
"%U c #096648",
"%V c #00674F",
"%W c #095C42",
"%X c #09573F",
"%Y c #08543D",
"%Z c #084D36",
"%[ c #074532",
"%] c #06402E",
"%^ c #063B2A",
"####################%]%X%T%0%&%&%&%&%&%&%&%&%&%&%&%&%&%&%&%&%&%&%&%&%&%&%&%&%&%&%&%&%&%&%&%&%&%&%&%&%0%U%Y######################",
"################%X%#$v$}%%%&%&%&%&%&%&%&%&%&%&%&%&%&%&%&%&%&%&%&%&%&%&%&%&%&%&%&%&%&%&%&%&%&%&%&%&%&%&%$$}$v%6%[################",
"############%Y$t$w%)%*%1%&%&%&%&%&%&%&%&%&%&%&%&%&%&%&%&%&%&%&%&%&%&%&%&%&%&%&%&%&%&%&%&%&%&%&%&%&%&%&%&%1%*%%$t%2##############",
"##########%6$u%3%1%&%&%&%&%&%&%&%&%&%&%&%&%&%&%&%&%&%&%&%&%&${%&%&${%&%&%&%&%&%&%&%&%&%&%&%&%&%&%&%&%&%&%&%&%&%3%%$s%[##########",
"########%$%#%3%&%&%&%&%&%&%&%&%&%&%&%&%&%&%&%&%&%&%&%&%&%&$y%-%-%-%-$y%&%&%&%&%&%&%&%&%&%&%&%&%&%&%&%&%&%&%&%&%&%)%1$s%Z########",
"######%6$~%*%&%&%&%&%&%&%&%&%&%&%&%&%&%&%&%&%&%&%&%&%&%&$y%&%I$0$0%I%&$y%&%&%&%&%&%&%&%&%&%&%&%&%&%&%&%&%&%&%&%&%&%&%4$s%]######",
"####%Y$u%3%&%&%&%&%&%&%&%&%&%&%&%&%&%&%&%&%&%&%&%&%&%&$y%&%I$=#'#'$>%H%&$y%&%&%&%&%&%&%&%&%&%&%&%&%&%&%&%&%&%&%&%&%&%&%1$t######",
"####$t%3%&%&%&%&%&%&%&%&%&%&%&%&%&%&%&%&%&%&%&%&%&%&$y%&%I$=#%#A#C#%$>%H%&$y%&%&%&%&%&%&%&%&%&%&%&%&%&%&%&%&%&%&%&%&%&%1%%%T####",
"##%X$|%*%&%&%&%&%&%&%&%&%&%&%&%&%&%&%&%&%&%&%&%&%&$y%&%I$=#%#A#<#=#D#($?%H%&$y%&%&%&%&%&%&%&%&%&%&%&%&%&%&%&%&%&%&%&%&%&%3$s%^##",
"##%#%&%&%&%&%&%&%&%&%&%&%&%&%&%&%&%&%&%&%&%&%&%&$y%&%I$=#%#A#<#=#>#>#D#($@%B%&$y%&%&%&%&%&%&%&%&%&%&%&%&%&%&%&%&%&%&%&%&%&%#%U##",
"%]$v%*%&%&%&%&%&%&%&%&%&%&$x$x$x$x$x$x$x$x$x$x$r%-%P$?#'#C#@#@#B#B#D#D#E#)$@%N%-$r$x$x$x$x$x$x$x$x$x$x%&%&%&%&%&%&%&%&%&%&%1$v##",
"%X$}%1%&%&%&%&%&%&%&%&%&%-%L%L%L%K%K%K%K%K%K%K%N$z$0#$#1#.#.#/#/#0#0#0#0#8#($0$z%J%J%D%G%G%G%D%D%D%D%G%-%&%&%&%&%&%&%&%&%&%*$|%Z",
"%T%%%&%&%&%&%&%&%&%&%&%-$m$X$X$Y$Y$Y$Y$Y$Z$[$V$d$I#~$*$)$)$)$*$+$+$.$/$/$/$/#~$I$h$W$a$]$^$^$^$^$_$_$]$n%-%&%&%&%&%&%&%&%&%&%$%U",
"%*%&%&%&%&%&%&%&%&%&$x%L$X#+#+#+#,#,#-#-#1#1#&$I%8%>%<%<%<%<%<%<%<%<%<%<%<%<%=%8$I#7#;#?#?#?#?#F#O#O#:$]%D$x%&%&%&%&%&%&%&%&%&%3",
"%&%&%&%&%&%&%&%&%&%&$x%L$X#+#4#2#4#4#5#6#5#*$L%V${${${${${${${${${${${${${${${${%R$O#9#F#T#T#T#U#V#g#Q$b%D$x%&%&%&%&%&%&%&%&%&%&",
"%&%&%&%&%&%&%&%&%&%&$x%L$Y#+#2#2#2#2#6#5#*$K%S$q%&%&%&%&%&%&%&%&%&%&%&%&%&%&%&%&$q%R$O#9#R#V#R#U#U#g#Q$`%D$x%&%&%&%&%&%&%&%&%&%&",
"%&%&%&%&%&%&%&%&%&%&$x%K$Y#,#4#2#2#6#3#*$K%S$q%&%&%&%&%&%&%&%&%&%&%&%&%&%&%&%&%&%&$q%R$P#9#R#g#U#^#h#Q$`%D$x%&%&%&%&%&%&%&%&%&%&",
"%&%&%&%&%&%&%&%&%&%&$x%K$Y#,#4#2#6#3#*$K%S$q%&%&%&%&%&%&%&%&%&%&%&%&%&%&%&%&%&%&%&%&$q%R$P#:#S#g#^#i#Q$c%D$x%&%&%&%&%&%&%&%&%&%&",
"%&%&%&%&%&%&%&%&%&%&$x%K$Y#-#5#6#3#*$K%S$q%&%&%&%&%&%&%&%&%&%&%&%&%&%&%&%&%&%&%&%&%&%&$q%P$P#:#^#k#i#Z$c%D$x%&%&%&%&%&%&%&%&%&%&",
"%&%&%&%&%&%&%&%&%&%&$x%K$Y#-#6#5#*$K%S$q%&%&%&%&%&%&%&${$r$r%&%'%&%&%&%&%&%&%&%&%&%&%&%&$q%O$P#L#]#p#Z$c%D$x%&%&%&%&%&%&%&%&%&%&",
"%&%&%&%&%&%&%&%&%&%&$x%K$Z#1#5#*$K%S$q%&%&%&%&%&%&%&$r%'%N%O%'$p%'%&%&%&%&%&%&%&%&%&%&%&%&$q%O$Q#P#j#[$c%D$x%&%&%&%&%&%&%&%&%&%&",
"%&%&%&%&%&%&%&%&%&%&$x%K$[#1#*$K%S$q%&%&%&%&%&%&${${%M$r$U$A$A$m%-${%&%&%&%&%&%&%&%&%&%&%&%&$q%O$Q#X#Z$e%D$x%&%&%&%&%&%&%&%&%&%&",
"%&%&%&%&%&%&%&%&%&%&$x%K$V#&$L%S$q%&%&%&%&%&%&$x%.%A$M$,#I#[$i%>$x%&%&%&%&%&%&%&%&%&%&%&%&%&%&$q%O$R#W$]%D$x%&%&%&%&%&%&%&%&%&%&",
"%&%&%&%&%&%&%&%&%&%&$r%K$d$I%V$q%&%&%&%&%&%&$x%9$o$9#I#[#N$R%Q$q%&%&%&%&${${${%&%&%&%&%&%&%&%&%&$q%O$N$i%G$r%&%&%&%&%&%&%&%&%&%&",
"%&%&%&%&%&%&%&%&%&$y%-%&$I%:${%&%&%&%&%&%&${%.$o$-#G#t#X$5%9$y%&%&%&${%-%7%'%7$x%&%&%&%&%&%&%&%&%&${%9$J%&%-${%&%&%&%&%&%&%&%&%&",
"%&%&%&%&%&%&%&%&$y%&%K$0#~%>${%&%&%&%&%&%&${%>$9#G#t#p#J$J%O$r%&%&${%D$l$k$m$j%N${%&%&%&%&%&%&%&%&${%;$-$A%D%&${%&%&%&%&%&%&%&%&",
"%&%&%&%&%&%&%&$y%&%I$?#$$*%<${%&%&%&%&%&$r%M$M#G#q#j#j#]$j%A$x%&%&%)$l$j$7$7$U$l$r%&%&%&%&%&%&%&%&${%;$8#H$C%A%&${%&%&%&%&%&%&%&",
"%&%&%&%&%&%&$y%&%I$=#'#1$)%<${%&%&%&%&%&%'$r$,#Y#m#l#[$#$l%7${%&${%.$j$7#[#N$-$U%.${%&%&%&%&%&%&%&${%;$8#r#`$C%A%&${%&%&%&%&%&%&",
"%&%&%&%&%&$y%&%I$=#%#C#.$)%<${%&%&%&%&$r%J$U#L#p#j#l#Z$#$m%/${%&${%'$m$6#N#[$#$j%8${%&%&%&%&%&%&%&${%;$8#a$%#`$C%A%&${%&%&%&%&%&",
"%&%&%&%&${%&%H$=#%#A#@#.$)%<${%&%&%&%&$r%O$F#J#p#j#l#[#t$l%7${%&${%.$i$Q$,#v$H$]${%&%&%&%&%&%&%&%&${%;$8#b#v#z#`$C%?%&${%&%&%&%&",
"%&%&%&${%-%K$=#%#A#<#@#/$*%<${%&%&%&%&${%=$6#M#n#j#j#l#Y$`%D$x%&%&$z%M$l$U$c$c%Q$x%&%&%&%&%&%&%&%&${%;$:#r#v#u$%#`$D%D%(${%&%&%&",
"%&%&%&%&%+$0#'#A#<#=#B#/$+%<${%&%&%&%&%&%&$,#X#n#j#j#p#I$G%O$q%&%&%&${$q%7%9$x$x%&%&%&%&%&%&%&%&%&${%;$:#r#z#u#y$%#d$B%'%&%&%&%&",
"%&%&%&%&%+$0#'#C#=#>#B#0$+%<${%&%&%&%&%&%&$,#X#n#j#j#l#Z$$$p%'${%&%&%&%&${${%&%&%&%&%&%&%&%&%&%&%&${%;$:#r#z#y#z$'#e$B%'%&%&%&%&",
"%&%&%&${%-%K$?#%#D#>#D#0$.%<${%&%&%&%&${%=$6#M#n#j#j#j#p#K$G%Q$p%&%&%&%&%&%&%&%&%&%&%&%&%&%&%&%&%&${%;$;#r$%#z$'#c$E%C%(${%&%&%&",
"%&%&%&%&${%&%I$?#(#D#D#0$/%<${%&%&%&%&$r%O$F#J#p#j#j#j#j#l#X$T%Q$q$x%&%&%&%&%&%&${$x%&%&%&%&%&%&%&${%;$;#s$%$'#c$E%?%&${%&%&%&%&",
"%&%&%&%&%&$y%&%I$?#(#E#0$/%<${%&%&%&%&$r%J$U#L#p#j#j#j#j#l#]#]$P%O%=$x$r$r$r$r$r%/%G%&%&%&%&%&%&%&${%;$;#s$(#c$E%?%&${%&%&%&%&%&",
"%&%&%&%&%&%&$y%&%I$@#)#8$/%<${%&%&%&%&%&%'$r$,#Y#m#j#j#j#j#l#j#M$A$j%A%O%M%M%O%O$m$U$x%&%&%&%&%&%&${%;$<#w#e$E%?%&${%&%&%&%&%&%&",
"%&%&%&%&%&%&%&$y%&%E$@#($/%<${%&%&%&%&%&$r%M$M#G#q#j#j#j#j#j#l#n#K#j$6$G$M$Q$H$C#t$H%J$x%&%&%&%&%&${%;$<#_$E%?%&${%&%&%&%&%&%&%&",
"%&%&%&%&%&%&%&%&$y%&%K$0#~%=${%&%&%&%&%&%&${%>$9#G#t#j#j#j#j#j#j#p#j#M#I#K#K#N#H$7%J${%&%&%&%&%&%&${%;$5$B%D%&${%&%&%&%&%&%&%&%&",
"%&%&%&%&%&%&%&%&%&$y%-%&$I%:${%&%&%&%&%&%&${%.$o$-#G#q#n#j#j#j#j#j#j#n#p#q#t#K$5$p%.${%&%&%&%&%&%&${%7$J%&%-${%&%&%&%&%&%&%&%&%&",
"%&%&%&%&%&%&%&%&%&%&$r%J$h$I%R$q%&%&%&%&%&%&$x%9$o$9#I#Y#p#p#n#n#n#n#p#p#Y#I$9$o%9$x%&%&%&%&%&%&$r%O$N$j%C$r%&%&%&%&%&%&%&%&%&%&",
"%&%&%&%&%&%&%&%&%&%&$x%G$W#7$O%R$q%&%&%&%&%&%&$x%.%A$M$,#M#J#M#X#X#M#J#M$,$M%A%.$x%&%&%&%&%&%&$q%M$S#e$`%@$x%&%&%&%&%&%&%&%&%&%&",
"%&%&%&%&%&%&%&%&%&%&$x%G$a#;#9$O%R$q%&%&%&%&%&%&${${%M$r$U$F$6$,$,$6$F$U$r%M${${%&%&%&%&%&%&$q%M$S#x#{$f%@$x%&%&%&%&%&%&%&%&%&%&",
"%&%&%&%&%&%&%&%&%&%&$x%G$^#?#T#9$P%P$q%&%&%&%&%&%&%&$r%'%N%O%=%&%&%=%O%N%'$r%&%&%&%&%&%&%&$q%M$S#w$&#{$f%@$x%&%&%&%&%&%&%&%&%&%&",
"%&%&%&%&%&%&%&%&%&%&$x%G$^#?#T#R#9$P%P$q%&%&%&%&%&%&%&${$r$r${%&%&${$r$r${%&%&%&%&%&%&%&$q%M$S#w$&$3#|$f%@$x%&%&%&%&%&%&%&%&%&%&",
"%&%&%&%&%&%&%&%&%&%&$x%G$^#?#T#T#R#:$P%P$q%&%&%&%&%&%&%&%&%&%&%&%&%&%&%&%&%&%&%&%&%&%&$q%M$S#w$&$3$2#|$f%@$x%&%&%&%&%&%&%&%&%&%&",
"%&%&%&%&%&%&%&%&%&%&$x%D$^#F#T#R#f#S#:$P%O$q%&%&%&%&%&%&%&%&%&%&%&%&%&%&%&%&%&%&%&%&$q%M$S#w$&$2$2$3#}$f%@$x%&%&%&%&%&%&%&%&%&%&",
"%&%&%&%&%&%&%&%&%&%&$x%D$^#F#U#U#U#g#^#L$Q%O$q%&%&%&%&%&%&%&%&%&%&%&%&%&%&%&%&%&%&$q%M$S#w$&$2$2$2$3#}$f%@$x%&%&%&%&%&%&%&%&%&%&",
"%&%&%&%&%&%&%&%&%&%&$x%D$_#O#V#U#^#^#i#]#P$Q%O$r%&%&%&%&%&%&%&%&%&%&%&%&%&%&%&%&$r%M$S#w$&$3$2$2$3$3$1$f%@$x%&%&%&%&%&%&%&%&%&%&",
"%&%&%&%&%&%&%&%&%&%&$x%D$_#O#g#g#h#i#i#o#j#X$R%O${${${${${${${${${${${${${${${${%O$S#x$&$3$2$3$3$3$4$1$f%?$x%&%&%&%&%&%&%&%&%&%&",
"%3%&%&%&%&%&%&%&%&%&$x%D$]#:#Q#Q#Q#Q#Z#Z#[#[#W$N%8%;%;%;%;%;%;%;%;%;%;%;%;%;%;%7$N#e#{#|#|#|#}#}$1$1#}$f%?$x%&%&%&%&%&%&%&%&%&%*",
"%U%$%&%&%&%&%&%&%&%&%&%-$n$]$b$`$`$c$c$c$c$e$]$i$J$-$8$8$8$8$:$:$:$;$;$;$<$<$5$J$j$`$f$f$f$f$f$f$f$f$g$o%(%&%&%&%&%&%&%&%&%&%%%T",
"%Z$|%*%&%&%&%&%&%&%&%&%&%-%G%D%D%D%D%D%D%D%D%G%G${$A#H#b#a#b#r#r#r#r#s#s#x#_$B${%C%D%?%@%@%@%@%@%@%?%@%(%&%&%&%&%&%&%&%&%&%1$}%X",
"##$v%1%&%&%&%&%&%&%&%&%&%&$x$x$x$x$x$x$x$x$x$x$r%,%G$C#`$%#v#v#z#z$%$%$(#e$E%F%,$r$x$x$x$x$x$x$x$x$x$x%&%&%&%&%&%&%&%&%&%&%*$v%]",
"##%U%#%&%&%&%&%&%&%&%&%&%&%&%&%&%&%&%&%&%&%&%&%&${%&%A$C#`#z#u#u#y#z$'#c$E%?%&${%&%&%&%&%&%&%&%&%&%&%&%&%&%&%&%&%&%&%&%&%&%&%###",
"##%^$s%3%&%&%&%&%&%&%&%&%&%&%&%&%&%&%&%&%&%&%&%&%&${%&%A$C#`$%#y#z$'#c$E%?%&${%&%&%&%&%&%&%&%&%&%&%&%&%&%&%&%&%&%&%&%&%&%*$|%W##",
"####%T%%%1%&%&%&%&%&%&%&%&%&%&%&%&%&%&%&%&%&%&%&%&%&${%&%A$C#`$%$'#c$E%?%&${%&%&%&%&%&%&%&%&%&%&%&%&%&%&%&%&%&%&%&%&%&%&%3$t####",
"######$t%1%&%&%&%&%&%&%&%&%&%&%&%&%&%&%&%&%&%&%&%&%&%&${%&%A$D#d#e$E%?%&${%&%&%&%&%&%&%&%&%&%&%&%&%&%&%&%&%&%&%&%&%&%&%3$u%Y####",
"######%]$s%4%&%&%&%&%&%&%&%&%&%&%&%&%&%&%&%&%&%&%&%&%&%&${%&%A$B$B%A%&${%&%&%&%&%&%&%&%&%&%&%&%&%&%&%&%&%&%&%&%&%&%&%*%#%6######",
"########%Z$s%1%)%&%&%&%&%&%&%&%&%&%&%&%&%&%&%&%&%&%&%&%&%&${%+%(%(%-${%&%&%&%&%&%&%&%&%&%&%&%&%&%&%&%&%&%&%&%&%&%&%3%#%$########",
"##########%[$t%%%3%&%&%&%&%&%&%&%&%&%&%&%&%&%&%&%&%&%&%&%&%&${%&%&${%&%&%&%&%&%&%&%&%&%&%&%&%&%&%&%&%&%&%&%&%&%1%3$u%6##########",
"##############%5$t%%%*%1%&%&%&%&%&%&%&%&%&%&%&%&%&%&%&%&%&%&%&%&%&%&%&%&%&%&%&%&%&%&%&%&%&%&%&%&%&%&%&%&%1%*%)$w$t%Y############",
"################%[%6$v$}%$%&%&%&%&%&%&%&%&%&%&%&%&%&%&%&%&%&%&%&%&%&%&%&%&%&%&%&%&%&%&%&%&%&%&%&%&%&%&%%$}$v%#%W################",
"######################%Y%U%0%&%&%&%&%&%&%&%&%&%&%&%&%&%&%&%&%&%&%&%&%&%&%&%&%&%&%&%&%&%&%&%&%&%&%&%&%0%T%X%]####################"
};
